; generated by Slic3r 1.0.0RC2 on 2014-03-31 at 17:42:59

; layer_height = 0.24
; perimeters = 2
; top_solid_layers = 4
; bottom_solid_layers = 3
; fill_density = 0.4
; perimeter_speed = 30
; infill_speed = 40
; travel_speed = 60
; nozzle_diameter = 0.3
; filament_diameter = 1.75
; extrusion_multiplier = 1
; perimeters extrusion width = 0.30mm
; infill extrusion width = 0.32mm
; solid infill extrusion width = 0.32mm
; top infill extrusion width = 0.32mm
; first layer extrusion width = 0.48mm

G21 ; set units to millimeters
M107
M104 S205 ; set temperature
G28 ; home all axes
G1 Z5 F200 ; lift nozzle
M109 S205 ; wait for temperature to be reached
G90 ; use absolute coordinates
M83 ; use relative distances for extrusion
G1 F1800.000 E-1.00000
G1 Z0.240 F3600.000
G1 X65.950 Y73.160 F3600.000
G1 E1.00000 F1800.000
G1 X73.660 Y65.450 E0.48020 F540.000
G1 X74.630 Y64.640 E0.05565
G1 X75.740 Y64.050 E0.05536
G1 X76.950 Y63.680 E0.05572
G1 X78.210 Y63.560 E0.05574
G1 X129.500 Y63.560 E2.25882
G1 X130.760 Y63.680 E0.05574
G1 X131.970 Y64.050 E0.05572
G1 X133.080 Y64.640 E0.05536
G1 X134.050 Y65.450 E0.05565
G1 X134.860 Y66.420 E0.05565
G1 X135.450 Y67.530 E0.05536
G1 X135.820 Y68.740 E0.05572
G1 X135.940 Y70.000 E0.05574
G1 X135.940 Y122.280 E2.30242
G1 X135.820 Y123.540 E0.05574
G1 X135.450 Y124.750 E0.05572
G1 X134.860 Y125.860 E0.05536
G1 X134.050 Y126.830 E0.05565
G1 X126.330 Y134.550 E0.48082
G1 X125.360 Y135.360 E0.05565
G1 X124.250 Y135.950 E0.05536
G1 X123.040 Y136.320 E0.05572
G1 X121.780 Y136.440 E0.05574
G1 X70.500 Y136.440 E2.25838
G1 X69.240 Y136.320 E0.05574
G1 X68.030 Y135.950 E0.05572
G1 X66.920 Y135.360 E0.05536
G1 X65.950 Y134.550 E0.05565
G1 X65.140 Y133.580 E0.05565
G1 X64.550 Y132.470 E0.05536
G1 X64.180 Y131.260 E0.05572
G1 X64.060 Y130.000 E0.05574
G1 X64.060 Y77.710 E2.30286
G1 X64.180 Y76.450 E0.05574
G1 X64.550 Y75.240 E0.05572
G1 X65.140 Y74.130 E0.05536
G1 X65.908 Y73.211 E0.05274
G1 F1800.000 E-1.00000
G1 X84.334 Y73.719 F3600.000
G1 E1.00000 F1800.000
G1 X87.925 Y71.646 E0.18263 F540.000
G1 X91.517 Y73.719 E0.18262
G1 X91.517 Y77.866 E0.18263
G1 X87.925 Y79.939 E0.18263
G1 X84.334 Y77.866 E0.18263
G1 X84.334 Y73.786 E0.17971
G1 X84.776 Y73.974 F3600.000
G1 X87.925 Y72.156 E0.16018 F540.000
G1 X91.075 Y73.974 E0.16018
G1 X91.075 Y77.611 E0.16018
G1 X87.925 Y79.430 E0.16018
G1 X84.776 Y77.611 E0.16018
G1 X84.776 Y74.040 E0.15726
G1 X84.625 Y73.559 F3600.000
G1 F1800.000 E-1.00000
G1 X92.624 Y84.330 F3600.000
G1 E1.00000 F1800.000
G1 X92.925 Y84.156 E0.01535 F540.000
G1 X96.075 Y85.974 E0.16018
G1 X96.075 Y89.611 E0.16018
G1 X92.925 Y91.430 E0.16018
G1 X89.776 Y89.611 E0.16018
G1 X89.776 Y85.974 E0.16018
G1 X92.566 Y84.363 E0.14191
G1 X92.624 Y83.981 F3600.000
G1 X80.666 Y86.719 F3600.000
G1 X80.666 Y90.866 E0.18263 F540.000
G1 X77.075 Y92.939 E0.18263
G1 X73.483 Y90.866 E0.18263
G1 X73.483 Y86.719 E0.18263
G1 X77.075 Y84.646 E0.18263
G1 X80.608 Y86.686 E0.17971
G1 X80.224 Y86.974 F3600.000
G1 X80.224 Y90.611 E0.16018 F540.000
G1 X77.075 Y92.430 E0.16018
G1 X73.925 Y90.611 E0.16018
G1 X73.925 Y86.974 E0.16018
G1 X77.075 Y85.156 E0.16018
G1 X80.167 Y86.941 E0.15726
G1 X80.659 Y87.051 F3600.000
G1 F1800.000 E-1.00000
G1 X75.075 Y102.156 F3600.000
G1 E1.00000 F1800.000
G1 X78.224 Y103.974 E0.16018 F540.000
G1 X78.224 Y107.611 E0.16018
G1 X75.075 Y109.430 E0.16018
G1 X71.925 Y107.611 E0.16018
G1 X71.925 Y103.974 E0.16018
G1 X75.017 Y102.189 E0.15726
G1 X75.358 Y101.817 F3600.000
G1 F1800.000 E-1.00000
G1 X77.074 Y120.522 F3600.000
G1 E1.00000 F1800.000
G1 X77.074 Y121.185 E0.02921 F540.000
G1 X80.091 Y122.927 E0.15342
G1 X80.091 Y127.073 E0.18263
G1 X76.500 Y129.147 E0.18263
G1 X72.909 Y127.073 E0.18263
G1 X72.909 Y122.927 E0.18263
G1 X77.017 Y120.555 E0.20892
G1 X76.633 Y121.286 F3600.000
G1 X76.633 Y121.440 E0.00676 F540.000
G1 X79.650 Y123.181 E0.15342
G1 X79.650 Y126.819 E0.16018
G1 X76.500 Y128.637 E0.16018
G1 X73.350 Y126.819 E0.16018
G1 X73.350 Y123.181 E0.16018
G1 X76.576 Y121.319 E0.16403
G1 X76.784 Y121.259 F3600.000
G1 X84.909 Y122.927 F3600.000
G1 X89.074 Y120.522 E0.21183 F540.000
G1 X89.074 Y121.185 E0.02921
G1 X92.091 Y122.927 E0.15342
G1 X92.091 Y127.073 E0.18263
G1 X88.500 Y129.147 E0.18263
G1 X84.909 Y127.073 E0.18263
G1 X84.909 Y122.993 E0.17971
G1 X85.350 Y123.181 F3600.000
G1 X88.633 Y121.286 E0.16694 F540.000
G1 X88.633 Y121.440 E0.00676
G1 X91.650 Y123.181 E0.15342
G1 X91.650 Y126.819 E0.16018
G1 X88.500 Y128.637 E0.16018
G1 X85.350 Y126.819 E0.16018
G1 X85.350 Y123.248 E0.15726
G1 X85.199 Y122.767 F3600.000
G1 F1800.000 E-1.00000
G1 X88.500 Y129.252 F3600.000
G1 E1.00000 F1800.000
G1 X88.482 Y129.319 E0.00305 F540.000
G1 X76.518 Y129.319 E0.52690
G1 X76.500 Y129.252 E0.00305
G1 X76.482 Y129.319 E0.00305
G1 X71.181 Y129.319 E0.23344
G1 X71.181 Y107.692 E0.95245
G1 X75.075 Y109.939 E0.19798
G1 X78.666 Y107.866 E0.18263
G1 X78.666 Y103.719 E0.18263
G1 X75.075 Y101.646 E0.18263
G1 X71.181 Y103.894 E0.19798
G1 X71.181 Y77.995 E1.14056
G1 X78.495 Y70.681 E0.45554
G1 X89.505 Y70.681 E0.48484
G1 X96.819 Y77.995 E0.45554
G1 X96.819 Y85.894 E0.34784
G1 X92.925 Y83.646 E0.19798
G1 X89.334 Y85.719 E0.18262
G1 X89.334 Y89.866 E0.18263
G1 X92.925 Y91.939 E0.18262
G1 X96.819 Y89.692 E0.19798
G1 X96.819 Y129.319 E1.74518
G1 X88.517 Y129.316 E0.36560
G1 X97.260 Y129.760 F3600.000
G1 X70.740 Y129.760 E1.16795 F378.000
G1 X70.740 Y77.813 E2.28778
G1 X78.313 Y70.240 E0.47164
G1 X89.687 Y70.240 E0.50095
G1 X97.260 Y77.813 E0.47164
G1 X97.260 Y129.694 E2.28486
G1 X96.878 Y129.539 F3600.000
G1 X90.357 Y128.800 F3600.000
G1 X90.176 Y128.618 E0.01139 F720.000
G1 X90.513 Y128.328 E0.01972
G1 X90.985 Y128.800 E0.02956
G1 X91.613 Y128.800 E0.02781
G1 X90.911 Y128.098 E0.04395
G1 X91.309 Y127.869 E0.02036
G1 X92.241 Y128.800 E0.05835
G1 X92.869 Y128.800 E0.02781
G1 X91.707 Y127.639 E0.07274
G1 X92.105 Y127.409 E0.02036
G1 X93.496 Y128.800 E0.08714
G1 X94.124 Y128.800 E0.02781
G1 X92.389 Y127.065 E0.10869
G1 X92.389 Y126.437 E0.02781
G1 X94.752 Y128.800 E0.14802
G1 X95.380 Y128.800 E0.02781
G1 X92.389 Y125.809 E0.18734
G1 X92.389 Y125.182 E0.02781
G1 X96.008 Y128.800 E0.22667
G1 X96.300 Y128.465 E0.01971
G1 X92.389 Y124.554 E0.24500
G1 X92.389 Y123.926 E0.02781
G1 X96.300 Y127.837 E0.24500
G1 X96.300 Y127.209 E0.02781
G1 X92.389 Y123.298 E0.24500
G1 X91.103 Y122.012 F3600.000
G1 X89.372 Y120.281 E0.10842 F720.000
G1 X89.372 Y120.909 F3600.000
G1 X89.618 Y121.155 E0.01537 F720.000
G1 X84.611 Y123.054 F3600.000
G1 X71.479 Y109.922 E0.82260 F720.000
G1 X71.479 Y110.550 E0.02781
G1 X84.611 Y123.682 E0.82260
G1 X84.611 Y124.309 E0.02781
G1 X71.479 Y111.178 E0.82260
G1 X71.479 Y111.805 E0.02781
G1 X84.611 Y124.937 E0.82260
G1 X84.611 Y125.565 E0.02781
G1 X71.479 Y112.433 E0.82260
G1 X71.479 Y113.061 E0.02781
G1 X84.611 Y126.193 E0.82260
G1 X84.611 Y126.821 E0.02781
G1 X71.479 Y113.689 E0.82260
G1 X71.479 Y109.294 F3600.000
G1 X84.819 Y122.634 E0.83565 F720.000
G1 X85.217 Y122.405 E0.02036
G1 X71.479 Y108.666 E0.86058
G1 X71.879 Y108.438 E0.02039
G1 X85.615 Y122.175 E0.86047
G1 X86.013 Y121.945 E0.02036
G1 X73.364 Y109.296 E0.79236
G1 X74.850 Y110.153 F3600.000
G1 X86.411 Y121.715 E0.72424 F720.000
G1 X86.809 Y121.485 E0.02036
G1 X75.412 Y110.088 E0.71393
G1 X75.810 Y109.859 E0.02036
G1 X87.207 Y121.256 E0.71393
G1 X87.605 Y121.026 E0.02036
G1 X76.208 Y109.629 E0.71393
G1 X76.606 Y109.399 E0.02036
G1 X88.003 Y120.796 E0.71393
G1 X88.401 Y120.566 E0.02036
G1 X77.004 Y109.169 E0.71393
G1 X77.402 Y108.939 E0.02036
G1 X88.799 Y120.336 E0.71393
G1 X89.197 Y120.107 E0.02036
G1 X77.800 Y108.710 E0.71393
G1 X78.198 Y108.480 E0.02036
G1 X96.300 Y126.582 E1.13393
G1 X96.300 Y125.954 E0.02781
G1 X78.596 Y108.250 E1.10899
G1 X78.964 Y107.989 E0.01994
G1 X96.300 Y125.326 E1.08599
G1 X96.300 Y124.698 E0.02781
G1 X78.964 Y107.362 E1.08599
G1 X78.964 Y106.734 E0.02781
G1 X96.300 Y124.070 E1.08599
G1 X96.300 Y123.443 E0.02781
G1 X78.964 Y106.106 E1.08599
G1 X78.964 Y105.478 E0.02781
G1 X96.300 Y122.815 E1.08599
G1 X96.300 Y122.187 E0.02781
G1 X78.964 Y104.850 E1.08599
G1 X78.964 Y104.223 E0.02781
G1 X96.300 Y121.559 E1.08599
G1 X96.300 Y120.931 E0.02781
G1 X71.479 Y96.110 E1.55483
G1 X71.479 Y95.483 E0.02781
G1 X96.300 Y120.304 E1.55483
G1 X96.300 Y119.676 E0.02781
G1 X71.479 Y94.855 E1.55483
G1 X71.479 Y94.227 E0.02781
G1 X96.300 Y119.048 E1.55483
G1 X96.300 Y118.420 E0.02781
G1 X71.479 Y93.599 E1.55483
G1 X71.479 Y92.971 E0.02781
G1 X96.300 Y117.793 E1.55483
G1 X96.300 Y117.165 E0.02781
G1 X71.479 Y92.344 E1.55483
G1 X71.479 Y91.716 E0.02781
G1 X96.300 Y116.537 E1.55483
G1 X96.300 Y115.909 E0.02781
G1 X71.479 Y91.088 E1.55483
G1 X71.479 Y90.460 E0.02781
G1 X96.300 Y115.281 E1.55483
G1 X96.300 Y114.654 E0.02781
G1 X71.479 Y89.833 E1.55483
G1 X71.479 Y89.205 E0.02781
G1 X96.300 Y114.026 E1.55483
G1 X96.300 Y113.398 E0.02781
G1 X74.971 Y92.069 E1.33609
G1 X76.457 Y92.926 F3600.000
G1 X96.300 Y112.770 E1.24304 F720.000
G1 X96.300 Y112.142 E0.02781
G1 X77.307 Y93.149 E1.18976
G1 X77.705 Y92.919 E0.02036
G1 X96.300 Y111.515 E1.16483
G1 X96.300 Y110.887 E0.02781
G1 X78.103 Y92.690 E1.13990
G1 X78.501 Y92.460 E0.02036
G1 X96.300 Y110.259 E1.11497
G1 X96.300 Y109.631 E0.02781
G1 X78.899 Y92.230 E1.09004
G1 X79.297 Y92.000 E0.02036
G1 X96.300 Y109.003 E1.06511
G1 X96.300 Y108.376 E0.02781
G1 X79.695 Y91.770 E1.04017
G1 X80.093 Y91.541 E0.02036
G1 X96.300 Y107.748 E1.01524
G1 X96.300 Y107.120 E0.02781
G1 X80.491 Y91.311 E0.99031
G1 X80.889 Y91.081 E0.02036
G1 X96.300 Y106.492 E0.96538
G1 X96.300 Y105.864 E0.02781
G1 X80.964 Y90.528 E0.96071
G1 X80.964 Y89.900 E0.02781
G1 X96.300 Y105.237 E0.96071
G1 X96.300 Y104.609 E0.02781
G1 X80.964 Y89.272 E0.96071
G1 X80.964 Y88.644 E0.02781
G1 X96.300 Y103.981 E0.96071
G1 X96.300 Y103.353 E0.02781
G1 X80.964 Y88.017 E0.96071
G1 X80.964 Y87.389 E0.02781
G1 X96.300 Y102.725 E0.96071
G1 X96.300 Y102.098 E0.02781
G1 X71.916 Y77.713 E1.52747
G1 X72.230 Y77.400 E0.01966
G1 X96.300 Y101.470 E1.50780
G1 X96.300 Y100.842 E0.02781
G1 X72.544 Y77.086 E1.48814
G1 X72.858 Y76.772 E0.01966
G1 X96.300 Y100.214 E1.46848
G1 X96.300 Y99.586 E0.02781
G1 X73.171 Y76.458 E1.44882
G1 X73.485 Y76.144 E0.01966
G1 X96.300 Y98.959 E1.42915
G1 X96.300 Y98.331 E0.02781
G1 X73.799 Y75.830 E1.40949
G1 X74.113 Y75.516 E0.01966
G1 X96.300 Y97.703 E1.38983
G1 X96.300 Y97.075 E0.02781
G1 X74.427 Y75.202 E1.37016
G1 X74.741 Y74.888 E0.01966
G1 X89.036 Y89.184 E0.89549
G1 X89.036 Y88.556 E0.02781
G1 X75.055 Y74.574 E0.87583
G1 X75.369 Y74.261 E0.01966
G1 X89.036 Y87.928 E0.85616
G1 X89.036 Y87.300 E0.02781
G1 X75.683 Y73.947 E0.83650
G1 X75.997 Y73.633 E0.01966
G1 X89.036 Y86.673 E0.81684
G1 X89.036 Y86.045 E0.02781
G1 X76.310 Y73.319 E0.79717
G1 X76.624 Y73.005 E0.01966
G1 X89.119 Y85.500 E0.78269
G1 X89.517 Y85.270 E0.02036
G1 X76.938 Y72.691 E0.78796
G1 X77.252 Y72.377 E0.01966
G1 X89.915 Y85.040 E0.79323
G1 X90.313 Y84.810 E0.02036
G1 X77.566 Y72.063 E0.79850
G1 X77.880 Y71.749 E0.01966
G1 X90.711 Y84.581 E0.80376
G1 X91.109 Y84.351 E0.02036
G1 X85.835 Y79.076 E0.33041
G1 X87.320 Y79.934 F3600.000
G1 X91.507 Y84.121 E0.26229 F720.000
G1 X91.905 Y83.891 E0.02036
G1 X88.161 Y80.147 E0.23453
G1 X88.559 Y79.917 E0.02036
G1 X92.303 Y83.661 E0.23453
G1 X92.701 Y83.432 E0.02036
G1 X88.957 Y79.688 E0.23453
G1 X89.355 Y79.458 E0.02036
G1 X93.574 Y83.676 E0.26426
G1 X95.059 Y84.534 F3600.000
G1 X89.753 Y79.228 E0.33237 F720.000
G1 X90.151 Y78.998 E0.02036
G1 X96.300 Y85.147 E0.38518
G1 X96.300 Y84.519 E0.02781
G1 X90.549 Y78.768 E0.36025
G1 X90.947 Y78.539 E0.02036
G1 X96.300 Y83.892 E0.33532
G1 X96.300 Y83.264 E0.02781
G1 X91.345 Y78.309 E0.31038
G1 X91.743 Y78.079 E0.02036
G1 X96.300 Y82.636 E0.28545
G1 X96.300 Y82.008 E0.02781
G1 X91.814 Y77.522 E0.28099
G1 X91.814 Y76.895 E0.02781
G1 X96.300 Y81.380 E0.28099
G1 X96.300 Y80.753 E0.02781
G1 X91.814 Y76.267 E0.28099
G1 X91.814 Y75.639 E0.02781
G1 X96.300 Y80.125 E0.28099
G1 X96.300 Y79.497 E0.02781
G1 X91.814 Y75.011 E0.28099
G1 X91.814 Y74.384 E0.02781
G1 X96.300 Y78.869 E0.28099
G1 X96.300 Y78.241 E0.02781
G1 X92.035 Y73.976 E0.26717
G1 X87.641 Y71.466 F3600.000
G1 X87.154 Y70.979 E0.03050 F720.000
G1 X86.527 Y70.979 E0.02781
G1 X87.243 Y71.696 E0.04490
G1 X86.845 Y71.926 E0.02036
G1 X85.899 Y70.979 E0.05929
G1 X85.271 Y70.979 E0.02781
G1 X86.447 Y72.155 E0.07368
G1 X86.049 Y72.385 E0.02036
G1 X84.643 Y70.979 E0.08808
G1 X84.015 Y70.979 E0.02781
G1 X85.651 Y72.615 E0.10247
G1 X85.253 Y72.845 E0.02036
G1 X83.388 Y70.979 E0.11687
G1 X82.760 Y70.979 E0.02781
G1 X84.855 Y73.075 E0.13126
G1 X84.457 Y73.304 E0.02036
G1 X82.132 Y70.979 E0.14566
G1 X81.504 Y70.979 E0.02781
G1 X84.059 Y73.534 E0.16005
G1 X84.036 Y74.139 E0.02681
G1 X80.877 Y70.979 E0.19794
G1 X80.249 Y70.979 E0.02781
G1 X84.036 Y74.767 E0.23727
G1 X84.036 Y75.395 E0.02781
G1 X79.621 Y70.979 E0.27659
G1 X78.993 Y70.979 E0.02781
G1 X84.036 Y76.022 E0.31592
G1 X84.036 Y76.650 E0.02781
G1 X78.508 Y71.122 E0.34633
G1 X78.194 Y71.435 E0.01966
G1 X84.036 Y77.278 E0.36599
G1 X78.973 Y85.398 F3600.000
G1 X71.602 Y78.027 E0.46171 F720.000
G1 X71.479 Y78.532 E0.02302
G1 X77.487 Y84.540 E0.37636
G1 X76.787 Y84.468 E0.03118
G1 X71.479 Y79.160 E0.33250
G1 X71.479 Y79.788 E0.02781
G1 X76.389 Y84.698 E0.30757
G1 X75.991 Y84.928 E0.02036
G1 X71.479 Y80.416 E0.28264
G1 X71.479 Y81.043 E0.02781
G1 X75.593 Y85.157 E0.25771
G1 X75.195 Y85.387 E0.02036
G1 X71.479 Y81.671 E0.23277
G1 X71.479 Y82.299 E0.02781
G1 X74.797 Y85.617 E0.20784
G1 X74.399 Y85.847 E0.02036
G1 X71.479 Y82.927 E0.18291
G1 X71.479 Y83.555 E0.02781
G1 X74.001 Y86.077 E0.15798
G1 X73.603 Y86.306 E0.02036
G1 X71.479 Y84.182 E0.13305
G1 X71.479 Y84.810 E0.02781
G1 X73.205 Y86.536 E0.10812
G1 X73.186 Y87.144 E0.02696
G1 X71.479 Y85.438 E0.10689
G1 X71.479 Y86.066 E0.02781
G1 X73.186 Y87.772 E0.10689
G1 X73.186 Y88.400 E0.02781
G1 X71.479 Y86.694 E0.10689
G1 X71.479 Y87.321 E0.02781
G1 X73.186 Y89.028 E0.10689
G1 X73.186 Y89.656 E0.02781
G1 X71.479 Y87.949 E0.10689
G1 X71.479 Y88.577 E0.02781
G1 X73.186 Y90.283 E0.10689
G1 X71.479 Y96.738 F3600.000
G1 X77.366 Y102.625 E0.36875 F720.000
G1 X75.880 Y101.767 F3600.000
G1 X71.479 Y97.366 E0.27570 F720.000
G1 X71.479 Y97.994 E0.02781
G1 X74.892 Y101.407 E0.21382
G1 X74.494 Y101.637 E0.02036
G1 X71.479 Y98.622 E0.18889
G1 X71.479 Y99.249 E0.02781
G1 X74.096 Y101.867 E0.16395
G1 X73.698 Y102.097 E0.02036
G1 X71.479 Y99.877 E0.13902
G1 X71.479 Y100.505 E0.02781
G1 X73.300 Y102.326 E0.11409
G1 X72.902 Y102.556 E0.02036
G1 X71.479 Y101.133 E0.08916
G1 X71.479 Y101.761 E0.02781
G1 X72.504 Y102.786 E0.06423
G1 X72.106 Y103.016 E0.02036
G1 X71.479 Y102.388 E0.03929
G1 X71.479 Y103.016 E0.02781
G1 X71.708 Y103.245 E0.01436
G1 F1800.000 E-1.00000
G1 X77.372 Y120.837 F3600.000
G1 E1.00000 F1800.000
G1 X77.788 Y121.253 E0.02603 F720.000
G1 X79.273 Y122.110 F3600.000
G1 X71.479 Y114.316 E0.48822 F720.000
G1 X71.479 Y114.944 E0.02781
G1 X76.845 Y120.310 E0.33613
G1 X76.447 Y120.540 E0.02036
G1 X71.479 Y115.572 E0.31120
G1 X71.479 Y116.200 E0.02781
G1 X76.049 Y120.770 E0.28626
G1 X75.651 Y121.000 E0.02036
G1 X71.479 Y116.828 E0.26133
G1 X71.479 Y117.455 E0.02781
G1 X75.253 Y121.229 E0.23640
G1 X74.855 Y121.459 E0.02036
G1 X71.479 Y118.083 E0.21147
G1 X71.479 Y118.711 E0.02781
G1 X74.457 Y121.689 E0.18654
G1 X74.059 Y121.919 E0.02036
G1 X71.479 Y119.339 E0.16160
G1 X71.479 Y119.967 E0.02781
G1 X73.661 Y122.148 E0.13667
G1 X73.263 Y122.378 E0.02036
G1 X71.479 Y120.594 E0.11174
G1 X71.479 Y121.222 E0.02781
G1 X72.865 Y122.608 E0.08681
G1 X72.611 Y122.982 E0.02002
G1 X71.479 Y121.850 E0.07090
G1 X71.479 Y122.478 E0.02781
G1 X72.611 Y123.610 E0.07090
G1 X72.611 Y124.237 E0.02781
G1 X71.479 Y123.106 E0.07090
G1 X71.479 Y123.733 E0.02781
G1 X72.611 Y124.865 E0.07090
G1 X72.611 Y125.493 E0.02781
G1 X71.479 Y124.361 E0.07090
G1 X71.479 Y124.989 E0.02781
G1 X72.611 Y126.121 E0.07090
G1 X72.611 Y126.749 E0.02781
G1 X71.479 Y125.617 E0.07090
G1 X71.479 Y126.245 E0.02781
G1 X72.266 Y127.032 E0.04931
G1 X72.904 Y127.669 F3600.000
G1 X74.035 Y128.800 E0.07085 F720.000
G1 X73.407 Y128.800 E0.02781
G1 X71.479 Y126.872 E0.12076
