; generated by Slic3r 0.9.9-dev on 2013-11-16 at 13:38:32

; M-PLA-05-03-1

; layer_height = 0.3
; perimeters = 2
; top_solid_layers = 3
; bottom_solid_layers = 2
; fill_density = 0.2
; perimeter_speed = 40
; infill_speed = 40
; travel_speed = 250
; scale = 1
; nozzle_diameter = 0.5
; filament_diameter = 1.70
; extrusion_multiplier = 1.0
; perimeters extrusion width = 0.50mm
; infill extrusion width = 0.50mm
; first layer extrusion width = 0.50mm

M107
M190 S57 ; wait for bed temperature to be reached
M104 S200 ; set temperature
G28
G1 Y20 F12000
G1 Z0.3 F200
M109 S200 ; wait for temperature to be reached
G90 ; use absolute coordinates
G21 ; set units to millimeters
G92 E0
M82 ; use absolute distances for extrusion
G1 F3600.000 E-3.20000
G92 E0
G1 Z0.300 F15000.000
G1 X25.564 Y45.273
G1 X25.814 Y45.153 F3600.000 E3.20000
G1 X25.814 Y45.153 F2400.000
G1 X26.214 Y44.993 E3.22847
G1 X67.754 Y31.163 E6.12179
G1 X68.024 Y31.083 E6.14040
G1 X68.394 Y31.003 E6.16542
G1 X68.774 Y30.953 E6.19075
G1 X69.304 Y30.923 E6.22583
G1 X173.274 Y30.923 E13.09669
G1 X173.804 Y30.953 E13.13178
G1 X174.184 Y31.003 E13.15710
G1 X174.554 Y31.083 E13.18212
G1 X174.824 Y31.163 E13.20073
G1 X175.244 Y31.323 E13.23043
G1 X175.794 Y31.583 E13.27064
G1 X176.084 Y31.763 E13.29319
G1 X176.564 Y32.113 E13.33245
G1 X177.194 Y32.743 E13.39133
G1 X177.384 Y32.993 E13.41208
G1 X177.544 Y33.223 E13.43060
G1 X177.834 Y33.713 E13.46822
G1 X178.074 Y34.253 E13.50728
G1 X192.904 Y74.213 E16.32403
G1 X193.084 Y74.823 E16.36606
G1 X193.174 Y75.343 E16.40093
G1 X193.204 Y75.633 E16.42020
G1 X193.224 Y75.993 E16.44403
G1 X193.224 Y179.963 E23.31490
G1 X193.174 Y180.613 E23.35798
G1 X193.084 Y181.133 E23.39285
G1 X192.914 Y181.723 E23.43343
G1 X192.664 Y182.283 E23.47396
G1 X192.374 Y182.773 E23.51159
G1 X192.214 Y183.003 E23.53010
G1 X191.884 Y183.413 E23.56488
G1 X191.434 Y183.863 E23.60694
G1 X191.154 Y184.073 E23.63007
G1 X190.664 Y184.403 E23.66911
G1 X190.134 Y184.663 E23.70812
G1 X189.574 Y184.863 E23.74742
G1 X189.314 Y184.933 E23.76521
G1 X188.764 Y185.033 E23.80216
G1 X188.114 Y185.083 E23.84524
G1 X61.134 Y185.083 E32.23672
G1 X60.484 Y185.033 E32.27981
G1 X59.964 Y184.943 E32.31468
G1 X59.694 Y184.873 E32.33311
G1 X59.374 Y184.773 E32.35527
G1 X59.064 Y184.643 E32.37748
G1 X58.814 Y184.523 E32.39581
G1 X58.324 Y184.233 E32.43344
G1 X57.934 Y183.953 E32.46517
G1 X24.684 Y157.793 E35.26105
G1 X24.174 Y157.313 E35.30733
G1 X23.844 Y156.943 E35.34009
G1 X23.534 Y156.493 E35.37621
G1 X23.324 Y156.123 E35.40432
G1 X23.074 Y155.563 E35.44485
G1 X22.904 Y154.973 E35.48543
G1 X22.814 Y154.453 E35.52030
G1 X22.764 Y153.803 E35.56338
G1 X22.764 Y49.833 E42.43425
G1 X22.814 Y49.183 E42.47733
G1 X22.904 Y48.663 E42.51221
G1 X22.974 Y48.393 E42.53064
G1 X23.074 Y48.073 E42.55280
G1 X23.204 Y47.763 E42.57501
G1 X23.324 Y47.513 E42.59334
G1 X23.614 Y47.023 E42.63097
G1 X23.964 Y46.543 E42.67022
G1 X24.594 Y45.913 E42.72910
G1 X25.074 Y45.563 E42.76836
G1 X25.499 Y45.311 E42.80103
G1 X25.564 Y45.273 E42.80599
G1 F3600.000 E39.60599
G92 E0
G1 X33.949 Y145.189 F15000.000
G1 X34.332 Y145.223 F3600.000 E3.20000
G1 X34.332 Y145.223 F2400.000
G1 X34.777 Y145.342 E3.23042
G1 X35.194 Y145.536 E3.26083
G1 X35.571 Y145.800 E3.29125
G1 X35.897 Y146.126 E3.32166
G1 X36.161 Y146.503 E3.35208
G1 X36.355 Y146.920 E3.38249
G1 X36.474 Y147.364 E3.41291
G1 X36.514 Y147.823 E3.44332
G1 X36.474 Y148.281 E3.47374
G1 X36.355 Y148.726 E3.50415
G1 X36.161 Y149.143 E3.53457
G1 X35.897 Y149.520 E3.56498
G1 X35.571 Y149.846 E3.59540
G1 X35.372 Y149.985 E3.61147
G1 X35.194 Y150.110 E3.62581
G1 X34.777 Y150.304 E3.65623
G1 X34.332 Y150.423 E3.68664
G1 X33.874 Y150.463 E3.71706
G1 X33.416 Y150.423 E3.74747
G1 X32.971 Y150.304 E3.77789
G1 X32.554 Y150.110 E3.80830
G1 X32.177 Y149.846 E3.83872
G1 X31.851 Y149.520 E3.86913
G1 X31.587 Y149.143 E3.89955
G1 X31.393 Y148.726 E3.92996
G1 X31.274 Y148.281 E3.96038
G1 X31.234 Y147.823 E3.99079
G1 X31.274 Y147.364 E4.02121
G1 X31.393 Y146.920 E4.05163
G1 X31.587 Y146.503 E4.08204
G1 X31.851 Y146.126 E4.11246
G1 X32.177 Y145.800 E4.14287
G1 X32.554 Y145.536 E4.17329
G1 X32.971 Y145.342 E4.20370
G1 X33.401 Y145.227 E4.23314
G1 X33.949 Y145.189
G1 X33.401 Y145.227 F3600.000 E1.03314
G92 E0
G1 X33.799 Y58.458 F15000.000
G1 X33.416 Y58.424 F3600.000 E3.20000
G1 X33.416 Y58.424 F2400.000
G1 X32.971 Y58.305 E3.23041
G1 X32.554 Y58.110 E3.26083
G1 X32.177 Y57.846 E3.29125
G1 X31.851 Y57.521 E3.32166
G1 X31.587 Y57.144 E3.35208
G1 X31.393 Y56.727 E3.38249
G1 X31.274 Y56.282 E3.41291
G1 X31.234 Y55.824 E3.44332
G1 X31.274 Y55.365 E3.47374
G1 X31.393 Y54.921 E3.50415
G1 X31.587 Y54.504 E3.53457
G1 X31.727 Y54.304 E3.55064
G1 X31.851 Y54.127 E3.56498
G1 X32.177 Y53.801 E3.59540
G1 X32.554 Y53.537 E3.62581
G1 X32.971 Y53.343 E3.65623
G1 X33.416 Y53.223 E3.68664
G1 X33.874 Y53.183 E3.71706
G1 X34.332 Y53.223 E3.74747
G1 X34.777 Y53.343 E3.77789
G1 X35.194 Y53.537 E3.80830
G1 X35.571 Y53.801 E3.83872
G1 X35.897 Y54.127 E3.86913
G1 X36.161 Y54.504 E3.89955
G1 X36.355 Y54.921 E3.92996
G1 X36.474 Y55.365 E3.96038
G1 X36.514 Y55.824 E3.99079
G1 X36.474 Y56.282 E4.02121
G1 X36.355 Y56.727 E4.05162
G1 X36.161 Y57.144 E4.08204
G1 X35.897 Y57.521 E4.11245
G1 X35.571 Y57.846 E4.14287
G1 X35.194 Y58.110 E4.17329
G1 X34.777 Y58.305 E4.20370
G1 X34.347 Y58.420 E4.23314
G1 X33.799 Y58.458
G1 X34.347 Y58.420 F3600.000 E1.03314
G92 E0
G1 X146.239 Y55.749 F15000.000
G1 X146.272 Y55.365 F3600.000 E3.20000
G1 X146.272 Y55.365 F2400.000
G1 X146.392 Y54.921 E3.23042
G1 X146.586 Y54.504 E3.26083
G1 X146.850 Y54.127 E3.29125
G1 X147.022 Y53.955 E3.30732
G1 X147.175 Y53.801 E3.32166
G1 X147.552 Y53.537 E3.35207
G1 X147.970 Y53.343 E3.38249
G1 X148.414 Y53.223 E3.41291
G1 X148.873 Y53.183 E3.44332
G1 X149.331 Y53.223 E3.47374
G1 X149.776 Y53.343 E3.50415
G1 X150.193 Y53.537 E3.53457
G1 X150.570 Y53.801 E3.56498
G1 X150.742 Y53.973 E3.58105
G1 X150.895 Y54.127 E3.59540
G1 X151.159 Y54.504 E3.62581
G1 X151.354 Y54.921 E3.65623
G1 X151.473 Y55.365 E3.68664
G1 X151.513 Y55.824 E3.71706
G1 X151.473 Y56.282 E3.74747
G1 X151.354 Y56.727 E3.77789
G1 X151.159 Y57.144 E3.80830
G1 X150.895 Y57.521 E3.83872
G1 X150.723 Y57.693 E3.85479
G1 X150.570 Y57.846 E3.86913
G1 X150.193 Y58.110 E3.89955
G1 X149.776 Y58.305 E3.92996
G1 X149.331 Y58.424 E3.96038
G1 X148.873 Y58.464 E3.99079
G1 X148.414 Y58.424 E4.02121
G1 X147.970 Y58.305 E4.05162
G1 X147.552 Y58.110 E4.08204
G1 X147.175 Y57.846 E4.11246
G1 X146.850 Y57.521 E4.14287
G1 X146.586 Y57.144 E4.17329
G1 X146.392 Y56.727 E4.20370
G1 X146.276 Y56.296 E4.23314
G1 X146.239 Y55.749
G1 X146.276 Y56.296 F3600.000 E1.03314
G92 E0
G1 X161.489 Y125.216 F15000.000
G1 X161.873 Y125.183 F3600.000 E3.20000
G1 X161.873 Y125.183 F2400.000
G1 X162.332 Y125.223 E3.23042
G1 X162.776 Y125.342 E3.26083
G1 X162.997 Y125.445 E3.27690
G1 X163.193 Y125.536 E3.29125
G1 X163.570 Y125.800 E3.32166
G1 X163.896 Y126.126 E3.35208
G1 X164.160 Y126.503 E3.38249
G1 X164.354 Y126.920 E3.41291
G1 X164.473 Y127.364 E3.44332
G1 X164.513 Y127.823 E3.47374
G1 X164.473 Y128.281 E3.50415
G1 X164.354 Y128.726 E3.53457
G1 X164.160 Y129.143 E3.56498
G1 X163.896 Y129.520 E3.59540
G1 X163.570 Y129.846 E3.62581
G1 X163.371 Y129.985 E3.64188
G1 X163.193 Y130.110 E3.65623
G1 X162.776 Y130.304 E3.68664
G1 X162.332 Y130.423 E3.71706
G1 X161.873 Y130.463 E3.74747
G1 X161.415 Y130.423 E3.77789
G1 X160.970 Y130.304 E3.80830
G1 X160.553 Y130.110 E3.83872
G1 X160.176 Y129.846 E3.86913
G1 X159.850 Y129.520 E3.89955
G1 X159.711 Y129.321 E3.91562
G1 X159.587 Y129.143 E3.92996
G1 X159.392 Y128.726 E3.96038
G1 X159.273 Y128.281 E3.99079
G1 X159.233 Y127.823 E4.02121
G1 X159.273 Y127.364 E4.05162
G1 X159.392 Y126.920 E4.08204
G1 X159.587 Y126.503 E4.11246
G1 X159.850 Y126.126 E4.14287
G1 X160.176 Y125.800 E4.17329
G1 X160.553 Y125.536 E4.20370
G1 X160.957 Y125.348 E4.23314
G1 X161.489 Y125.216
G1 X161.402 Y124.722 F15000.000
G1 X161.873 Y124.681 F780.000 E4.26438
G1 X162.419 Y124.728 E4.30058
G1 X162.948 Y124.870 E4.33677
G1 X163.208 Y124.991 E4.35574
G1 X163.444 Y125.102 E4.37297
G1 X163.893 Y125.416 E4.40917
G1 X164.280 Y125.803 E4.44537
G1 X164.594 Y126.252 E4.48156
G1 X164.826 Y126.748 E4.51776
G1 X164.968 Y127.277 E4.55396
G1 X165.015 Y127.823 E4.59015
G1 X164.968 Y128.369 E4.62635
G1 X164.893 Y128.646 E4.64531
G1 X164.826 Y128.898 E4.66255
G1 X164.594 Y129.394 E4.69874
G1 X164.280 Y129.843 E4.73494
G1 X163.893 Y130.230 E4.77114
G1 X163.444 Y130.544 E4.80733
G1 X162.948 Y130.776 E4.84353
G1 X162.419 Y130.917 E4.87973
G1 X161.873 Y130.965 E4.91593
G1 X161.327 Y130.917 E4.95212
G1 X160.798 Y130.776 E4.98832
G1 X160.302 Y130.544 E5.02452
G1 X159.853 Y130.230 E5.06071
G1 X159.466 Y129.843 E5.09691
G1 X159.301 Y129.608 E5.11587
G1 X159.152 Y129.394 E5.13311
G1 X158.920 Y128.898 E5.16930
G1 X158.779 Y128.369 E5.20550
G1 X158.731 Y127.823 E5.24170
G1 X158.779 Y127.277 E5.27789
G1 X158.920 Y126.748 E5.31409
G1 X159.152 Y126.252 E5.35029
G1 X159.466 Y125.803 E5.38648
G1 X159.853 Y125.416 E5.42268
G1 X160.302 Y125.102 E5.45888
G1 X160.798 Y124.870 E5.49507
G1 X160.893 Y124.845 E5.50153
G1 X161.402 Y124.722
G1 F3600.000 E2.30153
G92 E0
G1 X150.254 Y145.579 F15000.000
G1 X150.570 Y145.800 F3600.000 E3.20000
G1 X150.570 Y145.800 F2400.000
G1 X150.895 Y146.126 E3.23042
G1 X151.159 Y146.503 E3.26083
G1 X151.354 Y146.920 E3.29125
G1 X151.473 Y147.364 E3.32166
G1 X151.513 Y147.823 E3.35208
G1 X151.473 Y148.281 E3.38249
G1 X151.354 Y148.726 E3.41291
G1 X151.159 Y149.143 E3.44332
G1 X150.895 Y149.520 E3.47374
G1 X150.570 Y149.846 E3.50415
G1 X150.193 Y150.110 E3.53457
G1 X149.776 Y150.304 E3.56498
G1 X149.331 Y150.423 E3.59540
G1 X148.873 Y150.463 E3.62581
G1 X148.630 Y150.442 E3.64188
G1 X148.414 Y150.423 E3.65623
G1 X147.970 Y150.304 E3.68664
G1 X147.552 Y150.110 E3.71706
G1 X147.175 Y149.846 E3.74747
G1 X146.850 Y149.520 E3.77789
G1 X146.586 Y149.143 E3.80830
G1 X146.392 Y148.726 E3.83872
G1 X146.329 Y148.491 E3.85479
G1 X146.272 Y148.281 E3.86914
G1 X146.232 Y147.823 E3.89955
G1 X146.272 Y147.364 E3.92997
G1 X146.392 Y146.920 E3.96038
G1 X146.586 Y146.503 E3.99079
G1 X146.850 Y146.126 E4.02121
G1 X147.175 Y145.800 E4.05163
G1 X147.552 Y145.536 E4.08204
G1 X147.970 Y145.342 E4.11246
G1 X148.414 Y145.223 E4.14287
G1 X148.873 Y145.183 E4.17329
G1 X149.331 Y145.223 E4.20370
G1 X149.761 Y145.338 E4.23314
G1 X150.254 Y145.579
G1 X149.761 Y145.338 F3600.000 E1.03314
G92 E0
G1 X148.959 Y144.123 F15000.000
G1 X149.559 Y144.123 F3600.000 E3.20000
G1 X151.773 Y144.123 F1200.000 E3.34633
G1 X151.773 Y59.524 E8.93708
G1 X148.884 Y59.524 E9.12802
G1 X148.230 Y59.467 E9.17136
G1 X147.608 Y59.300 E9.21397
G1 X147.023 Y59.027 E9.25658
G1 X146.495 Y58.657 E9.29919
G1 X146.039 Y58.201 E9.34180
G1 X145.669 Y57.673 E9.38441
G1 X145.397 Y57.089 E9.42702
G1 X145.230 Y56.466 E9.46963
G1 X145.173 Y55.813 E9.51297
G1 X145.173 Y52.924 E9.70391
G1 X37.574 Y52.924 E16.81457
G1 X37.574 Y55.813 E17.00551
G1 X37.517 Y56.466 E17.04885
G1 X37.350 Y57.089 E17.09146
G1 X37.208 Y57.393 E17.11363
G1 X37.077 Y57.673 E17.13407
G1 X36.708 Y58.201 E17.17668
G1 X36.252 Y58.657 E17.21929
G1 X35.724 Y59.027 E17.26190
G1 X35.139 Y59.300 E17.30451
G1 X34.516 Y59.467 E17.34712
G1 X33.863 Y59.524 E17.39046
G1 X31.474 Y59.524 E17.54836
G1 X31.474 Y144.123 E23.13910
G1 X33.863 Y144.123 E23.29700
G1 X34.516 Y144.180 E23.34034
G1 X35.139 Y144.347 E23.38295
G1 X35.724 Y144.619 E23.42556
G1 X36.252 Y144.989 E23.46817
G1 X36.708 Y145.445 E23.51078
G1 X37.077 Y145.973 E23.55339
G1 X37.350 Y146.558 E23.59600
G1 X37.517 Y147.181 E23.63861
G1 X37.574 Y147.834 E23.68195
G1 X37.574 Y152.573 E23.99516
G1 X37.124 Y152.573 E24.02490
G1 X37.124 Y155.423 E24.21324
G1 X27.884 Y155.423 E24.82383
G1 X27.596 Y155.398 E24.84298
G1 X27.327 Y155.326 E24.86140
G1 X27.074 Y155.208 E24.87982
G1 X26.846 Y155.048 E24.89824
G1 X26.649 Y154.851 E24.91666
G1 X26.561 Y154.726 E24.92673
G1 X26.489 Y154.623 E24.93508
G1 X26.371 Y154.370 E24.95350
G1 X26.299 Y154.101 E24.97192
G1 X26.274 Y153.812 E24.99106
G1 X26.274 Y49.834 E31.86248
G1 X26.299 Y49.546 E31.88162
G1 X26.371 Y49.276 E31.90004
G1 X26.489 Y49.024 E31.91846
G1 X26.649 Y48.795 E31.93688
G1 X26.846 Y48.598 E31.95530
G1 X27.074 Y48.438 E31.97372
G1 X27.327 Y48.321 E31.99214
G1 X27.596 Y48.249 E32.01056
G1 X27.884 Y48.223 E32.02971
G1 X154.862 Y48.223 E40.42104
G1 X155.151 Y48.249 E40.44019
G1 X155.420 Y48.321 E40.45861
G1 X155.673 Y48.438 E40.47703
G1 X155.901 Y48.598 E40.49545
G1 X156.098 Y48.795 E40.51387
G1 X156.258 Y49.024 E40.53229
G1 X156.376 Y49.276 E40.55071
G1 X156.448 Y49.546 E40.56913
G1 X156.473 Y49.834 E40.58827
G1 X156.473 Y119.834 E45.21420
G1 X156.524 Y120.414 E45.25266
G1 X156.677 Y120.986 E45.29183
G1 X156.928 Y121.523 E45.33101
G1 X157.268 Y122.009 E45.37019
G1 X157.687 Y122.428 E45.40936
G1 X158.173 Y122.768 E45.44854
G1 X158.710 Y123.019 E45.48772
G1 X159.283 Y123.172 E45.52689
G1 X159.862 Y123.223 E45.56535
G1 X161.862 Y123.223 E45.69752
G1 X162.672 Y123.294 E45.75122
G1 X163.446 Y123.501 E45.80420
G1 X163.821 Y123.676 E45.83155
G1 X164.173 Y123.840 E45.85718
G1 X164.829 Y124.300 E45.91016
G1 X165.396 Y124.867 E45.96313
G1 X165.856 Y125.523 E46.01611
G1 X166.195 Y126.250 E46.06909
G1 X166.402 Y127.024 E46.12207
G1 X166.472 Y127.823 E46.17505
G1 X166.402 Y128.622 E46.22802
G1 X166.195 Y129.396 E46.28100
G1 X165.856 Y130.122 E46.33398
G1 X165.396 Y130.779 E46.38696
G1 X164.829 Y131.346 E46.43994
G1 X164.173 Y131.806 E46.49292
G1 X163.446 Y132.145 E46.54589
G1 X162.672 Y132.352 E46.59887
G1 X161.862 Y132.423 E46.65257
G1 X159.862 Y132.423 E46.78474
G1 X159.283 Y132.474 E46.82320
G1 X158.710 Y132.627 E46.86237
G1 X158.173 Y132.878 E46.90155
G1 X157.687 Y133.218 E46.94073
G1 X157.268 Y133.637 E46.97990
G1 X156.928 Y134.122 E47.01908
G1 X156.677 Y134.660 E47.05826
G1 X156.524 Y135.232 E47.09744
G1 X156.473 Y135.812 E47.13589
G1 X156.473 Y153.812 E48.32545
G1 X156.448 Y154.101 E48.34459
G1 X156.376 Y154.370 E48.36301
G1 X156.258 Y154.623 E48.38143
G1 X156.098 Y154.851 E48.39985
G1 X155.901 Y155.048 E48.41827
G1 X155.673 Y155.208 E48.43669
G1 X155.420 Y155.326 E48.45511
G1 X155.151 Y155.398 E48.47353
G1 X154.862 Y155.423 E48.49268
G1 X143.623 Y155.423 E49.23544
G1 X143.623 Y152.223 E49.44692
G1 X145.173 Y152.223 E49.54935
G1 X145.173 Y147.834 E49.83943
G1 X145.230 Y147.181 E49.88277
G1 X145.397 Y146.558 E49.92538
G1 X145.669 Y145.973 E49.96799
G1 X146.039 Y145.445 E50.01060
G1 X146.495 Y144.989 E50.05321
G1 X147.023 Y144.619 E50.09582
G1 X147.608 Y144.347 E50.13843
G1 X148.230 Y144.180 E50.18104
G1 X148.410 Y144.164 E50.19299
G1 X148.959 Y144.123
G1 X150.018 Y144.623 F15000.000
G1 X152.273 Y144.623 F1200.000 E50.34201
G1 X152.273 Y59.024 E55.99884
G1 X149.943 Y59.024 E56.15282
G1 X149.894 Y58.802 E56.16786
G1 X150.444 Y58.545 E56.20797
G1 X150.892 Y58.231 E56.24417
G1 X151.280 Y57.844 E56.28037
G1 X151.594 Y57.395 E56.31657
G1 X151.825 Y56.898 E56.35276
G1 X151.967 Y56.369 E56.38896
G1 X152.015 Y55.824 E56.42516
G1 X151.967 Y55.278 E56.46135
G1 X151.825 Y54.749 E56.49755
G1 X151.594 Y54.253 E56.53375
G1 X151.280 Y53.804 E56.56994
G1 X150.892 Y53.417 E56.60614
G1 X150.444 Y53.102 E56.64234
G1 X149.947 Y52.871 E56.67853
G1 X149.418 Y52.729 E56.71473
G1 X148.873 Y52.681 E56.75093
G1 X148.327 Y52.729 E56.78712
G1 X147.798 Y52.871 E56.82332
G1 X147.302 Y53.102 E56.85952
G1 X146.853 Y53.417 E56.89572
G1 X146.466 Y53.804 E56.93191
G1 X146.151 Y54.253 E56.96811
G1 X145.895 Y54.803 E57.00823
G1 X145.673 Y54.754 E57.02327
G1 X145.673 Y52.424 E57.17725
G1 X37.074 Y52.424 E64.35400
G1 X37.074 Y54.754 E64.50798
G1 X36.852 Y54.803 E64.52302
G1 X36.595 Y54.253 E64.56313
G1 X36.281 Y53.804 E64.59933
G1 X35.894 Y53.417 E64.63553
G1 X35.445 Y53.102 E64.67172
G1 X34.949 Y52.871 E64.70792
G1 X34.420 Y52.729 E64.74412
G1 X33.874 Y52.681 E64.78031
G1 X33.328 Y52.729 E64.81651
G1 X32.799 Y52.871 E64.85271
G1 X32.303 Y53.102 E64.88890
G1 X31.854 Y53.417 E64.92510
G1 X31.467 Y53.804 E64.96130
G1 X31.153 Y54.253 E64.99749
G1 X30.711 Y55.200 E65.06659
G1 X30.786 Y55.200 E65.07158
G1 X30.732 Y55.824 E65.11294
G1 X30.779 Y56.369 E65.14914
