; generated by Slic3r 0.9.9-dev on 2013-11-19 at 15:30:29

; M-PLA-05-03-1

; layer_height = 0.3
; perimeters = 2
; top_solid_layers = 3
; bottom_solid_layers = 2
; fill_density = 0.2
; perimeter_speed = 40
; infill_speed = 40
; travel_speed = 250
; scale = 1
; nozzle_diameter = 0.5
; filament_diameter = 1.70
; extrusion_multiplier = 1.0
; perimeters extrusion width = 0.50mm
; infill extrusion width = 0.50mm
; first layer extrusion width = 0.50mm

M107
M190 S57 ; wait for bed temperature to be reached
M104 S200 ; set temperature
G28
G1 Y20 F12000
G1 Z0.3 F200
M109 S200 ; wait for temperature to be reached
G90 ; use absolute coordinates
G21 ; set units to millimeters
G92 E0
M82 ; use absolute distances for extrusion
G1 F3600.000 E-3.20000
G92 E0
G1 Z0.300 F15000.000
G1 X27.450 Y14.690
G1 X27.740 Y14.200 F3600.000 E3.20000
G1 X27.740 Y14.200 F2400.000
G1 X28.090 Y13.720 E3.23926
G1 X28.720 Y13.090 E3.29814
G1 X29.200 Y12.740 E3.33740
G1 X29.690 Y12.450 E3.37502
G1 X29.940 Y12.330 E3.39335
G1 X30.250 Y12.200 E3.41556
G1 X30.570 Y12.100 E3.43772
G1 X30.840 Y12.030 E3.45615
G1 X31.360 Y11.940 E3.49103
G1 X32.010 Y11.890 E3.53411
G1 X183.980 Y11.890 E13.57706
G1 X184.630 Y11.940 E13.62014
G1 X185.150 Y12.030 E13.65502
G1 X185.740 Y12.200 E13.69560
G1 X186.050 Y12.330 E13.71781
G1 X186.300 Y12.450 E13.73614
G1 X186.780 Y12.730 E13.77286
G1 X187.030 Y12.900 E13.79284
G1 X187.270 Y13.090 E13.81307
G1 X187.900 Y13.720 E13.87195
G1 X188.250 Y14.200 E13.91120
G1 X188.540 Y14.690 E13.94883
G1 X188.790 Y15.250 E13.98936
G1 X188.960 Y15.840 E14.02994
G1 X189.020 Y16.160 E14.05145
G1 X189.060 Y16.480 E14.07276
G1 X189.090 Y17.010 E14.10785
G1 X189.090 Y198.980 E26.13335
G1 X189.060 Y199.510 E26.16843
G1 X188.960 Y200.150 E26.21124
G1 X188.790 Y200.740 E26.25182
G1 X188.660 Y201.050 E26.27403
G1 X188.540 Y201.300 E26.29236
G1 X188.250 Y201.790 E26.32999
G1 X188.090 Y202.020 E26.34850
G1 X187.900 Y202.270 E26.36925
G1 X187.270 Y202.900 E26.42813
G1 X186.790 Y203.250 E26.46739
G1 X186.300 Y203.540 E26.50502
G1 X185.740 Y203.790 E26.54554
G1 X185.150 Y203.960 E26.58612
G1 X184.830 Y204.020 E26.60764
G1 X184.510 Y204.060 E26.62895
G1 X183.980 Y204.090 E26.66403
G1 X32.010 Y204.090 E36.70698
G1 X31.480 Y204.060 E36.74206
G1 X30.840 Y203.960 E36.78487
G1 X30.250 Y203.790 E36.82545
G1 X29.940 Y203.660 E36.84766
G1 X29.690 Y203.540 E36.86599
G1 X29.200 Y203.250 E36.90362
G1 X28.970 Y203.090 E36.92213
G1 X28.720 Y202.900 E36.94288
G1 X28.090 Y202.270 E37.00176
G1 X27.740 Y201.790 E37.04102
G1 X27.450 Y201.300 E37.07865
G1 X27.200 Y200.740 E37.11918
G1 X27.030 Y200.150 E37.15975
G1 X26.940 Y199.630 E37.19463
G1 X26.890 Y198.980 E37.23771
G1 X26.890 Y17.010 E49.26321
G1 X26.940 Y16.360 E49.30630
G1 X27.030 Y15.840 E49.34117
G1 X27.200 Y15.250 E49.38175
G1 X27.418 Y14.758 E49.41732
G1 X27.450 Y14.690 E49.42228
G1 F3600.000 E46.22228
G92 E0
G1 X37.575 Y138.866 F15000.000
G1 X37.958 Y138.900 F3600.000 E3.20000
G1 X37.958 Y138.900 F2400.000
G1 X38.403 Y139.019 E3.23042
G1 X38.820 Y139.213 E3.26083
G1 X39.197 Y139.477 E3.29125
G1 X39.523 Y139.803 E3.32166
G1 X39.662 Y140.002 E3.33773
G1 X39.787 Y140.180 E3.35208
G1 X39.981 Y140.597 E3.38249
G1 X40.100 Y141.042 E3.41291
G1 X40.140 Y141.500 E3.44332
G1 X40.100 Y141.958 E3.47374
G1 X39.981 Y142.403 E3.50415
G1 X39.787 Y142.820 E3.53457
G1 X39.523 Y143.197 E3.56498
G1 X39.197 Y143.523 E3.59540
G1 X38.820 Y143.787 E3.62581
G1 X38.403 Y143.981 E3.65623
G1 X37.958 Y144.100 E3.68664
G1 X37.500 Y144.140 E3.71706
G1 X37.042 Y144.100 E3.74747
G1 X36.597 Y143.981 E3.77789
G1 X36.180 Y143.787 E3.80830
G1 X35.803 Y143.523 E3.83872
G1 X35.477 Y143.197 E3.86913
G1 X35.213 Y142.820 E3.89955
G1 X35.019 Y142.403 E3.92996
G1 X34.956 Y142.168 E3.94604
G1 X34.900 Y141.958 E3.96038
G1 X34.860 Y141.500 E3.99079
G1 X34.900 Y141.042 E4.02121
G1 X35.019 Y140.597 E4.05162
G1 X35.213 Y140.180 E4.08204
G1 X35.477 Y139.803 E4.11245
G1 X35.803 Y139.477 E4.14287
G1 X36.180 Y139.213 E4.17329
G1 X36.597 Y139.019 E4.20370
G1 X37.027 Y138.904 E4.23314
G1 X37.575 Y138.866
G1 X37.575 Y138.364 F15000.000
G1 X38.046 Y138.405 F780.000 E4.26438
G1 X38.575 Y138.547 E4.30058
G1 X39.071 Y138.779 E4.33677
G1 X39.520 Y139.093 E4.37297
G1 X39.907 Y139.480 E4.40917
G1 X40.221 Y139.929 E4.44537
G1 X40.343 Y140.189 E4.46433
G1 X40.453 Y140.425 E4.48156
G1 X40.595 Y140.954 E4.51776
G1 X40.642 Y141.500 E4.55396
G1 X40.595 Y142.046 E4.59015
G1 X40.453 Y142.575 E4.62635
G1 X40.221 Y143.071 E4.66255
G1 X39.907 Y143.520 E4.69874
G1 X39.520 Y143.907 E4.73494
G1 X39.071 Y144.221 E4.77114
G1 X38.575 Y144.453 E4.80733
G1 X38.046 Y144.595 E4.84353
G1 X37.500 Y144.642 E4.87973
G1 X36.954 Y144.595 E4.91593
G1 X36.425 Y144.453 E4.95212
G1 X35.929 Y144.221 E4.98832
G1 X35.480 Y143.907 E5.02452
G1 X35.093 Y143.520 E5.06071
G1 X34.779 Y143.071 E5.09691
G1 X34.547 Y142.575 E5.13311
G1 X34.405 Y142.046 E5.16930
G1 X34.341 Y141.307 E5.21833
G1 X34.311 Y141.307 E5.22029
G1 X34.547 Y140.425 E5.28059
G1 X34.779 Y139.929 E5.31679
G1 X35.093 Y139.480 E5.35298
G1 X35.480 Y139.093 E5.38918
G1 X35.929 Y138.779 E5.42538
G1 X36.425 Y138.547 E5.46157
G1 X36.954 Y138.405 E5.49777
G1 X37.052 Y138.397 E5.50423
G1 X37.575 Y138.364
G1 F3600.000 E2.30423
G92 E0
G1 X96.999 Y122.331 F15000.000
G1 X96.900 Y121.958 F3600.000 E3.20000
G1 X96.900 Y121.958 F2400.000
G1 X96.860 Y121.500 E3.23041
G1 X96.900 Y121.042 E3.26083
G1 X97.019 Y120.597 E3.29125
G1 X97.122 Y120.377 E3.30732
G1 X97.213 Y120.180 E3.32166
G1 X97.477 Y119.803 E3.35208
G1 X97.803 Y119.477 E3.38249
G1 X98.180 Y119.213 E3.41291
G1 X98.597 Y119.019 E3.44332
G1 X99.042 Y118.900 E3.47374
G1 X99.500 Y118.860 E3.50415
G1 X99.958 Y118.900 E3.53457
G1 X100.403 Y119.019 E3.56498
G1 X100.820 Y119.213 E3.59540
G1 X101.197 Y119.477 E3.62581
G1 X101.523 Y119.803 E3.65623
G1 X101.787 Y120.180 E3.68664
G1 X101.981 Y120.597 E3.71706
G1 X102.100 Y121.042 E3.74747
G1 X102.140 Y121.500 E3.77789
G1 X102.100 Y121.958 E3.80830
G1 X101.981 Y122.403 E3.83872
G1 X101.787 Y122.820 E3.86913
G1 X101.523 Y123.197 E3.89955
G1 X101.197 Y123.523 E3.92996
G1 X100.820 Y123.787 E3.96038
G1 X100.403 Y123.981 E3.99079
G1 X99.958 Y124.100 E4.02121
G1 X99.500 Y124.140 E4.05162
G1 X99.042 Y124.100 E4.08204
G1 X98.597 Y123.981 E4.11245
G1 X98.180 Y123.787 E4.14287
G1 X97.803 Y123.523 E4.17328
G1 X97.477 Y123.197 E4.20370
G1 X97.222 Y122.832 E4.23314
G1 X96.999 Y122.331
G1 X96.528 Y122.502 F15000.000
G1 X96.405 Y122.046 F780.000 E4.26438
G1 X96.358 Y121.500 E4.30058
G1 X96.405 Y120.954 E4.33677
G1 X96.547 Y120.425 E4.37297
G1 X96.669 Y120.165 E4.39193
G1 X96.779 Y119.929 E4.40917
G1 X97.093 Y119.480 E4.44536
G1 X97.480 Y119.093 E4.48156
G1 X97.929 Y118.779 E4.51776
G1 X98.425 Y118.547 E4.55395
G1 X98.954 Y118.405 E4.59015
G1 X99.500 Y118.358 E4.62636
G1 X100.046 Y118.405 E4.66255
G1 X100.575 Y118.547 E4.69874
G1 X100.835 Y118.669 E4.71770
G1 X101.071 Y118.779 E4.73494
G1 X101.520 Y119.093 E4.77114
G1 X101.907 Y119.480 E4.80733
G1 X102.221 Y119.929 E4.84353
G1 X102.453 Y120.425 E4.87973
G1 X102.595 Y120.954 E4.91592
G1 X102.642 Y121.500 E4.95212
G1 X102.595 Y122.046 E4.98832
G1 X102.453 Y122.575 E5.02451
G1 X102.221 Y123.071 E5.06071
G1 X101.907 Y123.520 E5.09691
G1 X101.520 Y123.907 E5.13310
G1 X101.071 Y124.221 E5.16930
G1 X100.575 Y124.453 E5.20550
G1 X100.046 Y124.595 E5.24170
G1 X99.500 Y124.642 E5.27789
G1 X98.954 Y124.595 E5.31409
G1 X98.425 Y124.453 E5.35029
G1 X97.929 Y124.221 E5.38648
G1 X97.480 Y123.907 E5.42268
G1 X97.093 Y123.520 E5.45888
G1 X96.779 Y123.071 E5.49507
G1 X96.737 Y122.983 E5.50153
G1 X96.528 Y122.502
G1 F3600.000 E2.30153
G92 E0
G1 X106.600 Y111.086 F15000.000
G1 X106.600 Y111.686 F3600.000 E3.20000
G1 X106.600 Y151.989 F1200.000 E5.86344
G1 X106.575 Y152.278 E5.88258
G1 X106.503 Y152.547 E5.90100
G1 X106.385 Y152.800 E5.91942
G1 X106.225 Y153.028 E5.93784
G1 X106.117 Y153.136 E5.94792
G1 X106.028 Y153.225 E5.95626
G1 X105.800 Y153.385 E5.97468
G1 X105.547 Y153.503 E5.99310
G1 X105.278 Y153.575 E6.01152
G1 X104.989 Y153.600 E6.03067
G1 X32.011 Y153.600 E10.85344
G1 X31.722 Y153.575 E10.87258
G1 X31.453 Y153.503 E10.89100
G1 X31.200 Y153.385 E10.90942
G1 X30.972 Y153.225 E10.92784
G1 X30.864 Y153.117 E10.93791
G1 X30.775 Y153.028 E10.94626
G1 X30.615 Y152.800 E10.96468
G1 X30.497 Y152.547 E10.98310
G1 X30.425 Y152.278 E11.00152
G1 X30.400 Y151.989 E11.02067
G1 X30.400 Y111.011 E13.72871
G1 X30.425 Y110.722 E13.74786
G1 X30.497 Y110.453 E13.76628
G1 X30.615 Y110.200 E13.78470
G1 X30.775 Y109.972 E13.80312
G1 X30.883 Y109.864 E13.81319
G1 X30.972 Y109.775 E13.82154
G1 X31.200 Y109.615 E13.83996
G1 X31.453 Y109.497 E13.85838
G1 X31.722 Y109.425 E13.87680
G1 X32.011 Y109.400 E13.89594
G1 X104.989 Y109.400 E18.71871
G1 X105.278 Y109.425 E18.73785
G1 X105.547 Y109.497 E18.75627
G1 X105.800 Y109.615 E18.77469
G1 X106.028 Y109.775 E18.79311
G1 X106.225 Y109.972 E18.81153
G1 X106.385 Y110.200 E18.82995
G1 X106.503 Y110.453 E18.84837
G1 X106.527 Y110.543 E18.85455
G1 X106.600 Y111.086
G1 X106.100 Y111.108 F15000.000
G1 X106.100 Y151.967 F1200.000 E21.55475
G1 X106.080 Y152.190 E21.56956
G1 X106.031 Y152.375 E21.58220
G1 X105.950 Y152.549 E21.59484
G1 X105.840 Y152.705 E21.60748
G1 X105.764 Y152.782 E21.61466
G1 X105.705 Y152.840 E21.62012
G1 X105.549 Y152.950 E21.63275
G1 X105.375 Y153.031 E21.64539
G1 X105.191 Y153.080 E21.65803
G1 X104.967 Y153.100 E21.67284
G1 X32.033 Y153.100 E26.49273
G1 X31.809 Y153.080 E26.50754
G1 X31.625 Y153.031 E26.52018
G1 X31.451 Y152.950 E26.53281
G1 X31.295 Y152.840 E26.54545
G1 X31.218 Y152.764 E26.55263
G1 X31.160 Y152.705 E26.55809
G1 X31.050 Y152.549 E26.57073
G1 X30.969 Y152.375 E26.58337
G1 X30.920 Y152.191 E26.59600
G1 X30.900 Y151.967 E26.61082
G1 X30.900 Y111.033 E29.31598
G1 X30.920 Y110.809 E29.33079
G1 X30.969 Y110.625 E29.34343
G1 X31.050 Y110.451 E29.35606
G1 X31.160 Y110.295 E29.36870
G1 X31.236 Y110.218 E29.37588
G1 X31.295 Y110.160 E29.38134
G1 X31.451 Y110.050 E29.39398
G1 X31.625 Y109.969 E29.40662
G1 X31.809 Y109.920 E29.41925
G1 X32.033 Y109.900 E29.43407
G1 X104.967 Y109.900 E34.25395
G1 X105.191 Y109.920 E34.26876
G1 X105.375 Y109.969 E34.28140
G1 X105.549 Y110.050 E34.29404
G1 X105.705 Y110.160 E34.30667
G1 X105.840 Y110.295 E34.31931
G1 X105.950 Y110.451 E34.33195
G1 X106.016 Y110.593 E34.34230
G1 X106.100 Y111.108
G1 X105.588 Y110.750 F15000.000
G1 X105.269 Y110.430 F1200.000 E34.37226
G1 X104.370 Y110.241 E34.43320
G1 X105.759 Y111.630 E34.56354
G1 X105.759 Y112.340 E34.61061
G1 X103.660 Y110.241 E34.80750
G1 X102.950 Y110.241 E34.85457
G1 X105.759 Y113.050 E35.11804
G1 X105.759 Y113.759 E35.16511
G1 X102.241 Y110.241 E35.49514
G1 X101.531 Y110.241 E35.54221
G1 X105.759 Y114.469 E35.93881
G1 X105.759 Y115.179 E35.98588
G1 X100.821 Y110.241 E36.44904
G1 X100.112 Y110.241 E36.49611
G1 X105.759 Y115.888 E37.02584
G1 X105.759 Y116.598 E37.07291
G1 X99.402 Y110.241 E37.66921
G1 X98.692 Y110.241 E37.71628
G1 X105.759 Y117.308 E38.37914
G1 X105.759 Y118.017 E38.42621
G1 X97.983 Y110.241 E39.15564
G1 X97.273 Y110.241 E39.20271
G1 X105.759 Y118.727 E39.99870
G1 X105.759 Y119.437 E40.04577
G1 X96.563 Y110.241 E40.90833
G1 X95.854 Y110.241 E40.95540
G1 X105.759 Y120.146 E41.88453
G1 X105.759 Y120.856 E41.93160
G1 X95.144 Y110.241 E42.92729
G1 X94.434 Y110.241 E42.97436
G1 X105.759 Y121.566 E44.03662
G1 F3600.000 E40.83662
G92 E0
G1 X105.759 Y132.211 F15000.000
G1 X105.335 Y131.787 F3600.000 E3.20000
G1 X98.394 Y124.845 F1200.000 E3.85108
G1 X99.234 Y124.976 E3.90745
G1 X105.759 Y131.501 E4.51955
G1 X105.759 Y130.792 E4.56662
G1 X99.903 Y124.936 E5.11588
G1 X100.473 Y124.796 E5.15479
G1 X105.759 Y130.082 E5.65061
G1 X105.759 Y129.372 E5.69768
G1 X100.973 Y124.586 E6.14666
G1 X101.416 Y124.319 E6.18097
G1 X105.759 Y128.663 E6.58834
G1 X105.759 Y127.953 E6.63541
G1 X101.811 Y124.005 E7.00575
G1 X102.160 Y123.644 E7.03903
G1 X105.759 Y127.243 E7.37664
G1 X105.759 Y126.533 E7.42371
G1 X102.452 Y123.227 E7.73390
G1 X102.688 Y122.753 E7.76900
G1 X105.759 Y125.824 E8.05707
G1 X105.759 Y125.114 E8.10414
G1 X102.864 Y122.219 E8.37571
G1 X102.962 Y121.607 E8.41681
G1 X105.759 Y124.404 E8.67921
G1 X105.759 Y123.695 E8.72628
G1 X102.945 Y120.880 E8.99028
G1 X102.675 Y119.901 E9.05767
G1 X105.759 Y122.985 E9.34699
G1 X105.759 Y122.275 E9.39406
G1 X93.725 Y110.241 E10.52288
G1 X93.015 Y110.241 E10.56995
G1 X101.099 Y118.325 E11.32825
G1 X100.120 Y118.055 E11.39564
G1 X92.305 Y110.241 E12.12863
G1 X91.596 Y110.241 E12.17570
G1 X99.393 Y118.038 E12.90709
G1 X98.781 Y118.136 E12.94819
G1 X90.886 Y110.241 E13.68876
G1 X90.176 Y110.241 E13.73583
G1 X98.247 Y118.312 E14.49289
G1 X97.773 Y118.548 E14.52799
G1 X89.467 Y110.241 E15.30717
G1 X88.757 Y110.241 E15.35424
G1 X97.356 Y118.840 E16.16083
G1 X96.995 Y119.189 E16.19412
G1 X88.047 Y110.241 E17.03344
G1 X87.337 Y110.241 E17.08051
G1 X96.681 Y119.584 E17.95687
G1 X96.414 Y120.027 E17.99118
G1 X86.628 Y110.241 E18.90915
G1 X85.918 Y110.241 E18.95622
G1 X96.204 Y120.527 E19.92104
G1 X96.064 Y121.097 E19.95995
G1 X85.208 Y110.241 E20.97820
G1 X84.499 Y110.241 E21.02527
G1 X96.024 Y121.766 E22.10635
G1 X96.155 Y122.606 E22.16273
G1 X83.789 Y110.241 E23.32259
G1 X83.079 Y110.241 E23.36966
G1 X105.759 Y132.921 E25.49698
G1 X105.759 Y133.630 E25.54405
G1 X82.370 Y110.241 E27.73794
G1 X81.660 Y110.241 E27.78500
G1 X105.759 Y134.340 E30.04546
G1 X105.759 Y135.050 E30.09253
G1 X80.950 Y110.241 E32.41954
G1 X80.241 Y110.241 E32.46661
G1 X105.759 Y135.759 E34.86020
G1 X105.759 Y136.469 E34.90726
G1 X79.531 Y110.241 E37.36741
G1 X78.821 Y110.241 E37.41448
G1 X105.759 Y137.179 E39.94120
G1 X105.759 Y137.888 E39.98827
G1 X78.112 Y110.241 E42.58155
G1 X77.402 Y110.241 E42.62862
G1 X105.759 Y138.598 E45.28847
G1 X105.759 Y139.308 E45.33554
G1 X76.692 Y110.241 E48.06195
G1 X75.983 Y110.241 E48.10902
G1 X105.759 Y140.017 E50.90200
G1 X105.759 Y140.727 E50.94907
G1 X75.273 Y110.241 E53.80862
G1 X74.563 Y110.241 E53.85569
G1 X105.759 Y141.437 E56.78180
G1 X105.759 Y142.146 E56.82887
G1 X73.854 Y110.241 E59.82155
G1 X73.144 Y110.241 E59.86862
G1 X105.759 Y142.856 E62.92786
G1 X105.759 Y143.566 E62.97493
G1 X72.434 Y110.241 E66.10074
G1 X71.725 Y110.241 E66.14781
G1 X105.759 Y144.275 E69.34019
G1 X105.759 Y144.985 E69.38726
G1 X71.015 Y110.241 E72.64620
G1 X70.305 Y110.241 E72.69327
G1 X105.759 Y145.695 E76.01878
G1 X105.759 Y146.404 E76.06585
G1 X69.596 Y110.241 E79.45793
G1 X68.886 Y110.241 E79.50500
G1 X105.759 Y147.114 E82.96364
G1 X105.759 Y147.824 E83.01071
G1 X68.176 Y110.241 E86.53592
G1 X67.467 Y110.241 E86.58299
G1 X105.759 Y148.533 E90.17476
G1 X105.759 Y149.243 E90.22183
G1 X66.757 Y110.241 E93.88017
G1 X66.047 Y110.241 E93.92724
G1 X105.759 Y149.953 E97.65215
G1 X105.759 Y150.662 E97.69922
G1 X65.338 Y110.241 E101.49069
G1 X64.628 Y110.241 E101.53776
G1 X105.759 Y151.372 E105.39580
G1 X105.759 Y152.082 E105.44287
G1 X63.918 Y110.241 E109.36748
G1 X63.208 Y110.241 E109.41455
G1 X105.561 Y152.594 E113.38717
G1 X105.017 Y152.759 E113.42489
G1 X62.499 Y110.241 E117.41304
G1 X61.789 Y110.241 E117.46011
G1 X104.308 Y152.759 E121.44825
G1 X103.598 Y152.759 E121.49532
G1 X61.079 Y110.241 E125.48346
G1 X60.370 Y110.241 E125.53053
G1 X102.888 Y152.759 E129.51867
G1 X102.179 Y152.759 E129.56574
G1 X59.660 Y110.241 E133.55389
G1 X58.950 Y110.241 E133.60096
G1 X101.469 Y152.759 E137.58910
G1 X100.759 Y152.759 E137.63617
G1 X58.241 Y110.241 E141.62431
G1 X57.531 Y110.241 E141.67138
G1 X100.050 Y152.759 E145.65952
G1 X99.340 Y152.759 E145.70659
G1 X56.821 Y110.241 E149.69474
G1 X56.112 Y110.241 E149.74180
G1 X98.630 Y152.759 E153.72995
G1 X97.920 Y152.759 E153.77702
G1 X55.402 Y110.241 E157.76516
G1 X54.692 Y110.241 E157.81223
G1 X97.211 Y152.759 E161.80037
G1 X96.501 Y152.759 E161.84744
G1 X53.983 Y110.241 E165.83559
G1 X53.273 Y110.241 E165.88265
G1 X95.791 Y152.759 E169.87080
G1 X95.082 Y152.759 E169.91787
G1 X52.563 Y110.241 E173.90601
G1 X51.854 Y110.241 E173.95308
G1 X94.372 Y152.759 E177.94122
G1 X93.662 Y152.759 E177.98829
G1 X51.144 Y110.241 E181.97643
G1 X50.434 Y110.241 E182.02350
G1 X92.953 Y152.759 E186.01165
G1 X92.243 Y152.759 E186.05872
