; generated by Slic3r 0.9.9-dev on 2013-11-25 at 16:21:53

; layer_height = 0.3
; perimeters = 2
; top_solid_layers = 3
; bottom_solid_layers = 2
; fill_density = 0.2
; perimeter_speed = 30
; infill_speed = 48
; travel_speed = 250
; scale = 1
; nozzle_diameter = 0.5
; filament_diameter = 1.75
; extrusion_multiplier = 1.0
; perimeters extrusion width = 0.50mm
; infill extrusion width = 0.50mm
; first layer extrusion width = 0.50mm

M190 S57 ; wait for bed temperature to be reached
M104 S200 ; set temperature
G28 X0 Y0
G1 X75 Y75 F12000
G28 Z0
G1 Z0.3 F200
G1 X15 Y20 F12000
M109 S200 ; wait for temperature to be reached
G90 ; use absolute coordinates
G21 ; set units to millimeters
G92 E0
M82 ; use absolute distances for extrusion
M106 S76
G1 F3600.000 E-2.40000
G92 E0
G1 Z0.300 F15000.000
G1 X9.011 Y16.922
G1 X9.341 Y16.762 F3600.000 E2.40000
G1 X9.341 Y16.762 F1800.000
G1 X9.941 Y16.512 E2.44054
G1 X10.561 Y16.312 E2.48116
G1 X10.911 Y16.222 E2.50370
G1 X11.851 Y16.062 E2.56316
G1 X12.231 Y16.022 E2.58699
G1 X12.911 Y15.982 E2.62947
G1 X137.081 Y15.982 E10.37306
G1 X137.781 Y16.022 E10.41678
G1 X138.151 Y16.062 E10.43999
G1 X139.031 Y16.212 E10.49566
G1 X139.391 Y16.302 E10.51880
G1 X140.031 Y16.502 E10.56062
G1 X140.651 Y16.762 E10.60254
G1 X140.981 Y16.922 E10.62542
G1 X141.871 Y17.442 E10.68970
G1 X142.171 Y17.652 E10.71253
G1 X142.621 Y18.002 E10.74809
G1 X143.041 Y18.382 E10.78341
G1 X143.301 Y18.642 E10.80634
G1 X143.681 Y19.062 E10.84166
G1 X144.031 Y19.512 E10.87721
G1 X144.241 Y19.812 E10.90005
G1 X144.561 Y20.322 E10.93760
G1 X144.831 Y20.852 E10.97469
G1 X144.981 Y21.182 E10.99730
G1 X145.311 Y22.082 E11.05708
G1 X145.411 Y22.432 E11.07978
G1 X145.561 Y23.072 E11.12077
G1 X145.641 Y23.712 E11.16099
G1 X145.691 Y24.602 E11.21659
G1 X145.691 Y125.392 E17.50213
G1 X145.661 Y126.112 E17.54707
G1 X145.601 Y126.712 E17.58467
G1 X145.481 Y127.312 E17.62283
G1 X145.401 Y127.632 E17.64340
G1 X145.051 Y128.632 E17.70947
G1 X144.921 Y128.932 E17.72986
G1 X144.521 Y129.722 E17.78508
G1 X144.351 Y130.002 E17.80551
G1 X143.771 Y130.812 E17.86764
G1 X143.561 Y131.062 E17.88800
G1 X142.781 Y131.842 E17.95679
G1 X142.521 Y132.062 E17.97803
G1 X141.691 Y132.662 E18.04190
G1 X141.411 Y132.832 E18.06233
G1 X140.621 Y133.232 E18.11755
G1 X139.741 Y133.592 E18.17685
G1 X138.811 Y133.822 E18.23659
G1 X137.991 Y133.942 E18.28827
G1 X137.081 Y134.002 E18.34515
G1 X12.911 Y134.002 E26.08873
G1 X12.001 Y133.942 E26.14560
G1 X11.181 Y133.822 E26.19729
G1 X10.291 Y133.602 E26.25446
G1 X9.431 Y133.262 E26.31213
G1 X8.571 Y132.832 E26.37209
G1 X7.811 Y132.342 E26.42848
G1 X7.371 Y131.982 E26.46394
G1 X7.121 Y131.762 E26.48471
G1 X6.431 Y131.062 E26.54600
G1 X6.221 Y130.812 E26.56636
G1 X5.641 Y130.002 E26.62849
G1 X5.471 Y129.722 E26.64892
G1 X5.071 Y128.932 E26.70414
G1 X4.941 Y128.632 E26.72453
G1 X4.591 Y127.632 E26.79060
G1 X4.511 Y127.312 E26.81117
G1 X4.351 Y126.302 E26.87495
G1 X4.291 Y125.392 E26.93182
G1 X4.291 Y24.602 E33.21736
G1 X4.331 Y23.922 E33.25984
G1 X4.371 Y23.542 E33.28367
G1 X4.531 Y22.602 E33.34313
G1 X4.621 Y22.252 E33.36567
G1 X4.821 Y21.632 E33.40630
G1 X5.071 Y21.032 E33.44683
G1 X5.231 Y20.702 E33.46971
G1 X5.751 Y19.812 E33.53399
G1 X5.961 Y19.512 E33.55682
G1 X6.311 Y19.062 E33.59238
G1 X6.691 Y18.642 E33.62770
G1 X6.951 Y18.382 E33.65063
G1 X7.371 Y18.002 E33.68595
G1 X7.821 Y17.652 E33.72150
G1 X8.121 Y17.442 E33.74434
G1 X8.947 Y16.960 E33.80394
G1 X9.011 Y16.922 E33.80862
G1 F3600.000 E31.40862
G92 E0
G1 X55.364 Y59.352 F15000.000
G1 X55.508 Y59.208 F3600.000 E2.40000
G1 X55.508 Y59.208 F1800.000
G1 X55.737 Y59.048 E2.41740
G1 X55.990 Y58.930 E2.43480
G1 X56.259 Y58.858 E2.45220
G1 X56.570 Y58.831 E2.47165
G1 X93.430 Y58.831 E4.77033
G1 X93.741 Y58.858 E4.78978
G1 X94.010 Y58.930 E4.80718
G1 X94.263 Y59.048 E4.82458
G1 X94.492 Y59.208 E4.84198
G1 X94.689 Y59.405 E4.85938
G1 X94.849 Y59.634 E4.87678
G1 X94.967 Y59.887 E4.89418
G1 X95.039 Y60.156 E4.91158
G1 X95.066 Y60.467 E4.93103
G1 X95.066 Y89.536 E6.74386
G1 X95.044 Y89.816 E6.76137
G1 X94.985 Y90.060 E6.77704
G1 X94.889 Y90.293 E6.79271
G1 X94.758 Y90.507 E6.80838
G1 X94.595 Y90.698 E6.82405
G1 X94.404 Y90.861 E6.83972
G1 X94.190 Y90.992 E6.85539
G1 X93.957 Y91.089 E6.87106
G1 X93.713 Y91.147 E6.88673
G1 X93.433 Y91.169 E6.90425
G1 X56.568 Y91.169 E9.20326
G1 X56.288 Y91.147 E9.22079
G1 X56.043 Y91.089 E9.23647
G1 X55.811 Y90.993 E9.25214
G1 X55.597 Y90.861 E9.26782
G1 X55.405 Y90.698 E9.28349
G1 X55.242 Y90.507 E9.29917
G1 X55.111 Y90.293 E9.31484
G1 X55.015 Y90.061 E9.33052
G1 X54.956 Y89.816 E9.34619
G1 X54.934 Y89.536 E9.36371
G1 X54.934 Y60.467 E11.17654
G1 X54.961 Y60.156 E11.19599
G1 X55.033 Y59.887 E11.21339
G1 X55.121 Y59.698 E11.22636
G1 X55.364 Y59.352
G1 X54.980 Y59.030 F15000.000
G1 X55.186 Y58.824 F576.000 E11.24454
G1 X55.486 Y58.613 E11.26740
G1 X55.818 Y58.459 E11.29026
G1 X56.172 Y58.364 E11.31311
G1 X56.548 Y58.331 E11.33665
G1 X93.452 Y58.331 E13.63805
G1 X93.828 Y58.364 E13.66159
G1 X94.182 Y58.459 E13.68445
G1 X94.514 Y58.613 E13.70730
G1 X94.814 Y58.824 E13.73016
G1 X95.073 Y59.083 E13.75302
G1 X95.284 Y59.383 E13.77587
G1 X95.438 Y59.715 E13.79873
G1 X95.533 Y60.069 E13.82159
G1 X95.566 Y60.445 E13.84513
G1 X95.566 Y89.556 E15.66054
G1 X95.540 Y89.895 E15.68173
G1 X95.463 Y90.215 E15.70231
G1 X95.336 Y90.520 E15.72289
G1 X95.164 Y90.802 E15.74347
G1 X94.950 Y91.053 E15.76405
G1 X94.699 Y91.267 E15.78462
G1 X94.417 Y91.439 E15.80520
G1 X94.112 Y91.566 E15.82578
G1 X93.792 Y91.643 E15.84636
G1 X93.453 Y91.669 E15.86755
G1 X56.548 Y91.669 E18.16901
G1 X56.209 Y91.643 E18.19021
G1 X55.888 Y91.566 E18.21080
G1 X55.583 Y91.440 E18.23138
G1 X55.302 Y91.267 E18.25196
G1 X55.051 Y91.053 E18.27255
G1 X54.836 Y90.802 E18.29313
G1 X54.664 Y90.521 E18.31372
G1 X54.538 Y90.216 E18.33430
G1 X54.460 Y89.895 E18.35489
G1 X54.434 Y89.556 E18.37609
G1 X54.434 Y60.445 E20.19150
G1 X54.467 Y60.069 E20.21504
G1 X54.562 Y59.715 E20.23790
G1 X54.671 Y59.481 E20.25399
G1 X54.980 Y59.030
G1 X55.121 Y59.698 F3600.000 E17.85399
G92 E0
G1 X55.920 Y90.503 F15000.000
G1 X55.600 Y90.183 F3600.000 E2.40000
G1 X55.600 Y90.183 F2880.000
G1 X55.275 Y89.145 E2.46842
G1 X56.958 Y90.828 E2.61812
G1 X57.671 Y90.828 E2.66295
G1 X55.275 Y88.432 E2.87605
G1 X55.275 Y87.719 E2.92088
G1 X58.384 Y90.828 E3.19739
G1 X59.097 Y90.828 E3.24222
G1 X55.275 Y87.006 E3.58213
G1 X55.275 Y86.293 E3.62696
G1 X59.810 Y90.828 E4.03028
G1 X60.523 Y90.828 E4.07511
G1 X55.275 Y85.580 E4.54183
G1 X55.275 Y84.867 E4.58666
G1 X61.236 Y90.828 E5.11678
G1 X61.949 Y90.828 E5.16161
G1 X55.275 Y84.154 E5.75514
G1 X55.275 Y83.441 E5.79997
G1 X62.662 Y90.828 E6.45690
G1 X63.375 Y90.828 E6.50174
G1 X55.275 Y82.728 E7.22207
G1 X55.275 Y82.015 E7.26691
G1 X64.088 Y90.828 E8.05064
G1 X64.801 Y90.828 E8.09548
G1 X55.275 Y81.302 E8.94262
G1 X55.275 Y80.589 E8.98745
G1 X65.514 Y90.828 E9.89800
G1 X66.227 Y90.828 E9.94284
G1 X55.275 Y79.876 E10.91679
G1 X55.275 Y79.163 E10.96162
G1 X66.940 Y90.828 E11.99898
G1 X67.653 Y90.828 E12.04381
G1 X55.275 Y78.450 E13.14457
G1 X55.275 Y77.737 E13.18940
G1 X68.366 Y90.828 E14.35357
G1 X69.079 Y90.828 E14.39840
G1 X55.275 Y77.024 E15.62597
G1 X55.275 Y76.311 E15.67081
G1 X69.792 Y90.828 E16.96178
G1 X70.505 Y90.828 E17.00661
G1 X55.275 Y75.598 E18.36099
G1 X55.275 Y74.885 E18.40583
G1 X71.218 Y90.828 E19.82361
G1 X71.931 Y90.828 E19.86844
G1 X55.275 Y74.172 E21.34963
G1 X55.275 Y73.459 E21.39446
G1 X72.644 Y90.828 E22.93905
G1 X73.357 Y90.828 E22.98389
G1 X55.275 Y72.746 E24.59188
G1 X55.275 Y72.033 E24.63672
G1 X74.070 Y90.828 E26.30812
G1 X74.783 Y90.828 E26.35295
G1 X55.275 Y71.320 E28.08776
G1 X55.275 Y70.607 E28.13259
G1 X75.496 Y90.828 E29.93080
G1 X76.209 Y90.828 E29.97563
G1 X55.275 Y69.894 E31.83724
G1 X55.275 Y69.181 E31.88208
G1 X76.922 Y90.828 E33.80710
G1 X77.635 Y90.828 E33.85193
G1 X55.275 Y68.468 E35.84035
G1 X55.275 Y67.755 E35.88519
G1 X78.348 Y90.828 E37.93701
G1 X79.061 Y90.828 E37.98185
G1 X55.275 Y67.042 E40.09708
G1 X55.275 Y66.330 E40.14191
G1 X79.774 Y90.828 E42.32055
G1 X80.487 Y90.828 E42.36538
G1 X55.275 Y65.617 E44.60742
G1 X55.275 Y64.904 E44.65225
G1 X81.200 Y90.828 E46.95770
G1 X81.912 Y90.828 E47.00253
G1 X55.275 Y64.191 E49.37138
G1 X55.275 Y63.478 E49.41621
G1 X82.625 Y90.828 E51.84847
G1 X83.338 Y90.828 E51.89330
G1 X55.275 Y62.765 E54.38896
G1 X55.275 Y62.052 E54.43379
G1 X84.051 Y90.828 E56.99285
G1 X84.764 Y90.828 E57.03769
G1 X55.275 Y61.339 E59.66015
G1 X55.275 Y60.626 E59.70499
G1 X85.477 Y90.828 E62.39086
G1 X86.190 Y90.828 E62.43569
G1 X55.328 Y59.966 E65.18023
G1 X55.590 Y59.515 E65.21302
G1 X86.903 Y90.828 E67.99763
G1 X87.616 Y90.828 E68.04246
G1 X56.025 Y59.237 E70.85185
G1 X56.672 Y59.172 E70.89279
G1 X88.329 Y90.828 E73.70797
G1 X89.042 Y90.828 E73.75280
G1 X57.385 Y59.172 E76.56798
G1 X58.098 Y59.172 E76.61281
G1 X89.755 Y90.828 E79.42799
G1 X90.468 Y90.828 E79.47282
G1 X58.811 Y59.172 E82.28800
G1 X59.524 Y59.172 E82.33283
G1 X91.181 Y90.828 E85.14801
G1 X91.894 Y90.828 E85.19284
G1 X60.237 Y59.172 E88.00802
G1 X60.950 Y59.172 E88.05285
G1 X92.607 Y90.828 E90.86803
G1 X93.320 Y90.828 E90.91286
G1 X61.663 Y59.172 E93.72804
G1 X62.376 Y59.172 E93.77287
G1 X93.971 Y90.767 E96.58255
G1 X94.409 Y90.491 E96.61506
G1 X63.089 Y59.172 E99.40025
G1 X63.802 Y59.172 E99.44508
G1 X94.673 Y90.042 E102.19034
G1 X94.725 Y89.382 E102.23202
G1 X64.515 Y59.172 E104.91853
G1 X65.228 Y59.172 E104.96336
G1 X94.725 Y88.669 E107.58647
G1 X94.725 Y87.956 E107.63130
G1 X65.941 Y59.172 E110.19100
G1 X66.654 Y59.172 E110.23584
G1 X94.725 Y87.243 E112.73213
G1 X94.725 Y86.530 E112.77697
G1 X67.367 Y59.172 E115.20986
G1 X68.080 Y59.172 E115.25470
G1 X94.725 Y85.817 E117.62418
G1 X94.725 Y85.104 E117.66902
G1 X68.793 Y59.172 E119.97510
G1 X69.506 Y59.172 E120.01994
G1 X94.725 Y84.391 E122.26261
G1 X94.725 Y83.678 E122.30745
G1 X70.219 Y59.172 E124.48672
G1 X70.932 Y59.172 E124.53156
G1 X94.725 Y82.965 E126.64743
G1 X94.725 Y82.252 E126.69226
G1 X71.645 Y59.172 E128.74473
G1 X72.358 Y59.172 E128.78956
G1 X94.725 Y81.539 E130.77862
G1 X94.725 Y80.826 E130.82346
G1 X73.071 Y59.172 E132.74912
G1 X73.784 Y59.172 E132.79395
G1 X94.725 Y80.113 E134.65620
G1 X94.725 Y79.400 E134.70104
G1 X74.497 Y59.172 E136.49989
G1 X75.210 Y59.172 E136.54472
G1 X94.725 Y78.687 E138.28016
G1 X94.725 Y77.974 E138.32500
G1 X75.923 Y59.172 E139.99704
G1 X76.636 Y59.172 E140.04187
G1 X94.725 Y77.261 E141.65051
G1 X94.725 Y76.548 E141.69534
G1 X77.349 Y59.172 E143.24057
G1 X78.062 Y59.172 E143.28541
G1 X94.725 Y75.835 E144.76723
G1 X94.725 Y75.122 E144.81207
G1 X78.775 Y59.172 E146.23049
G1 X79.488 Y59.172 E146.27532
G1 X94.725 Y74.409 E147.63034
G1 X94.725 Y73.696 E147.67518
G1 X80.201 Y59.172 E148.96679
G1 X80.914 Y59.172 E149.01162
G1 X94.725 Y72.983 E150.23983
G1 X94.725 Y72.270 E150.28467
G1 X81.627 Y59.172 E151.44947
G1 X82.340 Y59.172 E151.49430
G1 X94.725 Y71.557 E152.59571
G1 X94.725 Y70.844 E152.64054
G1 X83.053 Y59.172 E153.67854
G1 X83.766 Y59.172 E153.72337
G1 X94.725 Y70.131 E154.69796
G1 X94.725 Y69.418 E154.74279
G1 X84.479 Y59.172 E155.65398
G1 X85.192 Y59.172 E155.69882
G1 X94.725 Y68.705 E156.54660
G1 X94.725 Y67.992 E156.59143
G1 X85.905 Y59.172 E157.37581
G1 X86.618 Y59.172 E157.42064
G1 X94.725 Y67.279 E158.14162
G1 X94.725 Y66.566 E158.18645
G1 X87.331 Y59.172 E158.84402
G1 X88.044 Y59.172 E158.88886
G1 X94.725 Y65.853 E159.48302
G1 X94.725 Y65.140 E159.52786
G1 X88.757 Y59.172 E160.05862
G1 X89.470 Y59.172 E160.10345
G1 X94.725 Y64.427 E160.57081
G1 X94.725 Y63.714 E160.61564
G1 X90.183 Y59.172 E161.01959
G1 X90.896 Y59.172 E161.06443
G1 X94.725 Y63.001 E161.40497
G1 X94.725 Y62.288 E161.44981
G1 X91.609 Y59.172 E161.72695
G1 X92.322 Y59.172 E161.77178
G1 X94.725 Y61.575 E161.98552
G1 X94.725 Y60.862 E162.03036
G1 X93.035 Y59.172 E162.18069
G1 X94.009 Y59.433 E162.24414
G1 X94.464 Y59.888 E162.28455
G1 F3600.000 E159.88455
G92 E0
G1 X93.505 Y94.676 F15000.000
G1 X93.741 Y94.696 F3600.000 E2.40000
G1 X93.741 Y94.696 F1800.000
G1 X94.010 Y94.769 E2.41740
G1 X94.263 Y94.887 E2.43480
G1 X94.492 Y95.047 E2.45220
G1 X94.689 Y95.244 E2.46960
G1 X94.849 Y95.472 E2.48700
G1 X94.967 Y95.725 E2.50440
G1 X95.039 Y95.995 E2.52180
G1 X95.066 Y96.306 E2.54125
G1 X95.066 Y125.375 E4.35408
G1 X95.044 Y125.655 E4.37159
G1 X94.985 Y125.899 E4.38727
G1 X94.889 Y126.131 E4.40293
G1 X94.758 Y126.345 E4.41860
G1 X94.595 Y126.536 E4.43428
G1 X94.404 Y126.700 E4.44995
G1 X94.190 Y126.831 E4.46562
G1 X93.957 Y126.927 E4.48128
G1 X93.713 Y126.986 E4.49695
G1 X93.433 Y127.008 E4.51447
G1 X56.568 Y127.008 E6.81348
G1 X56.288 Y126.986 E6.83101
G1 X56.043 Y126.927 E6.84669
G1 X55.811 Y126.831 E6.86236
G1 X55.597 Y126.700 E6.87804
G1 X55.405 Y126.537 E6.89371
G1 X55.242 Y126.346 E6.90939
G1 X55.111 Y126.131 E6.92507
G1 X55.015 Y125.899 E6.94074
G1 X54.956 Y125.655 E6.95642
G1 X54.934 Y125.375 E6.97393
G1 X54.934 Y96.306 E8.78676
G1 X54.961 Y95.995 E8.80621
G1 X55.033 Y95.725 E8.82361
G1 X55.151 Y95.472 E8.84101
G1 X55.311 Y95.244 E8.85841
G1 X55.508 Y95.047 E8.87582
G1 X55.737 Y94.887 E8.89322
G1 X55.990 Y94.769 E8.91062
G1 X56.259 Y94.696 E8.92802
G1 X56.570 Y94.669 E8.94747
G1 X93.080 Y94.669 E11.22431
G1 X93.505 Y94.676
G1 X93.526 Y94.176 F15000.000
G1 X93.828 Y94.202 F576.000 E11.24318
G1 X94.182 Y94.297 E11.26603
G1 X94.514 Y94.452 E11.28889
G1 X94.814 Y94.662 E11.31175
G1 X95.073 Y94.921 E11.33460
G1 X95.284 Y95.222 E11.35746
G1 X95.438 Y95.554 E11.38032
G1 X95.533 Y95.908 E11.40317
G1 X95.566 Y96.284 E11.42671
G1 X95.566 Y125.394 E13.24213
G1 X95.540 Y125.733 E13.26332
G1 X95.463 Y126.054 E13.28390
G1 X95.336 Y126.359 E13.30447
G1 X95.164 Y126.640 E13.32505
G1 X94.950 Y126.891 E13.34563
G1 X94.699 Y127.105 E13.36621
G1 X94.417 Y127.278 E13.38679
G1 X94.112 Y127.404 E13.40737
G1 X93.792 Y127.481 E13.42794
G1 X93.453 Y127.508 E13.44914
G1 X56.548 Y127.508 E15.75059
G1 X56.209 Y127.481 E15.77180
G1 X55.888 Y127.404 E15.79238
G1 X55.583 Y127.278 E15.81297
G1 X55.302 Y127.106 E15.83355
G1 X55.051 Y126.891 E15.85414
G1 X54.836 Y126.640 E15.87472
G1 X54.664 Y126.359 E15.89531
G1 X54.538 Y126.054 E15.91589
G1 X54.460 Y125.733 E15.93648
G1 X54.434 Y125.394 E15.95768
G1 X54.434 Y96.284 E17.77309
G1 X54.467 Y95.908 E17.79663
G1 X54.562 Y95.554 E17.81949
G1 X54.716 Y95.222 E17.84234
G1 X54.927 Y94.921 E17.86520
G1 X55.186 Y94.662 E17.88806
G1 X55.486 Y94.452 E17.91091
G1 X55.818 Y94.297 E17.93377
G1 X56.172 Y94.202 E17.95663
G1 X56.548 Y94.169 E17.98017
G1 X92.977 Y94.169 E20.25194
G1 X93.526 Y94.176
G1 X93.080 Y94.669 F3600.000 E17.85194
G92 E0
G1 X94.464 Y95.726 F15000.000
G1 X94.040 Y95.302 F3600.000 E2.40000
G1 X94.009 Y95.272 F1152.000 E2.40268
G1 X93.035 Y95.010 E2.46613
G1 X94.725 Y96.701 E2.61647
G1 X94.725 Y97.414 E2.66130
G1 X92.322 Y95.010 E2.87504
G1 X91.609 Y95.010 E2.91987
G1 X94.725 Y98.127 E3.19702
G1 X94.725 Y98.840 E3.24185
G1 X90.896 Y95.010 E3.58240
G1 X90.183 Y95.010 E3.62723
G1 X94.725 Y99.553 E4.03118
G1 X94.725 Y100.265 E4.07602
G1 X89.470 Y95.010 E4.54337
G1 X88.757 Y95.010 E4.58821
G1 X94.725 Y100.978 E5.11897
G1 X94.725 Y101.691 E5.16380
G1 X88.044 Y95.010 E5.75797
G1 X87.331 Y95.010 E5.80280
G1 X94.725 Y102.404 E6.46037
G1 X94.725 Y103.117 E6.50521
G1 X86.618 Y95.010 E7.22618
G1 X85.905 Y95.010 E7.27101
G1 X94.725 Y103.830 E8.05539
G1 X94.725 Y104.543 E8.10023
G1 X85.192 Y95.010 E8.94801
G1 X84.479 Y95.010 E8.99284
G1 X94.725 Y105.256 E9.90403
G1 X94.725 Y105.969 E9.94886
G1 X83.766 Y95.010 E10.92346
G1 X83.053 Y95.010 E10.96829
G1 X94.725 Y106.682 E12.00629
G1 X94.725 Y107.395 E12.05112
G1 X82.340 Y95.010 E13.15252
G1 X81.627 Y95.010 E13.19735
G1 X94.725 Y108.108 E14.36216
G1 X94.725 Y108.821 E14.40699
G1 X80.914 Y95.010 E15.63520
G1 X80.201 Y95.010 E15.68004
G1 X94.725 Y109.534 E16.97165
G1 X94.725 Y110.247 E17.01648
G1 X79.488 Y95.010 E18.37150
G1 X78.775 Y95.010 E18.41634
G1 X94.725 Y110.960 E19.83476
G1 X94.725 Y111.673 E19.87959
G1 X78.062 Y95.010 E21.36142
G1 X77.349 Y95.010 E21.40625
G1 X94.725 Y112.386 E22.95148
G1 X94.725 Y113.099 E22.99632
G1 X76.636 Y95.010 E24.60495
G1 X75.923 Y95.010 E24.64979
