; generated by Slic3r 0.9.9-dev on 2013-11-16 at 10:26:53

; M-PLA-05-03-1

; layer_height = 0.3
; perimeters = 2
; top_solid_layers = 3
; bottom_solid_layers = 2
; fill_density = 0.2
; perimeter_speed = 40
; infill_speed = 40
; travel_speed = 250
; scale = 1
; nozzle_diameter = 0.5
; filament_diameter = 1.70
; extrusion_multiplier = 1.0
; perimeters extrusion width = 0.50mm
; infill extrusion width = 0.50mm
; first layer extrusion width = 0.50mm

M107
M190 S57 ; wait for bed temperature to be reached
M104 S200 ; set temperature
G28
G1 Y20 F12000
G1 Z0.3 F200
M109 S200 ; wait for temperature to be reached
G90 ; use absolute coordinates
G21 ; set units to millimeters
G92 E0
M82 ; use absolute distances for extrusion
G1 F3600.000 E-3.20000
G92 E0
G1 Z0.300 F15000.000
G1 X90.587 Y69.929
G1 X90.995 Y69.489 F3600.000 E3.20000
G1 X91.367 Y69.089 F1200.000 E3.23610
G1 X92.377 Y68.549 E3.31179
G1 X93.507 Y68.359 E3.38751
G1 X135.817 Y68.359 E6.18357
G1 X137.047 Y68.579 E6.26615
G1 X138.117 Y69.229 E6.34888
G1 X153.957 Y83.089 E7.73982
G1 X154.607 Y83.839 E7.80541
G1 X155.017 Y84.739 E7.87077
G1 X155.157 Y85.719 E7.93619
G1 X155.157 Y99.349 E8.83693
G1 X154.967 Y100.479 E8.91265
G1 X154.427 Y101.489 E8.98834
G1 X132.207 Y130.279 E11.39169
G1 X131.997 Y130.519 E11.41276
G1 X131.767 Y130.749 E11.43426
G1 X113.857 Y146.749 E13.02136
G1 X112.777 Y147.409 E13.10500
G1 X111.527 Y147.639 E13.18899
G1 X102.827 Y147.639 E13.76393
G1 X102.147 Y147.569 E13.80911
G1 X101.487 Y147.369 E13.85468
G1 X62.997 Y131.449 E16.60729
G1 X62.117 Y130.929 E16.67484
G1 X61.427 Y130.169 E16.74268
G1 X60.987 Y129.239 E16.81067
G1 X60.837 Y128.219 E16.87880
G1 X60.837 Y124.029 E17.15570
G1 X60.937 Y123.199 E17.21094
G1 X61.237 Y122.409 E17.26679
G1 X81.467 Y83.719 E20.15204
G1 X81.647 Y83.409 E20.17573
G1 X90.545 Y69.991 E21.23971
G1 X90.587 Y69.929 E21.24467
G1 F3600.000 E18.04467
G92 E0
G1 X77.833 Y124.113 F15000.000
G1 X77.833 Y124.141 F3600.000 E3.20000
G1 X77.833 Y124.141 F2400.000
G1 X129.444 Y124.141 E6.61069
G1 X129.444 Y128.141 E6.87504
G1 X111.533 Y128.141 E8.05866
G1 X111.533 Y144.141 E9.11602
G1 X102.833 Y144.141 E9.69099
G1 X64.333 Y128.224 E12.44411
G1 X64.333 Y124.038 E12.72076
G1 X77.358 Y124.038 E13.58152
G1 X77.833 Y124.113
G1 X77.333 Y124.613 F15000.000
G1 X77.333 Y124.641 F1200.000 E13.58341
G1 X128.944 Y124.641 E16.99410
G1 X128.944 Y127.641 E17.19236
G1 X111.033 Y127.641 E18.37598
G1 X111.033 Y143.641 E19.43335
G1 X102.932 Y143.641 E19.96871
G1 X64.833 Y127.890 E22.69317
G1 X64.833 Y124.538 E22.91469
G1 X76.883 Y124.538 E23.71102
G1 X77.333 Y124.613
G1 F3600.000 E20.51102
G92 E0
G1 X65.493 Y127.715 F15000.000
G1 X65.174 Y127.396 F3600.000 E3.20000
G1 X65.174 Y127.396 F2400.000
G1 X65.174 Y126.684 E3.24741
G1 X66.707 Y128.217 E3.39169
G1 X67.921 Y128.719 E3.47915
G1 X65.174 Y125.972 E3.73774
G1 X65.174 Y125.259 E3.78514
G1 X69.135 Y129.221 E4.15803
G1 X70.350 Y129.723 E4.24549
G1 X65.505 Y124.878 E4.70150
G1 X66.218 Y124.878 E4.74891
G1 X71.564 Y130.225 E5.25218
G1 X72.778 Y130.727 E5.33963
G1 X66.930 Y124.878 E5.89016
G1 X67.642 Y124.878 E5.93757
G1 X73.992 Y131.229 E6.53535
G1 X75.207 Y131.731 E6.62281
G1 X68.354 Y124.878 E7.26784
G1 X69.066 Y124.878 E7.31525
G1 X76.421 Y132.233 E8.00754
G1 X77.635 Y132.735 E8.09500
G1 X69.779 Y124.878 E8.83455
G1 X70.491 Y124.878 E8.88196
G1 X78.849 Y133.237 E9.66877
G1 X80.063 Y133.739 E9.75623
G1 X71.203 Y124.878 E10.59029
G1 X71.915 Y124.878 E10.63770
G1 X81.278 Y134.241 E11.51902
G1 X82.492 Y134.743 E11.60648
G1 X72.628 Y124.878 E12.53506
G1 X73.340 Y124.878 E12.58247
G1 X83.706 Y135.245 E13.55830
G1 X84.920 Y135.747 E13.64576
G1 X74.052 Y124.878 E14.66885
G1 X74.764 Y124.878 E14.71626
G1 X86.135 Y136.249 E15.78661
G1 X87.349 Y136.751 E15.87407
G1 X75.477 Y124.878 E16.99167
G1 X76.189 Y124.878 E17.03908
G1 X88.563 Y137.253 E18.20394
G1 X89.777 Y137.755 E18.29140
G1 X77.004 Y124.982 E19.49378
G1 X77.717 Y124.982 E19.54119
G1 X90.992 Y138.257 E20.79082
G1 X92.206 Y138.759 E20.87828
G1 X78.429 Y124.982 E22.17517
G1 X79.141 Y124.982 E22.22258
G1 X93.420 Y139.261 E23.56673
G1 X94.634 Y139.763 E23.65419
G1 X79.853 Y124.982 E25.04559
G1 X80.566 Y124.982 E25.09300
G1 X95.849 Y140.265 E26.53166
G1 X97.063 Y140.767 E26.61912
G1 X81.278 Y124.982 E28.10504
G1 X81.990 Y124.982 E28.15245
G1 X98.277 Y141.269 E29.68562
G1 X99.491 Y141.771 E29.77308
G1 X82.702 Y124.982 E31.35351
G1 X83.415 Y124.982 E31.40092
G1 X100.705 Y142.273 E33.02861
G1 X101.920 Y142.775 E33.11607
G1 X84.127 Y124.982 E34.79102
G1 X84.839 Y124.982 E34.83842
G1 X103.134 Y143.277 E36.56063
G1 X103.870 Y143.300 E36.60962
G1 X85.551 Y124.982 E38.33403
G1 X86.263 Y124.982 E38.38143
G1 X104.582 Y143.300 E40.10584
G1 X105.294 Y143.300 E40.15325
G1 X86.976 Y124.982 E41.87766
G1 X87.688 Y124.982 E41.92507
G1 X106.006 Y143.300 E43.64947
G1 X106.719 Y143.300 E43.69688
G1 X88.400 Y124.982 E45.42129
G1 X89.112 Y124.982 E45.46870
G1 X107.431 Y143.300 E47.19311
G1 X108.143 Y143.300 E47.24051
G1 X89.825 Y124.982 E48.96492
G1 X90.537 Y124.982 E49.01233
G1 X108.855 Y143.300 E50.73674
G1 X109.567 Y143.300 E50.78415
G1 X91.249 Y124.982 E52.50855
G1 X91.961 Y124.982 E52.55596
G1 X110.280 Y143.300 E54.28037
G1 X110.693 Y143.001 E54.31432
G1 X92.673 Y124.982 E56.01054
G1 X93.386 Y124.982 E56.05795
G1 X110.693 Y142.289 E57.68714
G1 X110.693 Y141.576 E57.73454
G1 X94.098 Y124.982 E59.29668
G1 X94.810 Y124.982 E59.34409
G1 X110.693 Y140.864 E60.83918
G1 X110.693 Y140.152 E60.88659
G1 X95.522 Y124.982 E62.31464
G1 X96.235 Y124.982 E62.36205
G1 X110.693 Y139.440 E63.72305
G1 X110.693 Y138.728 E63.77046
G1 X96.947 Y124.982 E65.06441
G1 X97.659 Y124.982 E65.11182
G1 X110.693 Y138.015 E66.33873
G1 X110.693 Y137.303 E66.38614
G1 X98.371 Y124.982 E67.54600
G1 X99.083 Y124.982 E67.59341
G1 X110.693 Y136.591 E68.68623
G1 X110.693 Y135.879 E68.73364
G1 X99.796 Y124.982 E69.75941
G1 X100.508 Y124.982 E69.80682
G1 X110.693 Y135.166 E70.76555
G1 X110.693 Y134.454 E70.81296
G1 X101.220 Y124.982 E71.70464
G1 X101.932 Y124.982 E71.75205
G1 X110.693 Y133.742 E72.57668
G1 X110.693 Y133.030 E72.62409
G1 X102.645 Y124.982 E73.38168
G1 X103.357 Y124.982 E73.42909
G1 X110.693 Y132.318 E74.11964
G1 X110.693 Y131.605 E74.16704
G1 X104.069 Y124.982 E74.79054
G1 X104.781 Y124.982 E74.83795
G1 X110.693 Y130.893 E75.39441
G1 X110.693 Y130.181 E75.44181
G1 X105.494 Y124.982 E75.93122
G1 X106.206 Y124.982 E75.97863
G1 X110.693 Y129.469 E76.40099
G1 X110.693 Y128.756 E76.44840
G1 X106.918 Y124.982 E76.80372
G1 X107.630 Y124.982 E76.85113
G1 X110.693 Y128.044 E77.13940
G1 X110.693 Y127.332 E77.18681
G1 X108.342 Y124.982 E77.40804
G1 X109.055 Y124.982 E77.45544
G1 X111.373 Y127.300 E77.67369
G1 X112.085 Y127.300 E77.72110
G1 X109.767 Y124.982 E77.93934
G1 X110.479 Y124.982 E77.98675
G1 X112.798 Y127.300 E78.20499
G1 X113.510 Y127.300 E78.25240
G1 X111.191 Y124.982 E78.47065
G1 X111.904 Y124.982 E78.51806
G1 X114.222 Y127.300 E78.73630
G1 X114.934 Y127.300 E78.78371
G1 X112.616 Y124.982 E79.00195
G1 X113.328 Y124.982 E79.04936
G1 X115.646 Y127.300 E79.26761
G1 X116.359 Y127.300 E79.31502
G1 X114.040 Y124.982 E79.53326
G1 X114.752 Y124.982 E79.58067
G1 X117.071 Y127.300 E79.79891
G1 X117.783 Y127.300 E79.84632
G1 X115.465 Y124.982 E80.06457
G1 X116.177 Y124.982 E80.11197
G1 X118.495 Y127.300 E80.33022
G1 X119.208 Y127.300 E80.37763
G1 X116.889 Y124.982 E80.59587
G1 X117.601 Y124.982 E80.64328
G1 X119.920 Y127.300 E80.86153
G1 X120.632 Y127.300 E80.90893
G1 X118.314 Y124.982 E81.12718
G1 X119.026 Y124.982 E81.17459
G1 X121.344 Y127.300 E81.39283
G1 X122.056 Y127.300 E81.44024
G1 X119.738 Y124.982 E81.65848
G1 X120.450 Y124.982 E81.70589
G1 X122.769 Y127.300 E81.92414
G1 X123.481 Y127.300 E81.97155
G1 X121.163 Y124.982 E82.18979
G1 X121.875 Y124.982 E82.23720
G1 X124.193 Y127.300 E82.45544
G1 X124.905 Y127.300 E82.50285
G1 X122.587 Y124.982 E82.72110
G1 X123.299 Y124.982 E82.76850
G1 X125.618 Y127.300 E82.98675
G1 X126.330 Y127.300 E83.03416
G1 X124.011 Y124.982 E83.25240
G1 X124.724 Y124.982 E83.29981
G1 X127.042 Y127.300 E83.51806
G1 X127.754 Y127.300 E83.56546
G1 X125.436 Y124.982 E83.78371
G1 X126.148 Y124.982 E83.83112
G1 X128.467 Y127.300 E84.04936
G1 X128.603 Y126.725 E84.08874
G1 X126.860 Y124.982 E84.25280
G1 X127.573 Y124.982 E84.30021
G1 X128.603 Y126.012 E84.39723
G1 X128.603 Y125.300 E84.44464
G1 X128.285 Y124.982 E84.47461
G1 F3600.000 E81.27461
G92 E0
G1 X125.665 Y118.093 F15000.000
G1 X125.432 Y118.050 F3600.000 E3.20000
G1 X125.432 Y118.050 F2400.000
G1 X124.870 Y117.872 E3.23891
G1 X124.765 Y117.567 E3.26023
G1 X124.765 Y110.859 E3.70353
G1 X131.667 Y110.859 E4.15963
G1 X131.667 Y76.359 E6.43956
G1 X93.517 Y76.359 E8.96071
G1 X93.517 Y71.859 E9.25809
G1 X135.823 Y71.859 E12.05389
G1 X151.667 Y85.722 E13.44518
G1 X151.667 Y99.359 E14.34635
G1 X135.667 Y99.359 E15.40371
G1 X135.667 Y118.106 E16.64261
G1 X126.214 Y118.106 E17.26727
G1 X125.665 Y118.093
G1 X125.661 Y117.583 F15000.000
G1 X125.553 Y117.564 F1200.000 E17.27454
G1 X125.265 Y117.472 E17.29448
G1 X125.265 Y111.359 E17.69849
G1 X132.167 Y111.359 E18.15459
G1 X132.167 Y75.859 E20.50061
G1 X94.017 Y75.859 E23.02176
G1 X94.017 Y72.359 E23.25306
G1 X135.635 Y72.359 E26.00340
G1 X151.167 Y85.949 E27.36727
G1 X151.167 Y98.859 E28.22041
G1 X135.167 Y98.859 E29.27777
G1 X135.167 Y117.606 E30.51667
G1 X126.184 Y117.606 E31.11031
G1 X125.661 Y117.583
G1 X125.924 Y117.265 F15000.000
G1 X125.606 Y116.947 F1200.000 E31.14044
G1 X125.606 Y116.231 E31.18832
G1 X126.640 Y117.265 E31.28616
G1 X127.356 Y117.265 E31.33404
G1 X125.606 Y115.515 E31.49960
G1 X125.606 Y114.799 E31.54749
G1 X128.071 Y117.265 E31.78076
G1 X128.787 Y117.265 E31.82865
G1 X125.606 Y114.084 E32.12964
G1 X125.606 Y113.368 E32.17753
G1 X129.503 Y117.265 E32.54624
G1 X130.219 Y117.265 E32.59412
G1 X125.606 Y112.652 E33.03055
G1 X125.606 Y111.936 E33.07844
G1 X130.935 Y117.265 E33.58259
G1 X131.650 Y117.265 E33.63047
G1 X126.085 Y111.700 E34.15700
G1 X126.801 Y111.700 E34.20488
G1 X132.366 Y117.265 E34.73141
G1 X133.082 Y117.265 E34.77929
G1 X127.517 Y111.700 E35.30582
G1 X128.232 Y111.700 E35.35371
G1 X133.798 Y117.265 E35.88023
G1 X134.514 Y117.265 E35.92812
G1 X128.948 Y111.700 E36.45465
G1 X129.664 Y111.700 E36.50253
G1 X134.826 Y116.862 E36.99088
G1 X134.826 Y116.146 E37.03877
G1 X130.380 Y111.700 E37.45940
G1 X131.095 Y111.700 E37.50729
G1 X134.826 Y115.430 E37.86020
G1 X134.826 Y114.714 E37.90809
G1 X131.811 Y111.700 E38.19328
G1 X132.507 Y111.680 E38.23987
G1 X134.826 Y113.999 E38.45921
G1 X134.826 Y113.283 E38.50709
G1 X132.507 Y110.964 E38.72643
G1 X132.507 Y110.249 E38.77432
G1 X134.826 Y112.567 E38.99365
G1 X134.826 Y111.851 E39.04154
G1 X132.507 Y109.533 E39.26087
G1 X132.507 Y108.817 E39.30876
G1 X134.826 Y111.135 E39.52809
G1 X134.826 Y110.420 E39.57598
G1 X132.507 Y108.101 E39.79531
G1 X132.507 Y107.385 E39.84320
G1 X134.826 Y109.704 E40.06254
G1 X134.826 Y108.988 E40.11042
G1 X132.507 Y106.670 E40.32976
G1 X132.507 Y105.954 E40.37764
G1 X134.826 Y108.272 E40.59698
G1 X134.826 Y107.556 E40.64486
G1 X132.507 Y105.238 E40.86420
G1 X132.507 Y104.522 E40.91208
G1 X134.826 Y106.841 E41.13142
G1 X134.826 Y106.125 E41.17930
G1 X132.507 Y103.806 E41.39864
G1 X132.507 Y103.091 E41.44652
G1 X134.826 Y105.409 E41.66586
G1 X134.826 Y104.693 E41.71374
G1 X132.507 Y102.375 E41.93308
G1 X132.507 Y101.659 E41.98096
G1 X134.826 Y103.977 E42.20030
G1 X134.826 Y103.262 E42.24818
G1 X132.507 Y100.943 E42.46752
G1 X132.507 Y100.227 E42.51541
G1 X134.826 Y102.546 E42.73474
G1 X134.826 Y101.830 E42.78263
G1 X132.507 Y99.512 E43.00196
G1 X132.507 Y98.796 E43.04985
G1 X134.826 Y101.114 E43.26918
G1 X134.826 Y100.399 E43.31707
G1 X132.507 Y98.080 E43.53640
G1 X132.507 Y97.364 E43.58429
G1 X134.826 Y99.683 E43.80362
G1 X134.826 Y98.967 E43.85151
G1 X132.507 Y96.649 E44.07085
G1 X132.507 Y95.933 E44.11873
G1 X135.093 Y98.518 E44.36333
G1 X135.809 Y98.518 E44.41121
G1 X132.507 Y95.217 E44.72352
G1 X132.507 Y94.501 E44.77141
G1 X136.524 Y98.518 E45.15144
G1 X137.240 Y98.518 E45.19932
G1 X132.507 Y93.785 E45.64708
G1 X132.507 Y93.070 E45.69496
G1 X137.956 Y98.518 E46.21043
G1 X138.672 Y98.518 E46.25831
G1 X132.507 Y92.354 E46.84150
G1 X132.507 Y91.638 E46.88938
G1 X139.388 Y98.518 E47.54029
G1 X140.103 Y98.518 E47.58817
G1 X132.507 Y90.922 E48.30679
G1 X132.507 Y90.206 E48.35468
G1 X140.819 Y98.518 E49.14102
G1 X141.535 Y98.518 E49.18890
G1 X132.507 Y89.491 E50.04296
G1 X132.507 Y88.775 E50.09085
G1 X142.251 Y98.518 E51.01262
G1 X142.967 Y98.518 E51.06051
G1 X132.507 Y88.059 E52.05000
G1 X132.507 Y87.343 E52.09789
G1 X143.682 Y98.518 E53.15510
G1 X144.398 Y98.518 E53.20298
G1 X132.507 Y86.627 E54.32792
G1 X132.507 Y85.912 E54.37580
G1 X145.114 Y98.518 E55.56845
G1 X145.830 Y98.518 E55.61633
G1 X132.507 Y85.196 E56.87670
G1 X132.507 Y84.480 E56.92459
G1 X146.546 Y98.518 E58.25267
G1 X147.261 Y98.518 E58.30056
G1 X132.507 Y83.764 E59.69636
G1 X132.507 Y83.049 E59.74424
G1 X147.977 Y98.518 E61.20776
G1 X148.693 Y98.518 E61.25565
G1 X132.507 Y82.333 E62.78689
G1 X132.507 Y81.617 E62.83477
G1 X149.409 Y98.518 E64.43373
G1 X150.124 Y98.518 E64.48161
G1 X132.507 Y80.901 E66.14829
G1 X132.507 Y80.185 E66.19617
G1 X150.826 Y98.504 E67.92921
G1 X150.826 Y97.788 E67.97709
G1 X132.507 Y79.470 E69.71013
G1 X132.507 Y78.754 E69.75801
G1 X150.826 Y97.072 E71.49105
G1 X150.826 Y96.356 E71.53893
G1 X132.507 Y78.038 E73.27196
G1 X132.507 Y77.322 E73.31985
G1 X150.826 Y95.641 E75.05288
G1 X150.826 Y94.925 E75.10077
G1 X132.507 Y76.606 E76.83380
G1 X132.507 Y75.891 E76.88168
G1 X150.826 Y94.209 E78.61472
G1 X150.826 Y93.493 E78.66260
G1 X130.032 Y72.700 E80.62979
G1 X129.317 Y72.700 E80.67768
G1 X132.135 Y75.518 E80.94432
G1 X131.419 Y75.518 E80.99220
G1 X128.601 Y72.700 E81.25884
G1 X127.885 Y72.700 E81.30672
G1 X130.703 Y75.518 E81.57336
G1 X129.988 Y75.518 E81.62125
G1 X127.169 Y72.700 E81.88789
G1 X126.453 Y72.700 E81.93577
G1 X129.272 Y75.518 E82.20241
G1 X128.556 Y75.518 E82.25029
G1 X125.738 Y72.700 E82.51693
G1 X125.022 Y72.700 E82.56482
G1 X127.840 Y75.518 E82.83146
G1 X127.124 Y75.518 E82.87934
G1 X124.306 Y72.700 E83.14598
G1 X123.590 Y72.700 E83.19386
G1 X126.409 Y75.518 E83.46050
G1 X125.693 Y75.518 E83.50839
G1 X122.874 Y72.700 E83.77503
G1 X122.159 Y72.700 E83.82291
G1 X124.977 Y75.518 E84.08955
G1 X124.261 Y75.518 E84.13743
G1 X121.443 Y72.700 E84.40407
G1 X120.727 Y72.700 E84.45196
G1 X123.546 Y75.518 E84.71860
G1 X122.830 Y75.518 E84.76648
G1 X120.011 Y72.700 E85.03312
G1 X119.296 Y72.700 E85.08100
G1 X122.114 Y75.518 E85.34764
G1 X121.398 Y75.518 E85.39553
G1 X118.580 Y72.700 E85.66217
G1 X117.864 Y72.700 E85.71005
G1 X120.682 Y75.518 E85.97669
G1 X119.967 Y75.518 E86.02457
G1 X117.148 Y72.700 E86.29121
G1 X116.432 Y72.700 E86.33910
G1 X119.251 Y75.518 E86.60574
G1 X118.535 Y75.518 E86.65362
G1 X115.717 Y72.700 E86.92026
G1 X115.001 Y72.700 E86.96814
G1 X117.819 Y75.518 E87.23478
G1 X117.103 Y75.518 E87.28267
G1 X114.285 Y72.700 E87.54931
G1 X113.569 Y72.700 E87.59719
G1 X116.388 Y75.518 E87.86383
G1 X115.672 Y75.518 E87.91171
G1 X112.853 Y72.700 E88.17835
G1 X112.138 Y72.700 E88.22624
G1 X114.956 Y75.518 E88.49288
G1 X114.240 Y75.518 E88.54076
G1 X111.422 Y72.700 E88.80740
G1 X110.706 Y72.700 E88.85528
G1 X113.524 Y75.518 E89.12192
G1 X112.809 Y75.518 E89.16981
G1 X109.990 Y72.700 E89.43645
G1 X109.274 Y72.700 E89.48433
G1 X112.093 Y75.518 E89.75097
G1 X111.377 Y75.518 E89.79885
G1 X108.559 Y72.700 E90.06549
G1 X107.843 Y72.700 E90.11338
G1 X110.661 Y75.518 E90.38001
G1 X109.945 Y75.518 E90.42790
G1 X107.127 Y72.700 E90.69454
G1 X106.411 Y72.700 E90.74242
G1 X109.230 Y75.518 E91.00906
G1 X108.514 Y75.518 E91.05695
G1 X105.696 Y72.700 E91.32358
G1 X104.980 Y72.700 E91.37147
G1 X107.798 Y75.518 E91.63811
G1 X107.082 Y75.518 E91.68599
G1 X104.264 Y72.700 E91.95263
G1 X103.548 Y72.700 E92.00052
G1 X106.367 Y75.518 E92.26715
G1 X105.651 Y75.518 E92.31504
G1 X102.832 Y72.700 E92.58168
G1 X102.117 Y72.700 E92.62956
G1 X104.935 Y75.518 E92.89620
G1 X104.219 Y75.518 E92.94409
G1 X101.401 Y72.700 E93.21072
G1 X100.685 Y72.700 E93.25861
G1 X103.503 Y75.518 E93.52525
