; generated by Slic3r 0.9.9-dev on 2013-12-18 at 08:25:29

; M-PLA-05-03-1

; layer_height = 0.3
; perimeters = 2
; top_solid_layers = 3
; bottom_solid_layers = 2
; fill_density = 0.2
; perimeter_speed = 32
; infill_speed = 50
; travel_speed = 250
; scale = 1
; nozzle_diameter = 0.5
; filament_diameter = 1.75
; extrusion_multiplier = 0.9
; perimeters extrusion width = 0.50mm
; infill extrusion width = 0.50mm
; first layer extrusion width = 0.50mm

M107
M190 S57 ; wait for bed temperature to be reached
M104 S200 ; set temperature
G28 X0 Y0
G28 Z0
G1 Z0.3 F200
G1 X15 Y20 F12000
M109 S200 ; wait for temperature to be reached
G90 ; use absolute coordinates
G21 ; set units to millimeters
G92 E0
M82 ; use absolute distances for extrusion
G1 F2760.000 E-3.20000
G92 E0
G1 Z0.300 F15000.000
G1 X82.690 Y42.790
G1 X83.000 Y42.540 F2760.000 E3.20000
G1 X83.000 Y42.540 F1920.000
G1 X90.080 Y37.530 E3.68680
G1 X90.600 Y37.230 E3.72050
G1 X117.250 Y24.580 E5.37622
G1 X117.980 Y24.330 E5.41953
G1 X118.750 Y24.240 E5.46304
G1 X125.310 Y24.240 E5.83123
G1 X126.560 Y24.470 E5.90257
G1 X127.640 Y25.130 E5.97361
G1 X182.680 Y74.140 E10.11001
G1 X183.310 Y74.880 E10.16456
G1 X183.710 Y75.780 E10.21984
G1 X183.850 Y76.750 E10.27484
G1 X183.850 Y116.250 E12.49184
G1 X183.730 Y117.170 E12.54391
G1 X183.360 Y118.030 E12.59646
G1 X182.790 Y118.760 E12.64844
G1 X175.610 Y125.710 E13.20930
G1 X120.570 Y174.710 E17.34533
G1 X119.490 Y175.370 E17.41637
G1 X118.240 Y175.600 E17.48771
G1 X85.020 Y175.600 E19.35223
G1 X83.770 Y175.370 E19.42356
G1 X82.690 Y174.710 E19.49460
G1 X27.650 Y125.710 E23.63063
G1 X27.020 Y124.970 E23.68518
G1 X26.620 Y124.070 E23.74046
G1 X26.480 Y123.100 E23.79547
G1 X26.480 Y94.400 E25.40630
G1 X26.620 Y93.430 E25.46130
G1 X27.020 Y92.530 E25.51658
G1 X27.650 Y91.790 E25.57113
G1 X82.634 Y42.840 E29.70295
G1 X82.690 Y42.790 E29.70716
G1 F2760.000 E26.50716
G92 E0
G1 X118.524 Y101.360 F15000.000
G1 X118.755 Y101.250 F2760.000 E3.20000
G1 X118.755 Y101.250 F1560.000
G1 X125.320 Y101.250 E3.56847
G1 X125.320 Y116.250 E4.41037
G1 X118.249 Y116.250 E4.80724
G1 X118.249 Y123.100 E5.19171
G1 X89.884 Y123.100 E6.78374
G1 X89.884 Y118.900 E7.01947
G1 X92.110 Y118.900 E7.14439
G1 X92.110 Y113.898 E7.42511
G1 X118.389 Y101.424 E9.05779
G1 X118.524 Y101.360 E9.06621
G1 X118.739 Y101.811 F15000.000
G1 X118.868 Y101.750 F960.000 E9.07425
G1 X124.820 Y101.750 E9.40833
G1 X124.820 Y115.750 E10.19410
G1 X117.749 Y115.750 E10.59097
G1 X117.749 Y122.600 E10.97544
G1 X90.384 Y122.600 E12.51135
G1 X90.384 Y119.400 E12.69095
G1 X92.610 Y119.400 E12.81588
G1 X92.610 Y114.215 E13.10691
G1 X118.535 Y101.908 E14.71764
G1 X118.739 Y101.811 E14.73027
G1 F2760.000 E11.53027
G92 E0
G1 X87.214 Y118.975 F15000.000
G1 X87.214 Y119.475 F2760.000 E3.20000
G1 X87.214 Y123.100 F780.000 E3.40346
G1 X85.023 Y123.100 E3.52642
G1 X85.023 Y118.900 E3.76215
G1 X87.139 Y118.900 E3.88090
G1 X87.214 Y118.975 E3.88685
G1 X86.714 Y119.475 F15000.000
G1 X86.714 Y122.600 F780.000 E4.06225
G1 X85.523 Y122.600 E4.12908
G1 X85.523 Y119.400 E4.30868
G1 X86.564 Y119.400 E4.36710
G1 X86.714 Y119.475 E4.37651
G1 F2760.000 E1.17651
G92 E0
G1 X91.043 Y122.259 F15000.000
G1 X90.725 Y121.941 F2760.000 E3.20000
G1 X90.725 Y121.941 F2400.000
G1 X90.725 Y121.230 E3.24007
G1 X91.754 Y122.259 E3.32212
G1 X92.464 Y122.259 E3.36219
G1 X90.725 Y120.520 E3.50091
G1 X90.725 Y119.809 E3.54098
G1 X93.175 Y122.259 E3.73636
G1 X93.885 Y122.259 E3.77643
G1 X91.367 Y119.741 E3.97729
G1 X92.077 Y119.741 E4.01735
G1 X94.596 Y122.259 E4.21821
G1 X95.306 Y122.259 E4.25827
G1 X92.788 Y119.741 E4.45913
G1 X92.951 Y119.193 F15000.000
G1 X96.017 Y122.259 F1200.000 E4.70365
G1 X96.727 Y122.259 E4.74372
G1 X92.951 Y118.483 E5.04491
G1 X92.951 Y117.772 E5.08498
G1 X97.438 Y122.259 E5.44283
G1 X98.148 Y122.259 E5.48290
G1 X92.951 Y117.062 E5.89742
G1 X92.951 Y116.351 E5.93748
G1 X98.859 Y122.259 E6.40867
G1 X99.569 Y122.259 E6.44873
G1 X92.951 Y115.641 E6.97658
G1 X92.951 Y114.930 E7.01665
G1 X100.280 Y122.259 E7.60115
G1 X100.990 Y122.259 E7.64122
G1 X93.054 Y114.323 E8.27419
G1 X93.535 Y114.094 E8.30426
G1 X101.701 Y122.259 E8.95547
G1 X102.411 Y122.259 E8.99554
G1 X94.017 Y113.865 E9.66498
G1 X94.499 Y113.637 E9.69506
G1 X103.122 Y122.259 E10.38274
G1 X103.832 Y122.259 E10.42281
G1 X94.981 Y113.408 E11.12873
G1 X95.463 Y113.179 E11.15881
G1 X104.543 Y122.259 E11.88297
G1 X105.253 Y122.259 E11.92304
G1 X95.944 Y112.951 E12.66545
G1 X96.426 Y112.722 E12.69552
G1 X105.963 Y122.259 E13.45616
G1 X106.674 Y122.259 E13.49623
G1 X96.908 Y112.493 E14.27512
G1 X97.390 Y112.264 E14.30519
G1 X107.384 Y122.259 E15.10231
G1 X108.095 Y122.259 E15.14238
G1 X97.871 Y112.036 E15.95774
G1 X98.353 Y111.807 E15.98782
G1 X108.805 Y122.259 E16.82142
G1 X109.516 Y122.259 E16.86149
G1 X98.835 Y111.578 E17.71333
G1 X99.317 Y111.350 E17.74341
G1 X110.226 Y122.259 E18.61349
G1 X110.937 Y122.259 E18.65356
G1 X99.799 Y111.121 E19.54188
G1 X100.280 Y110.892 E19.57195
G1 X111.647 Y122.259 E20.47852
G1 X112.358 Y122.259 E20.51858
G1 X100.762 Y110.664 E21.44338
G1 X101.244 Y110.435 E21.47346
G1 X113.068 Y122.259 E22.41650
G1 X113.779 Y122.259 E22.45657
G1 X101.726 Y110.206 E23.41785
G1 X102.207 Y109.977 E23.44792
G1 X114.489 Y122.259 E24.42744
G1 X115.200 Y122.259 E24.46751
G1 X102.689 Y109.749 E25.46527
G1 X103.171 Y109.520 E25.49535
G1 X115.910 Y122.259 E26.51135
G1 X116.621 Y122.259 E26.55141
G1 X103.653 Y109.291 E27.58565
G1 X104.135 Y109.063 E27.61573
G1 X117.331 Y122.259 E28.66821
G1 X117.408 Y121.626 E28.70418
G1 X104.616 Y108.834 E29.72440
G1 X105.098 Y108.605 E29.75447
G1 X117.408 Y120.915 E30.73627
G1 X117.408 Y120.205 E30.77633
G1 X105.580 Y108.377 E31.71970
G1 X106.062 Y108.148 E31.74978
G1 X117.408 Y119.495 E32.65472
G1 X117.408 Y118.784 E32.69479
G1 X106.544 Y107.919 E33.56131
G1 X107.025 Y107.690 E33.59139
G1 X117.408 Y118.074 E34.41948
G1 X117.408 Y117.363 E34.45955
G1 X107.507 Y107.462 E35.24922
G1 X107.989 Y107.233 E35.27930
G1 X117.408 Y116.653 E36.03055
G1 X117.408 Y115.942 E36.07061
G1 X108.471 Y107.004 E36.78344
G1 X108.952 Y106.776 E36.81351
G1 X117.586 Y115.409 E37.50207
G1 X118.296 Y115.409 E37.54214
G1 X109.434 Y106.547 E38.24894
G1 X109.916 Y106.318 E38.27902
G1 X119.007 Y115.409 E39.00406
G1 X119.717 Y115.409 E39.04413
G1 X110.398 Y106.090 E39.78741
G1 X110.880 Y105.861 E39.81748
G1 X120.428 Y115.409 E40.57900
G1 X121.138 Y115.409 E40.61907
G1 X111.361 Y105.632 E41.39883
G1 X111.843 Y105.403 E41.42891
G1 X121.849 Y115.409 E42.22691
G1 X122.559 Y115.409 E42.26697
G1 X112.325 Y105.175 E43.08321
G1 X112.807 Y104.946 E43.11329
G1 X123.270 Y115.409 E43.94777
G1 X123.980 Y115.409 E43.98784
G1 X113.288 Y104.717 E44.84055
G1 X113.770 Y104.489 E44.87063
G1 X124.480 Y115.198 E45.72473
G1 X124.480 Y114.487 E45.76480
G1 X114.252 Y104.260 E46.58048
G1 X114.734 Y104.031 E46.61056
G1 X124.480 Y113.777 E47.38781
G1 X124.480 Y113.066 E47.42788
G1 X115.216 Y103.803 E48.16671
G1 X115.697 Y103.574 E48.19679
G1 X124.480 Y112.356 E48.89720
G1 X124.480 Y111.645 E48.93727
G1 X116.179 Y103.345 E49.59925
G1 X116.661 Y103.116 E49.62933
G1 X124.480 Y110.935 E50.25289
G1 X124.480 Y110.224 E50.29295
G1 X117.143 Y102.888 E50.87809
G1 X117.625 Y102.659 E50.90817
G1 X124.480 Y109.514 E51.45488
G1 X124.480 Y108.804 E51.49495
G1 X118.106 Y102.430 E52.00324
G1 X118.588 Y102.202 E52.03331
G1 X124.480 Y108.093 E52.50318
G1 X124.480 Y107.383 E52.54324
G1 X119.188 Y102.091 E52.96528
G1 X119.898 Y102.091 E53.00535
G1 X124.480 Y106.672 E53.37072
G1 X124.480 Y105.962 E53.41079
G1 X120.609 Y102.091 E53.71950
G1 X121.319 Y102.091 E53.75957
G1 X124.480 Y105.251 E54.01162
G1 X124.480 Y104.541 E54.05169
G1 X122.030 Y102.091 E54.24707
G1 X122.740 Y102.091 E54.28714
G1 X124.480 Y103.830 E54.42586
G1 X124.480 Y103.120 E54.46593
G1 X123.451 Y102.091 E54.54798
G1 X124.161 Y102.091 E54.58805
G1 X124.480 Y102.409 E54.61344
G1 F2760.000 E51.41344
G92 E0
G1 X86.118 Y121.982 F15000.000
G1 X86.118 Y121.482 F2760.000 E3.20000
G1 X86.118 Y120.755 F1200.000 E3.24082
G1 F2760.000 E0.04082
G92 E0
G1 X89.884 Y98.525 F15000.000
G1 X89.884 Y98.025 F2760.000 E3.20000
G1 X89.884 Y94.400 F780.000 E3.40346
G1 X92.110 Y94.400 E3.52838
G1 X92.110 Y89.398 E3.80910
G1 X118.755 Y76.750 E5.46456
G1 X125.320 Y76.750 E5.83303
G1 X125.320 Y91.750 E6.67492
G1 X118.249 Y91.750 E7.07180
G1 X118.249 Y98.600 E7.45626
G1 X89.959 Y98.600 E9.04409
G1 X89.884 Y98.525 E9.05004
G1 X90.384 Y98.025 F15000.000
G1 X90.384 Y94.900 F960.000 E9.22544
G1 X92.610 Y94.900 E9.35036
G1 X92.610 Y89.715 E9.64140
G1 X118.868 Y77.250 E11.27279
G1 X124.820 Y77.250 E11.60687
G1 X124.820 Y91.250 E12.39264
G1 X117.749 Y91.250 E12.78952
G1 X117.749 Y98.100 E13.17398
G1 X90.534 Y98.100 E14.70147
G1 X90.384 Y98.025 E14.71088
G1 F2760.000 E11.51088
G92 E0
G1 X87.139 Y98.600 F15000.000
G1 X86.639 Y98.600 F2760.000 E3.20000
G1 X85.023 Y98.600 F780.000 E3.29069
G1 X85.023 Y94.400 E3.52642
G1 X87.214 Y94.400 E3.64938
G1 X87.214 Y98.525 E3.88090
G1 X87.139 Y98.600 E3.88685
G1 X86.639 Y98.100 F15000.000
G1 X85.523 Y98.100 F780.000 E3.94947
G1 X85.523 Y94.900 E4.12908
G1 X86.714 Y94.900 E4.19591
G1 X86.714 Y97.950 E4.36710
G1 X86.639 Y98.100 E4.37651
G1 F2760.000 E1.17651
G92 E0
G1 X91.043 Y97.759 F15000.000
G1 X90.725 Y97.441 F2760.000 E3.20000
G1 X90.725 Y97.441 F2400.000
G1 X90.725 Y96.730 E3.24007
G1 X91.754 Y97.759 E3.32212
G1 X92.464 Y97.759 E3.36219
G1 X90.725 Y96.020 E3.50091
G1 X90.725 Y95.309 E3.54098
G1 X93.175 Y97.759 E3.73636
G1 X93.885 Y97.759 E3.77643
G1 X91.367 Y95.241 E3.97729
G1 X92.077 Y95.241 E4.01735
G1 X94.596 Y97.759 E4.21821
G1 X95.306 Y97.759 E4.25827
G1 X92.788 Y95.241 E4.45913
G1 X92.951 Y94.693 F15000.000
G1 X96.017 Y97.759 F1200.000 E4.70365
G1 X96.727 Y97.759 E4.74372
G1 X92.951 Y93.983 E5.04491
G1 X92.951 Y93.272 E5.08498
G1 X97.438 Y97.759 E5.44283
G1 X98.148 Y97.759 E5.48290
G1 X92.951 Y92.562 E5.89742
G1 X92.951 Y91.851 E5.93748
G1 X98.859 Y97.759 E6.40867
G1 X99.569 Y97.759 E6.44873
G1 X92.951 Y91.141 E6.97658
G1 X92.951 Y90.430 E7.01665
G1 X100.280 Y97.759 E7.60115
G1 X100.990 Y97.759 E7.64122
G1 X93.054 Y89.823 E8.27419
G1 X93.535 Y89.594 E8.30426
G1 X101.701 Y97.759 E8.95547
G1 X102.411 Y97.759 E8.99554
G1 X94.017 Y89.365 E9.66498
G1 X94.499 Y89.137 E9.69506
G1 X103.122 Y97.759 E10.38274
G1 X103.832 Y97.759 E10.42281
G1 X94.981 Y88.908 E11.12873
G1 X95.463 Y88.679 E11.15881
G1 X104.543 Y97.759 E11.88297
G1 X105.253 Y97.759 E11.92304
G1 X95.944 Y88.451 E12.66545
G1 X96.426 Y88.222 E12.69552
G1 X105.963 Y97.759 E13.45616
G1 X106.674 Y97.759 E13.49623
G1 X96.908 Y87.993 E14.27512
G1 X97.390 Y87.764 E14.30519
G1 X107.384 Y97.759 E15.10231
G1 X108.095 Y97.759 E15.14238
G1 X97.871 Y87.536 E15.95774
G1 X98.353 Y87.307 E15.98782
G1 X108.805 Y97.759 E16.82142
G1 X109.516 Y97.759 E16.86149
G1 X98.835 Y87.078 E17.71333
G1 X99.317 Y86.850 E17.74341
G1 X110.226 Y97.759 E18.61349
G1 X110.937 Y97.759 E18.65356
G1 X99.799 Y86.621 E19.54188
G1 X100.280 Y86.392 E19.57195
G1 X111.647 Y97.759 E20.47852
G1 X112.358 Y97.759 E20.51858
G1 X100.762 Y86.164 E21.44338
G1 X101.244 Y85.935 E21.47346
G1 X113.068 Y97.759 E22.41650
G1 X113.779 Y97.759 E22.45657
G1 X101.726 Y85.706 E23.41785
G1 X102.207 Y85.477 E23.44792
G1 X114.489 Y97.759 E24.42744
G1 X115.200 Y97.759 E24.46751
G1 X102.689 Y85.249 E25.46527
G1 X103.171 Y85.020 E25.49535
G1 X115.910 Y97.759 E26.51135
G1 X116.621 Y97.759 E26.55141
G1 X103.653 Y84.791 E27.58565
G1 X104.135 Y84.563 E27.61573
G1 X117.331 Y97.759 E28.66821
G1 X117.408 Y97.126 E28.70418
G1 X104.616 Y84.334 E29.72440
G1 X105.098 Y84.105 E29.75447
G1 X117.408 Y96.415 E30.73627
G1 X117.408 Y95.705 E30.77633
G1 X105.580 Y83.877 E31.71970
G1 X106.062 Y83.648 E31.74978
G1 X117.408 Y94.995 E32.65472
G1 X117.408 Y94.284 E32.69479
G1 X106.544 Y83.419 E33.56131
G1 X107.025 Y83.190 E33.59139
G1 X117.408 Y93.574 E34.41948
G1 X117.408 Y92.863 E34.45955
G1 X107.507 Y82.962 E35.24922
G1 X107.989 Y82.733 E35.27930
G1 X117.408 Y92.153 E36.03055
G1 X117.408 Y91.442 E36.07061
G1 X108.471 Y82.504 E36.78344
G1 X108.952 Y82.276 E36.81351
G1 X117.586 Y90.909 E37.50207
G1 X118.296 Y90.909 E37.54214
G1 X109.434 Y82.047 E38.24894
G1 X109.916 Y81.818 E38.27902
G1 X119.007 Y90.909 E39.00406
G1 X119.717 Y90.909 E39.04413
G1 X110.398 Y81.590 E39.78741
G1 X110.880 Y81.361 E39.81748
G1 X120.428 Y90.909 E40.57900
G1 X121.138 Y90.909 E40.61907
G1 X111.361 Y81.132 E41.39883
G1 X111.843 Y80.903 E41.42891
G1 X121.849 Y90.909 E42.22691
G1 X122.559 Y90.909 E42.26697
G1 X112.325 Y80.675 E43.08321
G1 X112.807 Y80.446 E43.11329
G1 X123.270 Y90.909 E43.94777
G1 X123.980 Y90.909 E43.98784
G1 X113.288 Y80.217 E44.84055
G1 X113.770 Y79.989 E44.87063
G1 X124.480 Y90.698 E45.72473
G1 X124.480 Y89.987 E45.76480
G1 X114.252 Y79.760 E46.58048
G1 X114.734 Y79.531 E46.61056
G1 X124.480 Y89.277 E47.38781
G1 X124.480 Y88.566 E47.42788
G1 X115.216 Y79.303 E48.16671
G1 X115.697 Y79.074 E48.19679
G1 X124.480 Y87.856 E48.89720
G1 X124.480 Y87.145 E48.93727
G1 X116.179 Y78.845 E49.59925
G1 X116.661 Y78.616 E49.62933
G1 X124.480 Y86.435 E50.25289
G1 X124.480 Y85.724 E50.29295
G1 X117.143 Y78.388 E50.87809
G1 X117.625 Y78.159 E50.90817
G1 X124.480 Y85.014 E51.45488
G1 X124.480 Y84.304 E51.49495
G1 X118.106 Y77.930 E52.00324
G1 X118.588 Y77.702 E52.03331
G1 X124.480 Y83.593 E52.50318
G1 X124.480 Y82.883 E52.54324
G1 X119.188 Y77.591 E52.96528
G1 X119.898 Y77.591 E53.00535
G1 X124.480 Y82.172 E53.37072
G1 X124.480 Y81.462 E53.41079
G1 X120.609 Y77.591 E53.71950
G1 X121.319 Y77.591 E53.75957
G1 X124.480 Y80.751 E54.01162
G1 X124.480 Y80.041 E54.05169
G1 X122.030 Y77.591 E54.24707
G1 X122.740 Y77.591 E54.28714
G1 X124.480 Y79.330 E54.42586
G1 X124.480 Y78.620 E54.46593
G1 X123.451 Y77.591 E54.54798
G1 X124.161 Y77.591 E54.58805
G1 X124.480 Y77.909 E54.61344
G1 F2760.000 E51.41344
G92 E0
G1 X86.118 Y97.482 F15000.000
G1 X86.118 Y96.982 F2760.000 E3.20000
G1 X86.118 Y96.255 F1200.000 E3.24082
G1 F2760.000 E0.04082
G92 E0
G1 X105.355 Y132.111 F15000.000
G1 X105.806 Y131.897 F2760.000 E3.20000
G1 X118.755 Y125.750 F780.000 E4.00452
G1 X125.320 Y125.750 E4.37298
G1 X125.320 Y140.750 E5.21488
G1 X118.249 Y140.750 E5.61175
G1 X118.249 Y147.600 E5.99622
G1 X89.884 Y147.600 E7.58825
G1 X89.884 Y143.400 E7.82398
G1 X92.110 Y143.400 E7.94891
G1 X92.110 Y138.398 E8.22963
G1 X105.219 Y132.176 E9.04409
G1 X105.355 Y132.111 E9.05251
G1 X105.569 Y132.563 F15000.000
G1 X118.868 Y126.250 F960.000 E9.87876
G1 X124.820 Y126.250 E10.21284
G1 X124.820 Y140.250 E10.99862
G1 X117.749 Y140.250 E11.39549
G1 X117.749 Y147.100 E11.77996
G1 X90.384 Y147.100 E13.31586
G1 X90.384 Y143.900 E13.49547
G1 X92.610 Y143.900 E13.62039
G1 X92.610 Y138.715 E13.91143
G1 X105.366 Y132.659 E14.70394
G1 X105.569 Y132.563 E14.71657
G1 F2760.000 E11.51657
G92 E0
G1 X87.214 Y143.475 F15000.000
G1 X87.214 Y143.975 F2760.000 E3.20000
G1 X87.214 Y147.600 F780.000 E3.40346
G1 X85.023 Y147.600 E3.52642
G1 X85.023 Y143.400 E3.76215
G1 X87.139 Y143.400 E3.88090
G1 X87.214 Y143.475 E3.88685
G1 X86.714 Y143.975 F15000.000
G1 X86.714 Y147.100 F780.000 E4.06225
G1 X85.523 Y147.100 E4.12908
G1 X85.523 Y143.900 E4.30868
G1 X86.564 Y143.900 E4.36710
G1 X86.714 Y143.975 E4.37651
G1 F2760.000 E1.17651
G92 E0
G1 X91.043 Y146.759 F15000.000
G1 X90.725 Y146.441 F2760.000 E3.20000
G1 X90.725 Y146.441 F2400.000
G1 X90.725 Y145.730 E3.24007
G1 X91.754 Y146.759 E3.32212
G1 X92.464 Y146.759 E3.36219
G1 X90.725 Y145.020 E3.50091
G1 X90.725 Y144.309 E3.54098
G1 X93.175 Y146.759 E3.73636
G1 X93.885 Y146.759 E3.77643
G1 X91.367 Y144.241 E3.97729
G1 X92.077 Y144.241 E4.01735
G1 X94.596 Y146.759 E4.21821
G1 X95.306 Y146.759 E4.25827
G1 X92.788 Y144.241 E4.45913
G1 X92.951 Y143.693 F15000.000
G1 X96.017 Y146.759 F1200.000 E4.70365
G1 X96.727 Y146.759 E4.74372
G1 X92.951 Y142.983 E5.04491
G1 X92.951 Y142.272 E5.08498
G1 X97.438 Y146.759 E5.44283
G1 X98.148 Y146.759 E5.48290
G1 X92.951 Y141.562 E5.89742
G1 X92.951 Y140.851 E5.93748
G1 X98.859 Y146.759 E6.40867
G1 X99.569 Y146.759 E6.44873
G1 X92.951 Y140.141 E6.97658
G1 X92.951 Y139.430 E7.01665
G1 X100.280 Y146.759 E7.60115
G1 X100.990 Y146.759 E7.64122
