; generated by Slic3r 1.0.0RC2 on 2014-01-23 at 15:48:32

; layer_height = 0.24
; perimeters = 2
; top_solid_layers = 4
; bottom_solid_layers = 3
; fill_density = 0.4
; perimeter_speed = 30
; infill_speed = 40
; travel_speed = 60
; nozzle_diameter = 0.3
; filament_diameter = 1.75
; extrusion_multiplier = 1
; perimeters extrusion width = 0.30mm
; infill extrusion width = 0.32mm
; solid infill extrusion width = 0.32mm
; top infill extrusion width = 0.32mm
; first layer extrusion width = 0.48mm

G21 ; set units to millimeters
M107
M104 S205 ; set temperature
G28 ; home all axes
G1 Z5 F200 ; lift nozzle
M109 S205 ; wait for temperature to be reached
G90 ; use absolute coordinates
M83 ; use relative distances for extrusion
G1 F1800.000 E-1.00000
G1 Z0.240 F3600.000
G1 X53.640 Y34.920 F3600.000
G1 E1.00000 F1800.000
G1 X54.450 Y33.950 E0.05565 F540.000
G1 X55.420 Y33.140 E0.05565
G1 X56.530 Y32.550 E0.05536
G1 X57.740 Y32.180 E0.05572
G1 X59.000 Y32.060 E0.05574
G1 X99.000 Y32.060 E1.76161
G1 X99.740 Y32.100 E0.03264
G1 X100.480 Y32.230 E0.03309
G1 X134.480 Y40.230 E1.53826
G1 X135.690 Y40.650 E0.05641
G1 X136.790 Y41.290 E0.05605
G1 X137.750 Y42.150 E0.05676
G1 X138.520 Y43.170 E0.05628
G1 X139.060 Y44.330 E0.05635
G1 X139.370 Y45.570 E0.05629
G1 X147.370 Y100.570 E2.44770
G1 X147.440 Y101.500 E0.04107
G1 X147.440 Y161.500 E2.64241
G1 X147.320 Y162.760 E0.05574
G1 X146.950 Y163.970 E0.05572
G1 X146.360 Y165.080 E0.05536
G1 X145.550 Y166.050 E0.05565
G1 X144.580 Y166.860 E0.05565
G1 X143.470 Y167.450 E0.05536
G1 X142.260 Y167.820 E0.05572
G1 X141.000 Y167.940 E0.05574
G1 X101.000 Y167.940 E1.76161
G1 X100.440 Y167.920 E0.02468
G1 X99.880 Y167.840 E0.02491
G1 X65.880 Y161.840 E1.52050
G1 X64.590 Y161.470 E0.05910
G1 X63.400 Y160.840 E0.05930
G1 X62.370 Y159.970 E0.05938
G1 X61.540 Y158.910 E0.05929
G1 X60.950 Y157.700 E0.05929
G1 X60.620 Y156.400 E0.05907
G1 X52.620 Y99.400 E2.53490
G1 X52.560 Y98.500 E0.03972
G1 X52.560 Y38.500 E2.64241
G1 X52.680 Y37.240 E0.05574
G1 X53.050 Y36.030 E0.05572
G1 X53.609 Y34.978 E0.05245
G1 F1800.000 E-1.00000
G1 X67.681 Y105.181 F3600.000
G1 E1.00000 F1800.000
G1 X97.319 Y105.181 E1.30523 F540.000
G1 X97.319 Y154.819 E2.18604
G1 X67.681 Y154.819 E1.30523
G1 X67.681 Y105.248 E2.18312
G1 X67.240 Y104.740 F3600.000
G1 X97.760 Y104.740 E1.34411 F378.000
G1 X97.760 Y155.260 E2.22491
G1 X67.240 Y155.260 E1.34411
G1 X67.240 Y104.806 E2.22200
G1 X67.622 Y104.961 F3600.000
G1 X96.977 Y105.479 F3600.000
G1 X97.021 Y105.523 E0.00278 F720.000
G1 X97.021 Y106.152 E0.02791
G1 X96.348 Y105.479 E0.04226
G1 X95.719 Y105.479 E0.02791
G1 X97.021 Y106.781 E0.08174
G1 X97.021 Y107.410 E0.02791
G1 X95.090 Y105.479 E0.12121
G1 X94.461 Y105.479 E0.02791
G1 X97.021 Y108.039 E0.16069
G1 X97.021 Y108.668 E0.02791
G1 X93.832 Y105.479 E0.20016
G1 X93.203 Y105.479 E0.02791
G1 X97.021 Y109.297 E0.23964
G1 X97.021 Y109.926 E0.02791
G1 X92.574 Y105.479 E0.27912
G1 X91.945 Y105.479 E0.02791
G1 X97.021 Y110.555 E0.31859
G1 X97.021 Y111.184 E0.02791
G1 X91.316 Y105.479 E0.35807
G1 X90.687 Y105.479 E0.02791
G1 X97.021 Y111.813 E0.39754
G1 X97.021 Y112.442 E0.02791
G1 X90.058 Y105.479 E0.43702
G1 X89.429 Y105.479 E0.02791
G1 X97.021 Y113.071 E0.47650
G1 X97.021 Y113.700 E0.02791
G1 X88.800 Y105.479 E0.51597
G1 X88.171 Y105.479 E0.02791
G1 X97.021 Y114.329 E0.55545
G1 X97.021 Y114.958 E0.02791
G1 X87.542 Y105.479 E0.59492
G1 X86.913 Y105.479 E0.02791
G1 X97.021 Y115.587 E0.63440
G1 X97.021 Y116.216 E0.02791
G1 X86.284 Y105.479 E0.67387
G1 X85.655 Y105.479 E0.02791
G1 X97.021 Y116.845 E0.71335
G1 X97.021 Y117.474 E0.02791
G1 X85.026 Y105.479 E0.75283
G1 X84.397 Y105.479 E0.02791
G1 X97.021 Y118.103 E0.79230
G1 X97.021 Y118.732 E0.02791
G1 X83.768 Y105.479 E0.83178
G1 X83.139 Y105.479 E0.02791
G1 X97.021 Y119.361 E0.87125
G1 X97.021 Y119.990 E0.02791
G1 X82.510 Y105.479 E0.91073
G1 X81.881 Y105.479 E0.02791
G1 X97.021 Y120.619 E0.95021
G1 X97.021 Y121.248 E0.02791
G1 X81.252 Y105.479 E0.98968
G1 X80.623 Y105.479 E0.02791
G1 X97.021 Y121.877 E1.02916
G1 X97.021 Y122.506 E0.02791
G1 X79.994 Y105.479 E1.06863
G1 X79.365 Y105.479 E0.02791
G1 X97.021 Y123.135 E1.10811
G1 X97.021 Y123.764 E0.02791
G1 X78.736 Y105.479 E1.14759
G1 X78.107 Y105.479 E0.02791
G1 X97.021 Y124.393 E1.18706
G1 X97.021 Y125.022 E0.02791
G1 X77.478 Y105.479 E1.22654
G1 X76.849 Y105.479 E0.02791
G1 X97.021 Y125.651 E1.26601
G1 X97.021 Y126.280 E0.02791
G1 X76.220 Y105.479 E1.30549
G1 X75.591 Y105.479 E0.02791
G1 X97.021 Y126.909 E1.34497
G1 X97.021 Y127.538 E0.02791
G1 X74.962 Y105.479 E1.38444
G1 X74.333 Y105.479 E0.02791
G1 X97.021 Y128.167 E1.42392
G1 X97.021 Y128.796 E0.02791
G1 X73.704 Y105.479 E1.46339
G1 X73.075 Y105.479 E0.02791
G1 X97.021 Y129.425 E1.50287
G1 X97.021 Y130.054 E0.02791
G1 X72.446 Y105.479 E1.54235
G1 X71.817 Y105.479 E0.02791
G1 X97.021 Y130.683 E1.58182
G1 X97.021 Y131.312 E0.02791
G1 X71.188 Y105.479 E1.62130
G1 X70.559 Y105.479 E0.02791
G1 X97.021 Y131.941 E1.66077
G1 X97.021 Y132.570 E0.02791
G1 X69.930 Y105.479 E1.70025
G1 X69.301 Y105.479 E0.02791
G1 X97.021 Y133.199 E1.73973
G1 X97.021 Y133.828 E0.02791
G1 X68.672 Y105.479 E1.77920
G1 X68.043 Y105.479 E0.02791
G1 X97.021 Y134.457 E1.81868
G1 X97.021 Y135.086 E0.02791
G1 X67.979 Y106.044 E1.82269
G1 X67.979 Y106.673 E0.02791
G1 X97.021 Y135.715 E1.82269
G1 X97.021 Y136.344 E0.02791
G1 X67.979 Y107.302 E1.82269
G1 X67.979 Y107.931 E0.02791
G1 X97.021 Y136.973 E1.82269
G1 X97.021 Y137.602 E0.02791
G1 X67.979 Y108.560 E1.82269
G1 X67.979 Y109.189 E0.02791
G1 X97.021 Y138.231 E1.82269
G1 X97.021 Y138.860 E0.02791
G1 X67.979 Y109.818 E1.82269
G1 X67.979 Y110.447 E0.02791
G1 X97.021 Y139.489 E1.82269
G1 X97.021 Y140.118 E0.02791
G1 X67.979 Y111.076 E1.82269
G1 X67.979 Y111.705 E0.02791
G1 X97.021 Y140.747 E1.82269
G1 X97.021 Y141.376 E0.02791
G1 X67.979 Y112.334 E1.82269
G1 X67.979 Y112.963 E0.02791
G1 X97.021 Y142.005 E1.82269
G1 X97.021 Y142.634 E0.02791
G1 X67.979 Y113.592 E1.82269
G1 X67.979 Y114.221 E0.02791
G1 X97.021 Y143.263 E1.82269
G1 X97.021 Y143.892 E0.02791
G1 X67.979 Y114.850 E1.82269
G1 X67.979 Y115.479 E0.02791
G1 X97.021 Y144.521 E1.82269
G1 X97.021 Y145.150 E0.02791
G1 X67.979 Y116.108 E1.82269
G1 X67.979 Y116.737 E0.02791
G1 X97.021 Y145.779 E1.82269
G1 X97.021 Y146.408 E0.02791
G1 X67.979 Y117.366 E1.82269
G1 X67.979 Y117.995 E0.02791
G1 X97.021 Y147.037 E1.82269
G1 X97.021 Y147.666 E0.02791
G1 X67.979 Y118.624 E1.82269
G1 X67.979 Y119.253 E0.02791
G1 X97.021 Y148.295 E1.82269
G1 X97.021 Y148.924 E0.02791
G1 X67.979 Y119.882 E1.82269
G1 X67.979 Y120.511 E0.02791
G1 X97.021 Y149.553 E1.82269
G1 X97.021 Y150.182 E0.02791
G1 X67.979 Y121.140 E1.82269
G1 X67.979 Y121.769 E0.02791
G1 X97.021 Y150.811 E1.82269
G1 X97.021 Y151.440 E0.02791
G1 X67.979 Y122.398 E1.82269
G1 X67.979 Y123.027 E0.02791
G1 X97.021 Y152.069 E1.82269
G1 X97.021 Y152.698 E0.02791
G1 X67.979 Y123.656 E1.82269
G1 X67.979 Y124.285 E0.02791
G1 X97.021 Y153.327 E1.82269
G1 X97.021 Y153.956 E0.02791
G1 X67.979 Y124.914 E1.82269
G1 X67.979 Y125.543 E0.02791
G1 X96.957 Y154.521 E1.81868
G1 X96.328 Y154.521 E0.02791
G1 X67.979 Y126.172 E1.77921
G1 X67.979 Y126.801 E0.02791
G1 X95.699 Y154.521 E1.73973
G1 X95.070 Y154.521 E0.02791
G1 X67.979 Y127.430 E1.70026
G1 X67.979 Y128.059 E0.02791
G1 X94.441 Y154.521 E1.66078
G1 X93.812 Y154.521 E0.02791
G1 X67.979 Y128.688 E1.62130
G1 X67.979 Y129.317 E0.02791
G1 X93.183 Y154.521 E1.58183
G1 X92.554 Y154.521 E0.02791
G1 X67.979 Y129.946 E1.54235
G1 X67.979 Y130.575 E0.02791
G1 X91.925 Y154.521 E1.50288
G1 X91.296 Y154.521 E0.02791
G1 X67.979 Y131.204 E1.46340
G1 X67.979 Y131.833 E0.02791
G1 X90.667 Y154.521 E1.42393
G1 X90.038 Y154.521 E0.02791
G1 X67.979 Y132.462 E1.38445
G1 X67.979 Y133.091 E0.02791
G1 X89.409 Y154.521 E1.34497
G1 X88.780 Y154.521 E0.02791
G1 X67.979 Y133.720 E1.30550
G1 X67.979 Y134.349 E0.02791
G1 X88.151 Y154.521 E1.26602
G1 X87.522 Y154.521 E0.02791
G1 X67.979 Y134.978 E1.22655
G1 X67.979 Y135.607 E0.02791
G1 X86.893 Y154.521 E1.18707
G1 X86.264 Y154.521 E0.02791
G1 X67.979 Y136.236 E1.14759
G1 X67.979 Y136.865 E0.02791
G1 X85.635 Y154.521 E1.10812
G1 X85.006 Y154.521 E0.02791
G1 X67.979 Y137.494 E1.06864
G1 X67.979 Y138.123 E0.02791
G1 X84.377 Y154.521 E1.02917
G1 X83.748 Y154.521 E0.02791
G1 X67.979 Y138.752 E0.98969
G1 X67.979 Y139.381 E0.02791
G1 X83.119 Y154.521 E0.95021
G1 X82.490 Y154.521 E0.02791
G1 X67.979 Y140.010 E0.91074
G1 X67.979 Y140.639 E0.02791
G1 X81.861 Y154.521 E0.87126
G1 X81.232 Y154.521 E0.02791
G1 X67.979 Y141.268 E0.83179
G1 X67.979 Y141.897 E0.02791
G1 X80.603 Y154.521 E0.79231
G1 X79.974 Y154.521 E0.02791
G1 X67.979 Y142.526 E0.75283
G1 X67.979 Y143.155 E0.02791
G1 X79.345 Y154.521 E0.71336
G1 X78.716 Y154.521 E0.02791
G1 X67.979 Y143.784 E0.67388
G1 X67.979 Y144.413 E0.02791
G1 X78.087 Y154.521 E0.63441
G1 X77.458 Y154.521 E0.02791
G1 X67.979 Y145.042 E0.59493
G1 X67.979 Y145.671 E0.02791
G1 X76.829 Y154.521 E0.55545
G1 X76.200 Y154.521 E0.02791
G1 X67.979 Y146.300 E0.51598
G1 X67.979 Y146.929 E0.02791
G1 X75.571 Y154.521 E0.47650
G1 X74.942 Y154.521 E0.02791
G1 X67.979 Y147.558 E0.43703
G1 X67.979 Y148.187 E0.02791
G1 X74.313 Y154.521 E0.39755
G1 X73.684 Y154.521 E0.02791
G1 X67.979 Y148.816 E0.35807
G1 X67.979 Y149.444 E0.02791
G1 X73.056 Y154.521 E0.31860
G1 X72.427 Y154.521 E0.02791
G1 X67.979 Y150.073 E0.27912
G1 X67.979 Y150.702 E0.02791
G1 X71.798 Y154.521 E0.23965
G1 X71.169 Y154.521 E0.02791
G1 X67.979 Y151.331 E0.20017
G1 X67.979 Y151.960 E0.02791
G1 X70.540 Y154.521 E0.16070
G1 X69.911 Y154.521 E0.02791
G1 X67.979 Y152.589 E0.12122
G1 X67.979 Y153.218 E0.02791
G1 X69.282 Y154.521 E0.08174
G1 X68.653 Y154.521 E0.02791
G1 X67.979 Y153.847 E0.04227
G1 X67.979 Y154.476 E0.02791
G1 X68.024 Y154.521 E0.00279
G1 F1800.000 E-1.00000
G1 X101.681 Y160.819 F3600.000
G1 E1.00000 F1800.000
G1 X101.681 Y102.181 E2.58240 F540.000
G1 X140.319 Y102.181 E1.70159
G1 X140.319 Y160.819 E2.58240
G1 X101.748 Y160.819 E1.69868
G1 X101.240 Y161.260 F3600.000
G1 X101.240 Y101.740 E2.62128 F378.000
G1 X140.760 Y101.740 E1.74047
G1 X140.760 Y161.260 E2.62128
G1 X101.306 Y161.260 E1.73755
G1 X101.461 Y160.878 F3600.000
G1 X102.024 Y160.521 F3600.000
G1 X101.979 Y160.476 E0.00278 F720.000
G1 X101.979 Y159.849 E0.02777
G1 X102.651 Y160.521 E0.04206
G1 X103.278 Y160.521 E0.02777
G1 X101.979 Y159.222 E0.08133
G1 X101.979 Y158.594 E0.02777
G1 X103.906 Y160.521 E0.12061
G1 X104.533 Y160.521 E0.02777
G1 X101.979 Y157.967 E0.15989
G1 X101.979 Y157.339 E0.02777
G1 X105.161 Y160.521 E0.19917
G1 X105.788 Y160.521 E0.02777
G1 X101.979 Y156.712 E0.23845
G1 X101.979 Y156.085 E0.02777
G1 X106.415 Y160.521 E0.27773
G1 X107.043 Y160.521 E0.02777
G1 X101.979 Y155.457 E0.31701
G1 X101.979 Y154.830 E0.02777
G1 X107.670 Y160.521 E0.35629
G1 X108.298 Y160.521 E0.02777
G1 X101.979 Y154.202 E0.39556
G1 X101.979 Y153.575 E0.02777
G1 X108.925 Y160.521 E0.43484
G1 X109.553 Y160.521 E0.02777
G1 X101.979 Y152.947 E0.47412
G1 X101.979 Y152.320 E0.02777
G1 X110.180 Y160.521 E0.51340
G1 X110.807 Y160.521 E0.02777
G1 X101.979 Y151.693 E0.55268
G1 X101.979 Y151.065 E0.02777
G1 X111.435 Y160.521 E0.59196
G1 X112.062 Y160.521 E0.02777
G1 X101.979 Y150.438 E0.63124
G1 X101.979 Y149.810 E0.02777
G1 X112.690 Y160.521 E0.67052
G1 X113.317 Y160.521 E0.02777
G1 X101.979 Y149.183 E0.70979
G1 X101.979 Y148.556 E0.02777
G1 X113.944 Y160.521 E0.74907
G1 X114.572 Y160.521 E0.02777
G1 X101.979 Y147.928 E0.78835
G1 X101.979 Y147.301 E0.02777
G1 X115.199 Y160.521 E0.82763
G1 X115.827 Y160.521 E0.02777
G1 X101.979 Y146.673 E0.86691
G1 X101.979 Y146.046 E0.02777
G1 X116.454 Y160.521 E0.90619
G1 X117.082 Y160.521 E0.02777
G1 X101.979 Y145.418 E0.94547
G1 X101.979 Y144.791 E0.02777
G1 X117.709 Y160.521 E0.98475
G1 X118.336 Y160.521 E0.02777
G1 X101.979 Y144.164 E1.02402
G1 X101.979 Y143.536 E0.02777
G1 X118.964 Y160.521 E1.06330
G1 X119.591 Y160.521 E0.02777
G1 X101.979 Y142.909 E1.10258
G1 X101.979 Y142.281 E0.02777
G1 X120.219 Y160.521 E1.14186
G1 X120.846 Y160.521 E0.02777
G1 X101.979 Y141.654 E1.18114
G1 X101.979 Y141.027 E0.02777
G1 X121.473 Y160.521 E1.22042
G1 X122.101 Y160.521 E0.02777
G1 X101.979 Y140.399 E1.25970
G1 X101.979 Y139.772 E0.02777
G1 X122.728 Y160.521 E1.29898
G1 X123.356 Y160.521 E0.02777
G1 X101.979 Y139.144 E1.33825
G1 X101.979 Y138.517 E0.02777
G1 X123.983 Y160.521 E1.37753
G1 X124.611 Y160.521 E0.02777
G1 X101.979 Y137.889 E1.41681
G1 X101.979 Y137.262 E0.02777
G1 X125.238 Y160.521 E1.45609
G1 X125.865 Y160.521 E0.02777
G1 X101.979 Y136.635 E1.49537
G1 X101.979 Y136.007 E0.02777
G1 X126.493 Y160.521 E1.53465
G1 X127.120 Y160.521 E0.02777
G1 X101.979 Y135.380 E1.57393
G1 X101.979 Y134.752 E0.02777
G1 X127.748 Y160.521 E1.61321
G1 X128.375 Y160.521 E0.02777
G1 X101.979 Y134.125 E1.65248
G1 X101.979 Y133.498 E0.02777
G1 X129.002 Y160.521 E1.69176
G1 X129.630 Y160.521 E0.02777
G1 X101.979 Y132.870 E1.73104
G1 X101.979 Y132.243 E0.02777
G1 X130.257 Y160.521 E1.77032
G1 X130.885 Y160.521 E0.02777
G1 X101.979 Y131.615 E1.80960
G1 X101.979 Y130.988 E0.02777
G1 X131.512 Y160.521 E1.84888
G1 X132.140 Y160.521 E0.02777
G1 X101.979 Y130.360 E1.88816
G1 X101.979 Y129.733 E0.02777
G1 X132.767 Y160.521 E1.92744
G1 X133.394 Y160.521 E0.02777
G1 X101.979 Y129.106 E1.96671
G1 X101.979 Y128.478 E0.02777
G1 X134.022 Y160.521 E2.00599
G1 X134.649 Y160.521 E0.02777
G1 X101.979 Y127.851 E2.04527
G1 X101.979 Y127.223 E0.02777
G1 X135.277 Y160.521 E2.08455
G1 X135.904 Y160.521 E0.02777
G1 X101.979 Y126.596 E2.12383
G1 X101.979 Y125.969 E0.02777
G1 X136.531 Y160.521 E2.16311
G1 X137.159 Y160.521 E0.02777
G1 X101.979 Y125.341 E2.20239
G1 X101.979 Y124.714 E0.02777
G1 X137.786 Y160.521 E2.24167
G1 X138.414 Y160.521 E0.02777
G1 X101.979 Y124.086 E2.28094
G1 X101.979 Y123.459 E0.02777
G1 X139.041 Y160.521 E2.32022
G1 X139.669 Y160.521 E0.02777
G1 X101.979 Y122.831 E2.35950
G1 X101.979 Y122.204 E0.02777
G1 X140.021 Y160.246 E2.38156
G1 X140.021 Y159.618 E0.02777
G1 X101.979 Y121.577 E2.38156
G1 X101.979 Y120.949 E0.02777
G1 X140.021 Y158.991 E2.38156
G1 X140.021 Y158.363 E0.02777
G1 X101.979 Y120.322 E2.38156
G1 X101.979 Y119.694 E0.02777
G1 X140.021 Y157.736 E2.38156
G1 X140.021 Y157.109 E0.02777
G1 X101.979 Y119.067 E2.38156
G1 X101.979 Y118.440 E0.02777
G1 X140.021 Y156.481 E2.38156
G1 X140.021 Y155.854 E0.02777
G1 X101.979 Y117.812 E2.38156
G1 X101.979 Y117.185 E0.02777
G1 X140.021 Y155.226 E2.38156
G1 X140.021 Y154.599 E0.02777
G1 X101.979 Y116.557 E2.38156
G1 X101.979 Y115.930 E0.02777
G1 X140.021 Y153.972 E2.38156
G1 X140.021 Y153.344 E0.02777
G1 X101.979 Y115.302 E2.38156
G1 X101.979 Y114.675 E0.02777
G1 X140.021 Y152.717 E2.38156
G1 X140.021 Y152.089 E0.02777
G1 X101.979 Y114.048 E2.38156
G1 X101.979 Y113.420 E0.02777
G1 X140.021 Y151.462 E2.38156
G1 X140.021 Y150.834 E0.02777
G1 X101.979 Y112.793 E2.38156
G1 X101.979 Y112.165 E0.02777
G1 X140.021 Y150.207 E2.38156
G1 X140.021 Y149.580 E0.02777
G1 X101.979 Y111.538 E2.38156
G1 X101.979 Y110.911 E0.02777
G1 X140.021 Y148.952 E2.38156
G1 X140.021 Y148.325 E0.02777
G1 X101.979 Y110.283 E2.38156
G1 X101.979 Y109.656 E0.02777
G1 X140.021 Y147.697 E2.38156
G1 X140.021 Y147.070 E0.02777
G1 X101.979 Y109.028 E2.38156
G1 X101.979 Y108.401 E0.02777
G1 X140.021 Y146.443 E2.38156
G1 X140.021 Y145.815 E0.02777
G1 X101.979 Y107.773 E2.38156
G1 X101.979 Y107.146 E0.02777
G1 X140.021 Y145.188 E2.38156
G1 X140.021 Y144.560 E0.02777
G1 X101.979 Y106.519 E2.38156
G1 X101.979 Y105.891 E0.02777
G1 X140.021 Y143.933 E2.38156
G1 X140.021 Y143.305 E0.02777
G1 X101.979 Y105.264 E2.38156
G1 X101.979 Y104.636 E0.02777
G1 X140.021 Y142.678 E2.38156
G1 X140.021 Y142.051 E0.02777
G1 X101.979 Y104.009 E2.38156
G1 X101.979 Y103.382 E0.02777
G1 X140.021 Y141.423 E2.38156
G1 X140.021 Y140.796 E0.02777
G1 X101.979 Y102.754 E2.38156
G1 X102.332 Y102.479 E0.01979
G1 X140.021 Y140.168 E2.35949
G1 X140.021 Y139.541 E0.02777
G1 X102.959 Y102.479 E2.32021
G1 X103.586 Y102.479 E0.02777
G1 X140.021 Y138.914 E2.28093
G1 X140.021 Y138.286 E0.02777
G1 X104.214 Y102.479 E2.24166
G1 X104.841 Y102.479 E0.02777
G1 X140.021 Y137.659 E2.20238
