; generated by Slic3r 1.0.0RC2 on 2014-04-07 at 11:31:03

; layer_height = 0.24
; perimeters = 2
; top_solid_layers = 4
; bottom_solid_layers = 3
; fill_density = 0.4
; perimeter_speed = 30
; infill_speed = 40
; travel_speed = 60
; nozzle_diameter = 0.3
; filament_diameter = 1.75
; extrusion_multiplier = 1
; perimeters extrusion width = 0.30mm
; infill extrusion width = 0.32mm
; solid infill extrusion width = 0.32mm
; top infill extrusion width = 0.32mm
; first layer extrusion width = 0.48mm

G21 ; set units to millimeters
M107
M104 S205 ; set temperature
G28 ; home all axes
G1 Z5 F200 ; lift nozzle
M109 S205 ; wait for temperature to be reached
G90 ; use absolute coordinates
M83 ; use relative distances for extrusion
G1 F1800.000 E-1.00000
G1 Z0.240 F3600.000
G1 X21.920 Y40.140 F3600.000
G1 E1.00000 F1800.000
G1 X23.030 Y39.550 E0.05536 F540.000
G1 X24.240 Y39.180 E0.05572
G1 X25.500 Y39.060 E0.05574
G1 X174.500 Y39.060 E6.56200
G1 X175.760 Y39.180 E0.05574
G1 X176.970 Y39.550 E0.05572
G1 X178.080 Y40.140 E0.05536
G1 X179.050 Y40.950 E0.05565
G1 X179.860 Y41.920 E0.05565
G1 X180.450 Y43.030 E0.05536
G1 X180.820 Y44.240 E0.05572
G1 X180.940 Y45.500 E0.05574
G1 X180.940 Y154.500 E4.80039
G1 X180.820 Y155.760 E0.05574
G1 X180.450 Y156.970 E0.05572
G1 X179.860 Y158.080 E0.05536
G1 X179.050 Y159.050 E0.05565
G1 X178.080 Y159.860 E0.05565
G1 X176.970 Y160.450 E0.05536
G1 X175.760 Y160.820 E0.05572
G1 X174.500 Y160.940 E0.05574
G1 X25.500 Y160.940 E6.56200
G1 X24.240 Y160.820 E0.05574
G1 X23.030 Y160.450 E0.05572
G1 X21.920 Y159.860 E0.05536
G1 X20.950 Y159.050 E0.05565
G1 X20.140 Y158.080 E0.05565
G1 X19.550 Y156.970 E0.05536
G1 X19.180 Y155.760 E0.05572
G1 X19.060 Y154.500 E0.05574
G1 X19.060 Y45.500 E4.80039
G1 X19.180 Y44.240 E0.05574
G1 X19.550 Y43.030 E0.05572
G1 X20.140 Y41.920 E0.05536
G1 X20.950 Y40.950 E0.05565
G1 X21.869 Y40.182 E0.05274
G1 F1800.000 E-1.00000
G1 X165.110 Y54.000 F3600.000
G1 E1.00000 F1800.000
G1 X165.227 Y53.262 E0.03293 F540.000
G1 X165.567 Y52.595 E0.03293
G1 X166.095 Y52.067 E0.03293
G1 X166.762 Y51.727 E0.03293
G1 X167.500 Y51.610 E0.03293
G1 X168.238 Y51.727 E0.03293
G1 X168.905 Y52.067 E0.03293
G1 X169.433 Y52.595 E0.03293
G1 X169.773 Y53.261 E0.03293
G1 X169.890 Y54.000 E0.03293
G1 X169.773 Y54.739 E0.03293
G1 X169.433 Y55.405 E0.03293
G1 X168.905 Y55.933 E0.03293
G1 X168.238 Y56.273 E0.03293
G1 X167.500 Y56.390 E0.03293
G1 X166.762 Y56.273 E0.03293
G1 X166.095 Y55.933 E0.03293
G1 X165.567 Y55.405 E0.03293
G1 X165.227 Y54.739 E0.03293
G1 X165.120 Y54.065 E0.03001
G1 X165.557 Y54.000 F3600.000
G1 X165.652 Y53.400 E0.02677 F540.000
G1 X165.928 Y52.858 E0.02677
G1 X166.358 Y52.428 E0.02677
G1 X166.900 Y52.152 E0.02677
G1 X167.500 Y52.057 E0.02677
G1 X168.100 Y52.152 E0.02677
G1 X168.642 Y52.428 E0.02677
G1 X169.072 Y52.858 E0.02677
G1 X169.348 Y53.400 E0.02677
G1 X169.443 Y54.000 E0.02677
G1 X169.348 Y54.600 E0.02677
G1 X169.072 Y55.142 E0.02677
G1 X168.642 Y55.572 E0.02677
G1 X168.100 Y55.848 E0.02677
G1 X167.500 Y55.943 E0.02677
G1 X166.900 Y55.848 E0.02677
G1 X166.358 Y55.572 E0.02677
G1 X165.928 Y55.142 E0.02677
G1 X165.652 Y54.600 E0.02677
G1 X165.567 Y54.065 E0.02386
G1 X165.187 Y53.760 F3600.000
G1 X54.890 Y54.000 F3600.000
G1 X54.773 Y54.739 E0.03293 F540.000
G1 X54.433 Y55.405 E0.03293
G1 X53.905 Y55.933 E0.03293
G1 X53.238 Y56.273 E0.03293
G1 X52.500 Y56.390 E0.03293
G1 X51.762 Y56.273 E0.03293
G1 X51.095 Y55.933 E0.03293
G1 X50.567 Y55.405 E0.03293
G1 X50.227 Y54.739 E0.03293
G1 X50.110 Y54.000 E0.03293
G1 X50.227 Y53.261 E0.03293
G1 X50.567 Y52.595 E0.03293
G1 X50.996 Y52.165 E0.02677
G1 X51.095 Y52.067 E0.00616
G1 X51.762 Y51.727 E0.03293
G1 X52.500 Y51.610 E0.03293
G1 X53.239 Y51.727 E0.03293
G1 X53.905 Y52.067 E0.03293
G1 X54.433 Y52.595 E0.03293
G1 X54.773 Y53.261 E0.03293
G1 X54.880 Y53.935 E0.03001
G1 X54.443 Y54.000 F3600.000
G1 X54.348 Y54.600 E0.02677 F540.000
G1 X54.072 Y55.142 E0.02677
G1 X53.642 Y55.572 E0.02677
G1 X53.100 Y55.848 E0.02677
G1 X52.500 Y55.943 E0.02677
G1 X51.900 Y55.848 E0.02677
G1 X51.358 Y55.572 E0.02677
G1 X50.928 Y55.142 E0.02677
G1 X50.652 Y54.600 E0.02677
G1 X50.557 Y54.000 E0.02677
G1 X50.652 Y53.400 E0.02677
G1 X50.928 Y52.858 E0.02677
G1 X51.309 Y52.478 E0.02369
G1 X51.358 Y52.428 E0.00308
G1 X51.900 Y52.152 E0.02677
G1 X52.500 Y52.057 E0.02677
G1 X53.100 Y52.152 E0.02677
G1 X53.642 Y52.428 E0.02677
G1 X54.072 Y52.858 E0.02677
G1 X54.348 Y53.400 E0.02677
G1 X54.433 Y53.935 E0.02386
G1 X54.813 Y54.240 F3600.000
G1 X52.500 Y143.610 F3600.000
G1 X53.238 Y143.727 E0.03293 F540.000
G1 X53.905 Y144.067 E0.03293
G1 X54.433 Y144.595 E0.03293
G1 X54.773 Y145.262 E0.03293
G1 X54.890 Y146.000 E0.03293
G1 X54.773 Y146.739 E0.03293
G1 X54.433 Y147.405 E0.03293
G1 X53.905 Y147.933 E0.03293
G1 X53.238 Y148.273 E0.03293
G1 X52.500 Y148.390 E0.03293
G1 X51.761 Y148.273 E0.03293
G1 X51.095 Y147.933 E0.03293
G1 X50.567 Y147.405 E0.03293
G1 X50.227 Y146.739 E0.03293
G1 X50.110 Y146.000 E0.03293
G1 X50.227 Y145.261 E0.03293
G1 X50.567 Y144.595 E0.03293
G1 X51.095 Y144.067 E0.03293
G1 X51.762 Y143.727 E0.03293
G1 X52.435 Y143.620 E0.03001
G1 X52.500 Y144.057 F3600.000
G1 X53.100 Y144.152 E0.02677 F540.000
G1 X53.642 Y144.428 E0.02677
G1 X54.072 Y144.858 E0.02677
G1 X54.348 Y145.400 E0.02677
G1 X54.443 Y146.000 E0.02677
G1 X54.348 Y146.600 E0.02677
G1 X54.072 Y147.142 E0.02677
G1 X53.642 Y147.572 E0.02677
G1 X53.100 Y147.848 E0.02677
G1 X52.500 Y147.943 E0.02677
G1 X51.900 Y147.848 E0.02677
G1 X51.358 Y147.572 E0.02677
G1 X50.928 Y147.142 E0.02677
G1 X50.652 Y146.600 E0.02677
G1 X50.557 Y146.000 E0.02677
G1 X50.652 Y145.400 E0.02677
G1 X50.928 Y144.858 E0.02677
G1 X51.358 Y144.428 E0.02677
G1 X51.900 Y144.152 E0.02677
G1 X52.435 Y144.067 E0.02386
G1 X52.740 Y143.687 F3600.000
G1 X165.110 Y146.000 F3600.000
G1 X165.227 Y145.261 E0.03293 F540.000
G1 X165.567 Y144.595 E0.03293
G1 X166.095 Y144.067 E0.03293
G1 X166.637 Y143.791 E0.02677
G1 X166.762 Y143.727 E0.00616
G1 X167.500 Y143.610 E0.03293
G1 X168.238 Y143.727 E0.03293
G1 X168.905 Y144.067 E0.03293
G1 X169.335 Y144.496 E0.02677
G1 X169.433 Y144.595 E0.00616
G1 X169.773 Y145.262 E0.03293
G1 X169.890 Y146.000 E0.03293
G1 X169.773 Y146.739 E0.03293
G1 X169.433 Y147.405 E0.03293
G1 X168.905 Y147.933 E0.03293
G1 X168.238 Y148.273 E0.03293
G1 X167.500 Y148.390 E0.03293
G1 X166.762 Y148.273 E0.03293
G1 X166.095 Y147.933 E0.03293
G1 X165.567 Y147.405 E0.03293
G1 X165.227 Y146.738 E0.03293
G1 X165.120 Y146.065 E0.03001
G1 X165.557 Y146.000 F3600.000
G1 X165.652 Y145.400 E0.02677 F540.000
G1 X165.928 Y144.858 E0.02677
G1 X166.358 Y144.428 E0.02677
G1 X166.837 Y144.184 E0.02369
G1 X166.900 Y144.152 E0.00308
G1 X167.500 Y144.057 E0.02677
G1 X168.100 Y144.152 E0.02677
G1 X168.642 Y144.428 E0.02677
G1 X169.022 Y144.809 E0.02369
G1 X169.072 Y144.858 E0.00308
G1 X169.348 Y145.400 E0.02677
G1 X169.443 Y146.000 E0.02677
G1 X169.348 Y146.600 E0.02677
G1 X169.072 Y147.142 E0.02677
G1 X168.642 Y147.572 E0.02677
G1 X168.100 Y147.848 E0.02677
G1 X167.500 Y147.943 E0.02677
G1 X166.900 Y147.848 E0.02677
G1 X166.358 Y147.572 E0.02677
G1 X165.928 Y147.142 E0.02677
G1 X165.652 Y146.600 E0.02677
G1 X165.567 Y146.065 E0.02386
G1 X165.187 Y145.760 F3600.000
G1 F1800.000 E-1.00000
G1 X173.819 Y153.819 F3600.000
G1 E1.00000 F1800.000
G1 X26.181 Y153.819 E6.50198 F540.000
G1 X26.181 Y46.181 E4.74037
G1 X173.819 Y46.181 E6.50198
G1 X173.819 Y153.752 E4.73746
G1 X174.260 Y154.260 F3600.000
G1 X25.740 Y154.260 E6.54086 F378.000
G1 X25.740 Y45.740 E4.77925
G1 X174.260 Y45.740 E6.54086
G1 X174.260 Y154.194 E4.77633
G1 X173.878 Y154.039 F3600.000
G1 X168.603 Y143.578 F3600.000
G1 X71.504 Y46.479 E6.06122 F720.000
G1 X64.622 Y46.479 F3600.000
G1 X164.934 Y146.791 E6.26177 F720.000
G1 X164.816 Y146.048 E0.03322
G1 X65.248 Y46.479 E6.21537
G1 X65.873 Y46.479 E0.02761
G1 X164.889 Y145.495 E6.18084
G1 X165.024 Y145.004 E0.02245
G1 X66.499 Y46.479 E6.15023
G1 X67.124 Y46.479 E0.02761
G1 X165.235 Y144.590 E6.12436
G1 X165.506 Y144.235 E0.01970
G1 X67.750 Y46.479 E6.10220
G1 X68.376 Y46.479 E0.02761
G1 X165.818 Y143.922 E6.08268
G1 X166.201 Y143.679 E0.02000
G1 X69.001 Y46.479 E6.06748
G1 X69.627 Y46.479 E0.02761
G1 X166.615 Y143.467 E6.05429
G1 X167.139 Y143.366 E0.02356
G1 X70.252 Y46.479 E6.04794
G1 X70.878 Y46.479 E0.02761
G1 X167.746 Y143.348 E6.04681
G1 X155.398 Y153.521 F3600.000
G1 X55.062 Y53.185 E6.26323 F720.000
G1 X55.180 Y53.929 E0.03322
G1 X154.772 Y153.521 E6.21683
G1 X154.147 Y153.521 E0.02761
G1 X55.114 Y54.488 E6.18190
G1 X54.983 Y54.983 E0.02258
G1 X153.521 Y153.521 E6.15104
G1 X152.895 Y153.521 E0.02761
G1 X54.772 Y55.397 E6.12518
G1 X54.504 Y55.755 E0.01973
G1 X152.270 Y153.521 E6.10282
G1 X151.644 Y153.521 E0.02761
G1 X54.191 Y56.068 E6.08329
G1 X53.812 Y56.315 E0.01996
G1 X151.019 Y153.521 E6.06789
G1 X150.393 Y153.521 E0.02761
G1 X53.398 Y56.526 E6.05471
G1 X52.878 Y56.632 E0.02342
G1 X149.767 Y153.521 E6.04811
G1 X149.142 Y153.521 E0.02761
G1 X52.277 Y56.656 E6.04658
G1 X51.437 Y56.442 E0.03825
G1 X148.516 Y153.521 E6.05994
G1 X173.521 Y63.414 F3600.000
G1 X166.664 Y56.557 E0.42803 F720.000
G1 X167.409 Y56.677 E0.03332
G1 X173.521 Y62.789 E0.38151
G1 X173.521 Y62.163 E0.02761
G1 X167.974 Y56.616 E0.34625
G1 X168.472 Y56.488 E0.02268
G1 X173.521 Y61.538 E0.31518
G1 X173.521 Y60.912 E0.02761
G1 X168.886 Y56.277 E0.28931
G1 X169.247 Y56.012 E0.01975
G1 X173.521 Y60.286 E0.26679
G1 X173.521 Y59.661 E0.02761
G1 X169.560 Y55.700 E0.24726
G1 X169.809 Y55.323 E0.01992
G1 X173.521 Y59.035 E0.23169
G1 X173.521 Y58.410 E0.02761
G1 X170.020 Y54.909 E0.21851
G1 X170.129 Y54.392 E0.02330
G1 X173.521 Y57.784 E0.21171
G1 X173.521 Y57.158 E0.02761
G1 X170.159 Y53.797 E0.20984
G1 X169.959 Y52.971 E0.03750
G1 X173.521 Y56.533 E0.22232
G1 X173.521 Y55.907 E0.02761
G1 X164.093 Y46.479 E0.58852
G1 X163.467 Y46.479 E0.02761
G1 X168.529 Y51.541 E0.31595
G1 X167.703 Y51.341 E0.03749
G1 X162.842 Y46.479 E0.30347
G1 X162.216 Y46.479 E0.02761
G1 X167.108 Y51.371 E0.30534
G1 X166.591 Y51.480 E0.02331
G1 X161.590 Y46.479 E0.31215
G1 X160.965 Y46.479 E0.02761
G1 X166.177 Y51.691 E0.32533
G1 X165.800 Y51.940 E0.01992
G1 X160.339 Y46.479 E0.34090
G1 X159.714 Y46.479 E0.02761
G1 X165.488 Y52.253 E0.36042
G1 X165.223 Y52.614 E0.01975
G1 X159.088 Y46.479 E0.38295
G1 X158.462 Y46.479 E0.02761
G1 X165.012 Y53.028 E0.40882
G1 X164.884 Y53.526 E0.02268
G1 X157.837 Y46.479 E0.43988
G1 X157.211 Y46.479 E0.02761
G1 X164.823 Y54.091 E0.47515
G1 X164.943 Y54.836 E0.03332
G1 X156.586 Y46.479 E0.52167
G1 X155.960 Y46.479 E0.02761
G1 X173.521 Y64.040 E1.09619
G1 X173.521 Y64.666 E0.02761
G1 X155.334 Y46.479 E1.13525
G1 X154.709 Y46.479 E0.02761
G1 X173.521 Y65.291 E1.17430
G1 X173.521 Y65.917 E0.02761
G1 X154.083 Y46.479 E1.21335
G1 X153.458 Y46.479 E0.02761
G1 X173.521 Y66.542 E1.25240
G1 X173.521 Y67.168 E0.02761
G1 X152.832 Y46.479 E1.29145
G1 X152.206 Y46.479 E0.02761
G1 X173.521 Y67.794 E1.33051
G1 X173.521 Y68.419 E0.02761
G1 X151.581 Y46.479 E1.36956
G1 X150.955 Y46.479 E0.02761
G1 X173.521 Y69.045 E1.40861
G1 X173.521 Y69.670 E0.02761
G1 X150.330 Y46.479 E1.44766
G1 X149.704 Y46.479 E0.02761
G1 X173.521 Y70.296 E1.48671
G1 X173.521 Y70.922 E0.02761
G1 X149.078 Y46.479 E1.52577
G1 X148.453 Y46.479 E0.02761
G1 X173.521 Y71.547 E1.56482
G1 X173.521 Y72.173 E0.02761
G1 X147.827 Y46.479 E1.60387
G1 X147.202 Y46.479 E0.02761
G1 X173.521 Y72.798 E1.64292
G1 X173.521 Y73.424 E0.02761
G1 X146.576 Y46.479 E1.68197
G1 X145.950 Y46.479 E0.02761
G1 X173.521 Y74.050 E1.72103
G1 X173.521 Y74.675 E0.02761
G1 X145.325 Y46.479 E1.76008
G1 X144.699 Y46.479 E0.02761
G1 X173.521 Y75.301 E1.79913
G1 X173.521 Y75.926 E0.02761
G1 X144.074 Y46.479 E1.83818
G1 X143.448 Y46.479 E0.02761
G1 X173.521 Y76.552 E1.87723
G1 X173.521 Y77.178 E0.02761
G1 X142.822 Y46.479 E1.91629
G1 X142.197 Y46.479 E0.02761
G1 X173.521 Y77.803 E1.95534
G1 X173.521 Y78.429 E0.02761
G1 X141.571 Y46.479 E1.99439
G1 X140.946 Y46.479 E0.02761
G1 X173.521 Y79.054 E2.03344
G1 X173.521 Y79.680 E0.02761
G1 X140.320 Y46.479 E2.07249
G1 X139.694 Y46.479 E0.02761
G1 X173.521 Y80.306 E2.11155
G1 X173.521 Y80.931 E0.02761
G1 X139.069 Y46.479 E2.15060
G1 X138.443 Y46.479 E0.02761
G1 X173.521 Y81.557 E2.18965
G1 X173.521 Y82.182 E0.02761
G1 X137.818 Y46.479 E2.22870
G1 X137.192 Y46.479 E0.02761
G1 X173.521 Y82.808 E2.26775
G1 X173.521 Y83.434 E0.02761
G1 X136.566 Y46.479 E2.30681
G1 X135.941 Y46.479 E0.02761
G1 X173.521 Y84.059 E2.34586
G1 X173.521 Y84.685 E0.02761
G1 X135.315 Y46.479 E2.38491
G1 X134.690 Y46.479 E0.02761
G1 X173.521 Y85.310 E2.42396
G1 X173.521 Y85.936 E0.02761
G1 X134.064 Y46.479 E2.46301
G1 X133.438 Y46.479 E0.02761
G1 X173.521 Y86.562 E2.50207
G1 X173.521 Y87.187 E0.02761
G1 X132.813 Y46.479 E2.54112
G1 X132.187 Y46.479 E0.02761
G1 X173.521 Y87.813 E2.58017
G1 X173.521 Y88.439 E0.02761
G1 X131.561 Y46.479 E2.61922
G1 X130.936 Y46.479 E0.02761
G1 X173.521 Y89.064 E2.65827
G1 X173.521 Y89.690 E0.02761
G1 X130.310 Y46.479 E2.69733
G1 X129.685 Y46.479 E0.02761
G1 X173.521 Y90.315 E2.73638
G1 X173.521 Y90.941 E0.02761
G1 X129.059 Y46.479 E2.77543
G1 X128.433 Y46.479 E0.02761
G1 X173.521 Y91.567 E2.81448
G1 X173.521 Y92.192 E0.02761
G1 X127.808 Y46.479 E2.85354
G1 X127.182 Y46.479 E0.02761
G1 X173.521 Y92.818 E2.89259
G1 X173.521 Y93.443 E0.02761
G1 X126.557 Y46.479 E2.93164
G1 X125.931 Y46.479 E0.02761
G1 X173.521 Y94.069 E2.97069
G1 X173.521 Y94.695 E0.02761
G1 X125.305 Y46.479 E3.00974
G1 X124.680 Y46.479 E0.02761
G1 X173.521 Y95.320 E3.04880
G1 X173.521 Y95.946 E0.02761
G1 X124.054 Y46.479 E3.08785
G1 X123.429 Y46.479 E0.02761
G1 X173.521 Y96.571 E3.12690
G1 X173.521 Y97.197 E0.02761
G1 X122.803 Y46.479 E3.16595
G1 X122.177 Y46.479 E0.02761
G1 X173.521 Y97.823 E3.20500
G1 X173.521 Y98.448 E0.02761
G1 X121.552 Y46.479 E3.24406
G1 X120.926 Y46.479 E0.02761
G1 X173.521 Y99.074 E3.28311
G1 X173.521 Y99.699 E0.02761
G1 X120.301 Y46.479 E3.32216
G1 X119.675 Y46.479 E0.02761
G1 X173.521 Y100.325 E3.36121
G1 X173.521 Y100.951 E0.02761
G1 X119.049 Y46.479 E3.40026
G1 X118.424 Y46.479 E0.02761
G1 X173.521 Y101.576 E3.43932
G1 X173.521 Y102.202 E0.02761
G1 X117.798 Y46.479 E3.47837
G1 X117.173 Y46.479 E0.02761
G1 X173.521 Y102.827 E3.51742
G1 X173.521 Y103.453 E0.02761
G1 X116.547 Y46.479 E3.55647
G1 X115.921 Y46.479 E0.02761
G1 X173.521 Y104.079 E3.59552
G1 X173.521 Y104.704 E0.02761
G1 X115.296 Y46.479 E3.63458
G1 X114.670 Y46.479 E0.02761
G1 X173.521 Y105.330 E3.67363
G1 X173.521 Y105.955 E0.02761
G1 X114.045 Y46.479 E3.71268
G1 X113.419 Y46.479 E0.02761
G1 X173.521 Y106.581 E3.75173
G1 X173.521 Y107.207 E0.02761
G1 X112.793 Y46.479 E3.79078
G1 X112.168 Y46.479 E0.02761
G1 X173.521 Y107.832 E3.82984
G1 X173.521 Y108.458 E0.02761
G1 X111.542 Y46.479 E3.86889
G1 X110.917 Y46.479 E0.02761
G1 X173.521 Y109.083 E3.90794
G1 X173.521 Y109.709 E0.02761
G1 X110.291 Y46.479 E3.94699
G1 X109.665 Y46.479 E0.02761
G1 X173.521 Y110.335 E3.98604
G1 X173.521 Y110.960 E0.02761
G1 X109.040 Y46.479 E4.02510
G1 X108.414 Y46.479 E0.02761
G1 X173.521 Y111.586 E4.06415
G1 X173.521 Y112.211 E0.02761
G1 X107.789 Y46.479 E4.10320
G1 X107.163 Y46.479 E0.02761
G1 X173.521 Y112.837 E4.14225
G1 X173.521 Y113.463 E0.02761
G1 X106.537 Y46.479 E4.18130
G1 X105.912 Y46.479 E0.02761
G1 X173.521 Y114.088 E4.22036
G1 X173.521 Y114.714 E0.02761
G1 X105.286 Y46.479 E4.25941
G1 X104.661 Y46.479 E0.02761
G1 X173.521 Y115.339 E4.29846
G1 X173.521 Y115.965 E0.02761
G1 X104.035 Y46.479 E4.33751
G1 X103.409 Y46.479 E0.02761
G1 X173.521 Y116.591 E4.37656
G1 X173.521 Y117.216 E0.02761
G1 X102.784 Y46.479 E4.41562
G1 X102.158 Y46.479 E0.02761
G1 X173.521 Y117.842 E4.45467
G1 X173.521 Y118.467 E0.02761
G1 X101.533 Y46.479 E4.49372
G1 X100.907 Y46.479 E0.02761
G1 X173.521 Y119.093 E4.53277
G1 X173.521 Y119.719 E0.02761
G1 X100.281 Y46.479 E4.57182
G1 X99.656 Y46.479 E0.02761
G1 X173.521 Y120.344 E4.61088
G1 X173.521 Y120.970 E0.02761
G1 X99.030 Y46.479 E4.64993
G1 X98.405 Y46.479 E0.02761
G1 X173.521 Y121.595 E4.68898
G1 X173.521 Y122.221 E0.02761
G1 X97.779 Y46.479 E4.72803
G1 X97.153 Y46.479 E0.02761
G1 X173.521 Y122.847 E4.76708
