; generated by Slic3r 1.0.0RC2 on 2014-04-10 at 10:49:39

; layer_height = 0.24
; perimeters = 2
; top_solid_layers = 4
; bottom_solid_layers = 3
; fill_density = 0.4
; perimeter_speed = 30
; infill_speed = 40
; travel_speed = 60
; nozzle_diameter = 0.3
; filament_diameter = 1.75
; extrusion_multiplier = 1
; perimeters extrusion width = 0.30mm
; infill extrusion width = 0.32mm
; solid infill extrusion width = 0.32mm
; top infill extrusion width = 0.32mm
; first layer extrusion width = 0.48mm

G21 ; set units to millimeters
M107
M104 S205 ; set temperature
G28 ; home all axes
G1 Z5 F200 ; lift nozzle
M109 S205 ; wait for temperature to be reached
G90 ; use absolute coordinates
M83 ; use relative distances for extrusion
G1 F1800.000 E-1.00000
G1 Z0.240 F3600.000
G1 X14.530 Y31.050 F3600.000
G1 E1.00000 F1800.000
G1 X15.740 Y30.680 E0.05572 F540.000
G1 X17.000 Y30.560 E0.05574
G1 X183.000 Y30.560 E7.31068
G1 X184.260 Y30.680 E0.05574
G1 X185.470 Y31.050 E0.05572
G1 X186.580 Y31.640 E0.05536
G1 X187.550 Y32.450 E0.05565
G1 X188.360 Y33.420 E0.05565
G1 X188.950 Y34.530 E0.05536
G1 X189.320 Y35.740 E0.05572
G1 X189.440 Y37.000 E0.05574
G1 X189.440 Y163.000 E5.54907
G1 X189.320 Y164.260 E0.05574
G1 X188.950 Y165.470 E0.05572
G1 X188.360 Y166.580 E0.05536
G1 X187.550 Y167.550 E0.05565
G1 X186.580 Y168.360 E0.05565
G1 X185.470 Y168.950 E0.05536
G1 X184.260 Y169.320 E0.05572
G1 X183.000 Y169.440 E0.05574
G1 X17.000 Y169.440 E7.31068
G1 X15.740 Y169.320 E0.05574
G1 X14.530 Y168.950 E0.05572
G1 X13.420 Y168.360 E0.05536
G1 X12.450 Y167.550 E0.05565
G1 X11.640 Y166.580 E0.05565
G1 X11.050 Y165.470 E0.05536
G1 X10.680 Y164.260 E0.05572
G1 X10.560 Y163.000 E0.05574
G1 X10.560 Y37.000 E5.54907
G1 X10.680 Y35.740 E0.05574
G1 X11.050 Y34.530 E0.05572
G1 X11.640 Y33.420 E0.05536
G1 X12.450 Y32.450 E0.05565
G1 X13.420 Y31.640 E0.05565
G1 X14.472 Y31.081 E0.05245
G1 F1800.000 E-1.00000
G1 X50.567 Y52.595 F3600.000
G1 E1.00000 F1800.000
G1 X51.095 Y52.067 E0.03293 F540.000
G1 X51.761 Y51.727 E0.03293
G1 X52.500 Y51.610 E0.03293
G1 X53.238 Y51.727 E0.03293
G1 X53.905 Y52.067 E0.03293
G1 X54.433 Y52.595 E0.03293
G1 X54.773 Y53.262 E0.03293
G1 X54.890 Y54.000 E0.03293
G1 X54.773 Y54.739 E0.03293
G1 X54.433 Y55.405 E0.03293
G1 X53.905 Y55.933 E0.03293
G1 X53.239 Y56.273 E0.03293
G1 X52.500 Y56.390 E0.03293
G1 X51.762 Y56.273 E0.03293
G1 X51.095 Y55.933 E0.03293
G1 X50.567 Y55.405 E0.03293
G1 X50.227 Y54.738 E0.03293
G1 X50.110 Y54.000 E0.03293
G1 X50.227 Y53.261 E0.03293
G1 X50.537 Y52.654 E0.03001
G1 X50.928 Y52.858 F3600.000
G1 X51.358 Y52.428 E0.02677 F540.000
G1 X51.900 Y52.152 E0.02677
G1 X52.500 Y52.057 E0.02677
G1 X53.100 Y52.152 E0.02677
G1 X53.642 Y52.428 E0.02677
G1 X54.072 Y52.858 E0.02677
G1 X54.348 Y53.400 E0.02677
G1 X54.443 Y54.000 E0.02677
G1 X54.348 Y54.600 E0.02677
G1 X54.072 Y55.142 E0.02677
G1 X53.642 Y55.572 E0.02677
G1 X53.100 Y55.848 E0.02677
G1 X52.500 Y55.943 E0.02677
G1 X51.900 Y55.848 E0.02677
G1 X51.358 Y55.572 E0.02677
G1 X50.928 Y55.142 E0.02677
G1 X50.652 Y54.600 E0.02677
G1 X50.557 Y54.000 E0.02677
G1 X50.652 Y53.400 E0.02677
G1 X50.898 Y52.917 E0.02386
G1 X50.770 Y52.446 F3600.000
G1 F1800.000 E-1.00000
G1 X165.110 Y54.000 F3600.000
G1 E1.00000 F1800.000
G1 X165.227 Y53.262 E0.03293 F540.000
G1 X165.567 Y52.595 E0.03293
G1 X165.665 Y52.496 E0.00616
G1 X166.095 Y52.067 E0.02677
G1 X166.762 Y51.727 E0.03293
G1 X167.500 Y51.610 E0.03293
G1 X168.238 Y51.727 E0.03293
G1 X168.363 Y51.791 E0.00616
G1 X168.905 Y52.067 E0.02677
G1 X169.433 Y52.595 E0.03293
G1 X169.773 Y53.262 E0.03293
G1 X169.890 Y54.000 E0.03293
G1 X169.773 Y54.738 E0.03293
G1 X169.433 Y55.405 E0.03293
G1 X168.905 Y55.933 E0.03293
G1 X168.239 Y56.273 E0.03293
G1 X167.500 Y56.390 E0.03293
G1 X166.762 Y56.273 E0.03293
G1 X166.095 Y55.933 E0.03293
G1 X165.567 Y55.405 E0.03293
G1 X165.227 Y54.738 E0.03293
G1 X165.120 Y54.065 E0.03001
G1 X165.557 Y54.000 F3600.000
G1 X165.652 Y53.400 E0.02677 F540.000
G1 X165.928 Y52.858 E0.02677
G1 X165.978 Y52.809 E0.00308
G1 X166.358 Y52.428 E0.02369
G1 X166.900 Y52.152 E0.02677
G1 X167.500 Y52.057 E0.02677
G1 X168.100 Y52.152 E0.02677
G1 X168.163 Y52.184 E0.00308
G1 X168.642 Y52.428 E0.02369
G1 X169.072 Y52.858 E0.02677
G1 X169.348 Y53.400 E0.02677
G1 X169.443 Y54.000 E0.02677
G1 X169.348 Y54.600 E0.02677
G1 X169.072 Y55.142 E0.02677
G1 X168.642 Y55.572 E0.02677
G1 X168.100 Y55.848 E0.02677
G1 X167.500 Y55.943 E0.02677
G1 X166.900 Y55.848 E0.02677
G1 X166.358 Y55.572 E0.02677
G1 X165.928 Y55.142 E0.02677
G1 X165.652 Y54.600 E0.02677
G1 X165.567 Y54.065 E0.02386
G1 X165.187 Y53.760 F3600.000
G1 X54.433 Y144.595 F3600.000
G1 X54.773 Y145.262 E0.03293 F540.000
G1 X54.890 Y146.000 E0.03293
G1 X54.773 Y146.738 E0.03293
G1 X54.433 Y147.405 E0.03293
G1 X53.905 Y147.933 E0.03293
G1 X53.239 Y148.273 E0.03293
G1 X52.500 Y148.390 E0.03293
G1 X51.761 Y148.273 E0.03293
G1 X51.095 Y147.933 E0.03293
G1 X50.567 Y147.405 E0.03293
G1 X50.227 Y146.738 E0.03293
G1 X50.110 Y146.000 E0.03293
G1 X50.132 Y145.862 E0.00616
G1 X50.227 Y145.262 E0.02677
G1 X50.567 Y144.595 E0.03293
G1 X51.095 Y144.067 E0.03293
G1 X51.762 Y143.727 E0.03293
G1 X52.500 Y143.610 E0.03293
G1 X53.238 Y143.727 E0.03293
G1 X53.905 Y144.067 E0.03293
G1 X54.387 Y144.548 E0.03001
G1 X54.072 Y144.858 F3600.000
G1 X54.348 Y145.400 E0.02677 F540.000
G1 X54.443 Y146.000 E0.02677
G1 X54.348 Y146.600 E0.02677
G1 X54.072 Y147.142 E0.02677
G1 X53.642 Y147.572 E0.02677
G1 X53.100 Y147.848 E0.02677
G1 X52.500 Y147.943 E0.02677
G1 X51.900 Y147.848 E0.02677
G1 X51.358 Y147.572 E0.02677
G1 X50.928 Y147.142 E0.02677
G1 X50.652 Y146.600 E0.02677
G1 X50.557 Y146.000 E0.02677
G1 X50.568 Y145.931 E0.00308
G1 X50.652 Y145.400 E0.02369
G1 X50.928 Y144.858 E0.02677
G1 X51.358 Y144.428 E0.02677
G1 X51.900 Y144.152 E0.02677
G1 X52.500 Y144.057 E0.02677
G1 X53.100 Y144.152 E0.02677
G1 X53.642 Y144.428 E0.02677
G1 X54.025 Y144.811 E0.02386
G1 X54.513 Y144.835 F3600.000
G1 X165.110 Y146.000 F3600.000
G1 X165.227 Y145.262 E0.03293 F540.000
G1 X165.567 Y144.595 E0.03293
G1 X165.665 Y144.496 E0.00616
G1 X166.095 Y144.067 E0.02677
G1 X166.761 Y143.727 E0.03293
G1 X167.500 Y143.610 E0.03293
G1 X168.238 Y143.727 E0.03293
G1 X168.905 Y144.067 E0.03293
G1 X169.433 Y144.595 E0.03293
G1 X169.773 Y145.262 E0.03293
G1 X169.890 Y146.000 E0.03293
G1 X169.773 Y146.738 E0.03293
G1 X169.433 Y147.405 E0.03293
G1 X168.905 Y147.933 E0.03293
G1 X168.238 Y148.273 E0.03293
G1 X167.500 Y148.390 E0.03293
G1 X166.762 Y148.273 E0.03293
G1 X166.095 Y147.933 E0.03293
G1 X165.567 Y147.405 E0.03293
G1 X165.227 Y146.738 E0.03293
G1 X165.120 Y146.065 E0.03001
G1 X165.557 Y146.000 F3600.000
G1 X165.652 Y145.400 E0.02677 F540.000
G1 X165.928 Y144.858 E0.02677
G1 X165.978 Y144.809 E0.00308
G1 X166.358 Y144.428 E0.02369
G1 X166.900 Y144.152 E0.02677
G1 X167.500 Y144.057 E0.02677
G1 X168.100 Y144.152 E0.02677
G1 X168.642 Y144.428 E0.02677
G1 X169.072 Y144.858 E0.02677
G1 X169.348 Y145.400 E0.02677
G1 X169.443 Y146.000 E0.02677
G1 X169.348 Y146.600 E0.02677
G1 X169.072 Y147.142 E0.02677
G1 X168.642 Y147.572 E0.02677
G1 X168.100 Y147.848 E0.02677
G1 X167.500 Y147.943 E0.02677
G1 X166.900 Y147.848 E0.02677
G1 X166.358 Y147.572 E0.02677
G1 X165.928 Y147.142 E0.02677
G1 X165.652 Y146.600 E0.02677
G1 X165.567 Y146.065 E0.02386
G1 X165.187 Y145.760 F3600.000
G1 F1800.000 E-1.00000
G1 X182.319 Y162.319 F3600.000
G1 E1.00000 F1800.000
G1 X17.681 Y162.319 E7.25066 F540.000
G1 X17.681 Y37.681 E5.48906
G1 X182.319 Y37.681 E7.25066
G1 X182.319 Y162.252 E5.48614
G1 X182.760 Y162.760 F3600.000
G1 X17.240 Y162.760 E7.28954 F378.000
G1 X17.240 Y37.240 E5.52793
G1 X182.760 Y37.240 E7.28954
G1 X182.760 Y162.694 E5.52502
G1 X182.378 Y162.539 F3600.000
G1 X179.825 Y162.021 F3600.000
G1 X166.049 Y148.244 E0.85877 F720.000
G1 X167.050 Y148.620 F3600.000
G1 X180.450 Y162.021 E0.83532 F720.000
G1 X181.075 Y162.021 E0.02754
G1 X167.712 Y148.658 E0.83297
G1 X168.251 Y148.572 E0.02407
G1 X181.700 Y162.021 E0.83829
G1 X182.021 Y161.717 E0.01948
G1 X168.684 Y148.380 E0.83135
G1 X169.094 Y148.166 E0.02040
G1 X182.021 Y161.092 E0.80579
G1 X182.021 Y160.468 E0.02754
G1 X169.406 Y147.853 E0.78632
G1 X169.705 Y147.527 E0.01949
G1 X182.021 Y159.843 E0.76769
G1 X182.021 Y159.218 E0.02754
G1 X169.916 Y147.114 E0.75454
G1 X170.087 Y146.660 E0.02137
G1 X182.021 Y158.594 E0.74389
G1 X182.021 Y157.969 E0.02754
G1 X170.172 Y146.121 E0.73856
G1 X170.100 Y145.424 E0.03088
G1 X182.021 Y157.344 E0.74307
G1 X182.021 Y156.719 E0.02754
G1 X63.281 Y37.979 E7.40162
G1 X62.656 Y37.979 E0.02754
G1 X168.076 Y143.400 E6.57135
G1 X167.379 Y143.328 E0.03088
G1 X62.031 Y37.979 E6.56685
G1 X61.406 Y37.979 E0.02754
G1 X166.840 Y143.413 E6.57218
G1 X166.386 Y143.584 E0.02137
G1 X60.782 Y37.979 E6.58283
G1 X60.157 Y37.979 E0.02754
G1 X165.973 Y143.795 E6.59597
G1 X165.647 Y144.094 E0.01949
G1 X59.532 Y37.979 E6.61461
G1 X58.908 Y37.979 E0.02754
G1 X165.334 Y144.406 E6.63408
G1 X165.120 Y144.816 E0.02040
G1 X58.283 Y37.979 E6.65964
G1 X57.658 Y37.979 E0.02754
G1 X164.928 Y145.249 E6.68660
G1 X164.842 Y145.788 E0.02407
G1 X57.033 Y37.979 E6.72022
G1 X56.409 Y37.979 E0.02754
G1 X164.880 Y146.450 E6.76151
G1 X165.256 Y147.451 F3600.000
G1 X55.784 Y37.979 E6.82390 F720.000
G1 X55.159 Y37.979 E0.02754
G1 X179.201 Y162.021 E7.73208
G1 X178.576 Y162.021 E0.02754
G1 X54.535 Y37.979 E7.73208
G1 X53.910 Y37.979 E0.02754
G1 X177.951 Y162.021 E7.73208
G1 X177.327 Y162.021 E0.02754
G1 X53.285 Y37.979 E7.73208
G1 X52.660 Y37.979 E0.02754
G1 X176.702 Y162.021 E7.73208
G1 X176.077 Y162.021 E0.02754
G1 X52.036 Y37.979 E7.73208
G1 X51.411 Y37.979 E0.02754
G1 X175.452 Y162.021 E7.73208
G1 X174.828 Y162.021 E0.02754
G1 X50.786 Y37.979 E7.73208
G1 X50.161 Y37.979 E0.02754
G1 X174.203 Y162.021 E7.73208
G1 X173.578 Y162.021 E0.02754
G1 X49.537 Y37.979 E7.73208
G1 X48.912 Y37.979 E0.02754
G1 X172.954 Y162.021 E7.73208
G1 X172.329 Y162.021 E0.02754
G1 X48.287 Y37.979 E7.73208
G1 X47.663 Y37.979 E0.02754
G1 X171.704 Y162.021 E7.73208
G1 X171.079 Y162.021 E0.02754
G1 X47.038 Y37.979 E7.73208
G1 X46.413 Y37.979 E0.02754
G1 X170.455 Y162.021 E7.73208
G1 X169.830 Y162.021 E0.02754
G1 X45.788 Y37.979 E7.73208
G1 X45.164 Y37.979 E0.02754
G1 X169.205 Y162.021 E7.73208
G1 X168.580 Y162.021 E0.02754
G1 X44.539 Y37.979 E7.73208
G1 X43.914 Y37.979 E0.02754
G1 X167.956 Y162.021 E7.73208
G1 X167.331 Y162.021 E0.02754
G1 X43.290 Y37.979 E7.73208
G1 X42.665 Y37.979 E0.02754
G1 X166.706 Y162.021 E7.73208
G1 X166.082 Y162.021 E0.02754
G1 X42.040 Y37.979 E7.73208
G1 X41.415 Y37.979 E0.02754
G1 X165.457 Y162.021 E7.73208
G1 X157.336 Y162.021 F3600.000
G1 X51.913 Y56.599 E6.57145 F720.000
G1 X52.613 Y56.674 E0.03102
G1 X157.960 Y162.021 E6.56678
G1 X158.585 Y162.021 E0.02754
G1 X53.152 Y56.588 E6.57210
G1 X53.608 Y56.419 E0.02142
G1 X159.210 Y162.021 E6.58265
G1 X159.834 Y162.021 E0.02754
G1 X54.022 Y56.208 E6.59579
G1 X54.349 Y55.910 E0.01949
G1 X160.459 Y162.021 E6.61434
G1 X161.084 Y162.021 E0.02754
G1 X54.661 Y55.598 E6.63381
G1 X54.877 Y55.190 E0.02037
G1 X161.709 Y162.021 E6.65928
G1 X162.333 Y162.021 E0.02754
G1 X55.071 Y54.759 E6.68614
G1 X55.157 Y54.219 E0.02407
G1 X162.958 Y162.021 E6.71976
G1 X163.583 Y162.021 E0.02754
G1 X55.122 Y53.560 E6.76088
G1 X54.753 Y52.566 F3600.000
G1 X164.207 Y162.021 E6.82281 F720.000
G1 X164.832 Y162.021 E0.02754
G1 X40.791 Y37.979 E7.73208
G1 X40.166 Y37.979 E0.02754
G1 X53.934 Y51.747 E0.85821
G1 X52.940 Y51.378 F3600.000
G1 X39.541 Y37.979 E0.83522 F720.000
G1 X38.917 Y37.979 E0.02754
G1 X52.281 Y51.343 E0.83304
G1 X51.741 Y51.429 E0.02407
G1 X38.292 Y37.979 E0.83837
G1 X37.667 Y37.979 E0.02754
G1 X51.310 Y51.623 E0.85045
G1 X50.902 Y51.839 E0.02037
G1 X37.042 Y37.979 E0.86393
G1 X36.418 Y37.979 E0.02754
G1 X50.590 Y52.151 E0.88340
G1 X50.292 Y52.478 E0.01949
G1 X35.793 Y37.979 E0.90379
G1 X35.168 Y37.979 E0.02754
G1 X50.081 Y52.892 E0.92958
G1 X49.912 Y53.348 E0.02142
G1 X34.544 Y37.979 E0.95798
G1 X33.919 Y37.979 E0.02754
G1 X49.826 Y53.887 E0.99160
G1 X49.901 Y54.587 E0.03102
G1 X33.294 Y37.979 E1.03521
G1 X32.669 Y37.979 E0.02754
G1 X156.711 Y162.021 E7.73208
G1 X156.086 Y162.021 E0.02754
G1 X32.045 Y37.979 E7.73208
G1 X31.420 Y37.979 E0.02754
G1 X155.461 Y162.021 E7.73208
G1 X154.837 Y162.021 E0.02754
G1 X30.795 Y37.979 E7.73208
G1 X30.170 Y37.979 E0.02754
G1 X154.212 Y162.021 E7.73208
G1 X153.587 Y162.021 E0.02754
G1 X29.546 Y37.979 E7.73208
G1 X28.921 Y37.979 E0.02754
G1 X152.963 Y162.021 E7.73208
G1 X152.338 Y162.021 E0.02754
G1 X28.296 Y37.979 E7.73208
G1 X27.672 Y37.979 E0.02754
G1 X151.713 Y162.021 E7.73208
G1 X151.088 Y162.021 E0.02754
G1 X27.047 Y37.979 E7.73208
G1 X26.422 Y37.979 E0.02754
G1 X150.464 Y162.021 E7.73208
G1 X149.839 Y162.021 E0.02754
G1 X25.797 Y37.979 E7.73208
G1 X25.173 Y37.979 E0.02754
G1 X149.214 Y162.021 E7.73208
G1 X148.590 Y162.021 E0.02754
G1 X24.548 Y37.979 E7.73208
G1 X23.923 Y37.979 E0.02754
G1 X147.965 Y162.021 E7.73208
G1 X147.340 Y162.021 E0.02754
G1 X23.299 Y37.979 E7.73208
G1 X22.674 Y37.979 E0.02754
G1 X146.715 Y162.021 E7.73208
G1 X146.091 Y162.021 E0.02754
G1 X22.049 Y37.979 E7.73208
G1 X21.424 Y37.979 E0.02754
G1 X145.466 Y162.021 E7.73208
G1 X144.841 Y162.021 E0.02754
G1 X20.800 Y37.979 E7.73208
G1 X20.175 Y37.979 E0.02754
G1 X144.216 Y162.021 E7.73208
G1 X143.592 Y162.021 E0.02754
G1 X19.550 Y37.979 E7.73208
G1 X18.926 Y37.979 E0.02754
G1 X142.967 Y162.021 E7.73208
G1 X142.342 Y162.021 E0.02754
G1 X18.301 Y37.979 E7.73208
G1 X17.979 Y38.282 E0.01948
G1 X141.718 Y162.021 E7.71318
G1 X141.093 Y162.021 E0.02754
G1 X17.979 Y38.907 E7.67424
G1 X17.979 Y39.532 E0.02754
G1 X140.468 Y162.021 E7.63530
G1 X139.843 Y162.021 E0.02754
G1 X17.979 Y40.157 E7.59636
G1 X17.979 Y40.781 E0.02754
G1 X139.219 Y162.021 E7.55742
G1 X138.594 Y162.021 E0.02754
G1 X17.979 Y41.406 E7.51848
G1 X17.979 Y42.031 E0.02754
G1 X137.969 Y162.021 E7.47954
G1 X137.345 Y162.021 E0.02754
G1 X17.979 Y42.655 E7.44059
G1 X17.979 Y43.280 E0.02754
G1 X136.720 Y162.021 E7.40165
G1 X136.095 Y162.021 E0.02754
G1 X17.979 Y43.905 E7.36271
G1 X17.979 Y44.530 E0.02754
G1 X135.470 Y162.021 E7.32377
G1 X134.846 Y162.021 E0.02754
G1 X17.979 Y45.154 E7.28483
G1 X17.979 Y45.779 E0.02754
G1 X134.221 Y162.021 E7.24589
G1 X133.596 Y162.021 E0.02754
G1 X17.979 Y46.404 E7.20694
G1 X17.979 Y47.028 E0.02754
G1 X132.972 Y162.021 E7.16800
G1 X132.347 Y162.021 E0.02754
G1 X17.979 Y47.653 E7.12906
G1 X17.979 Y48.278 E0.02754
G1 X131.722 Y162.021 E7.09012
G1 X131.097 Y162.021 E0.02754
G1 X17.979 Y48.903 E7.05118
G1 X17.979 Y49.527 E0.02754
G1 X130.473 Y162.021 E7.01224
G1 X129.848 Y162.021 E0.02754
G1 X17.979 Y50.152 E6.97329
G1 X17.979 Y50.777 E0.02754
G1 X129.223 Y162.021 E6.93435
G1 X128.599 Y162.021 E0.02754
G1 X17.979 Y51.401 E6.89541
G1 X17.979 Y52.026 E0.02754
G1 X127.974 Y162.021 E6.85647
G1 X127.349 Y162.021 E0.02754
G1 X17.979 Y52.651 E6.81753
G1 X17.979 Y53.276 E0.02754
G1 X126.724 Y162.021 E6.77859
G1 X126.100 Y162.021 E0.02754
G1 X17.979 Y53.900 E6.73965
G1 X17.979 Y54.525 E0.02754
G1 X125.475 Y162.021 E6.70070
G1 X124.850 Y162.021 E0.02754
G1 X17.979 Y55.150 E6.66176
G1 X17.979 Y55.774 E0.02754
G1 X124.226 Y162.021 E6.62282
G1 X123.601 Y162.021 E0.02754
G1 X17.979 Y56.399 E6.58388
G1 X17.979 Y57.024 E0.02754
G1 X122.976 Y162.021 E6.54494
G1 X122.351 Y162.021 E0.02754
G1 X17.979 Y57.649 E6.50600
G1 X17.979 Y58.273 E0.02754
G1 X121.727 Y162.021 E6.46705
G1 X121.102 Y162.021 E0.02754
G1 X17.979 Y58.898 E6.42811
G1 X17.979 Y59.523 E0.02754
G1 X120.477 Y162.021 E6.38917
G1 X119.852 Y162.021 E0.02754
G1 X17.979 Y60.148 E6.35023
G1 X17.979 Y60.772 E0.02754
G1 X119.228 Y162.021 E6.31129
G1 X118.603 Y162.021 E0.02754
G1 X17.979 Y61.397 E6.27235
G1 X17.979 Y62.022 E0.02754
G1 X117.978 Y162.021 E6.23340
G1 X117.354 Y162.021 E0.02754
G1 X17.979 Y62.646 E6.19446
G1 X17.979 Y63.271 E0.02754
G1 X116.729 Y162.021 E6.15552
G1 X116.104 Y162.021 E0.02754
G1 X17.979 Y63.896 E6.11658
G1 X17.979 Y64.521 E0.02754
G1 X115.479 Y162.021 E6.07764
G1 X114.855 Y162.021 E0.02754
G1 X17.979 Y65.145 E6.03870
G1 X17.979 Y65.770 E0.02754
G1 X114.230 Y162.021 E5.99976
G1 X113.605 Y162.021 E0.02754
