; generated by Slic3r 1.0.0RC2 on 2014-07-01 at 14:23:49

; layer_height = 0.24
; perimeters = 2
; top_solid_layers = 4
; bottom_solid_layers = 3
; fill_density = 0.3
; perimeter_speed = 20
; infill_speed = 20
; travel_speed = 60
; nozzle_diameter = 0.5
; filament_diameter = 1.75
; extrusion_multiplier = 1
; perimeters extrusion width = 0.50mm
; infill extrusion width = 0.87mm
; solid infill extrusion width = 0.85mm
; top infill extrusion width = 0.85mm

G21 ; set units to millimeters
G90 ; use absolute coordinates
M83 ; use relative distances for extrusion
M140 S65; Set bed temperature
G28 ; Home all axes
G1 Z5 F200 ; lift nozzle
G1 X2 Y50 F2000; Go to wait for warm position
M116; Wait for all temperatures
G10 P1 S185 R0 ; Set extruder temperature
T1; Select extruder
M116; Wait for all temperatures
G1 F1800.000 E-4.00000
G1 Z0.240 F3600.000
G1 X81.095 Y63.890 F3600.000
G1 E4.00000 F1800.000
G1 X81.895 Y62.900 E0.06350 F600.000
G1 X82.885 Y62.100 E0.06350
G1 X84.005 Y61.490 E0.06363
G1 X85.225 Y61.120 E0.06360
G1 X86.495 Y61.000 E0.06364
G1 X146.995 Y61.000 E3.01836
G1 X148.765 Y61.250 E0.08918
G1 X150.395 Y61.960 E0.08870
G1 X156.905 Y65.960 E0.38120
G1 X157.955 Y66.770 E0.06616
G1 X158.825 Y67.770 E0.06613
G1 X159.475 Y68.920 E0.06590
G1 X159.875 Y70.180 E0.06595
G1 X160.005 Y71.500 E0.06617
G1 X160.005 Y132.500 E3.04330
G1 X159.885 Y133.770 E0.06364
G1 X159.515 Y134.990 E0.06360
G1 X158.905 Y136.110 E0.06363
G1 X158.105 Y137.100 E0.06350
G1 X157.115 Y137.900 E0.06350
G1 X155.995 Y138.510 E0.06363
G1 X154.775 Y138.880 E0.06360
G1 X153.505 Y139.000 E0.06364
G1 X109.505 Y139.000 E2.19517
G1 X108.245 Y138.880 E0.06315
G1 X107.025 Y138.510 E0.06360
G1 X105.905 Y137.910 E0.06339
G1 X104.915 Y137.110 E0.06350
G1 X104.115 Y136.130 E0.06311
G1 X103.505 Y135.010 E0.06363
G1 X80.495 Y80.010 E2.97442
G1 X80.125 Y78.780 E0.06408
G1 X79.995 Y77.500 E0.06419
G1 X79.995 Y67.500 E0.49890
G1 X80.115 Y66.230 E0.06364
G1 X80.485 Y65.010 E0.06360
G1 X81.059 Y63.956 E0.05989
G1 F1800.000 E-4.00000
G1 X113.358 Y86.940 F3600.000
G1 E4.00000 F1800.000
G1 X113.729 Y86.528 E0.02769 F600.000
G1 X114.178 Y86.201 E0.02768
G1 X114.685 Y85.976 E0.02768
G1 X115.228 Y85.860 E0.02768
G1 X115.783 Y85.860 E0.02768
G1 X116.325 Y85.976 E0.02768
G1 X116.832 Y86.201 E0.02768
G1 X117.281 Y86.528 E0.02768
G1 X117.652 Y86.940 E0.02769
G1 X117.930 Y87.420 E0.02768
G1 X118.101 Y87.948 E0.02768
G1 X118.159 Y88.500 E0.02768
G1 X118.101 Y89.052 E0.02768
G1 X117.780 Y90.039 E0.05179
G1 X117.927 Y90.136 E0.00875
G1 X118.916 Y89.282 E0.06520
G1 X119.692 Y88.667 E0.04944
G1 X124.431 Y95.189 E0.40220
G1 X124.835 Y94.895 E0.02494
G1 X120.097 Y88.373 E0.40219
G1 X120.922 Y87.824 E0.04944
G1 X121.630 Y87.396 E0.04127
G1 X122.355 Y86.997 E0.04127
G1 X123.096 Y86.630 E0.04127
G1 X123.852 Y86.293 E0.04127
G1 X124.621 Y85.988 E0.04127
G1 X125.402 Y85.716 E0.04127
G1 X126.194 Y85.477 E0.04127
G1 X126.995 Y85.272 E0.04127
G1 X127.804 Y85.100 E0.04128
G1 X128.620 Y84.962 E0.04127
G1 X129.441 Y84.858 E0.04127
G1 X130.265 Y84.789 E0.04127
G1 X131.092 Y84.754 E0.04127
G1 X131.919 Y84.754 E0.04127
G1 X132.745 Y84.789 E0.04127
G1 X133.569 Y84.858 E0.04127
G1 X134.390 Y84.962 E0.04127
G1 X135.206 Y85.100 E0.04127
G1 X136.015 Y85.272 E0.04127
G1 X136.755 Y85.462 E0.03810
G1 X137.608 Y85.716 E0.04443
G1 X138.389 Y85.988 E0.04127
G1 X139.159 Y86.293 E0.04127
G1 X139.914 Y86.630 E0.04127
G1 X140.655 Y86.997 E0.04127
G1 X141.380 Y87.396 E0.04127
G1 X142.088 Y87.824 E0.04127
G1 X142.913 Y88.373 E0.04944
G1 X137.845 Y95.348 E0.43017
G1 X138.250 Y95.642 E0.02494
G1 X143.318 Y88.667 E0.43017
G1 X144.094 Y89.282 E0.04944
G1 X145.084 Y90.136 E0.06520
G1 X145.230 Y90.039 E0.00875
G1 X144.909 Y89.052 E0.05179
G1 X144.851 Y88.500 E0.02768
G1 X144.909 Y87.948 E0.02768
G1 X145.080 Y87.420 E0.02769
G1 X145.358 Y86.940 E0.02768
G1 X145.729 Y86.528 E0.02768
G1 X146.178 Y86.202 E0.02768
G1 X146.685 Y85.976 E0.02768
G1 X147.228 Y85.860 E0.02768
G1 X147.783 Y85.860 E0.02768
G1 X148.325 Y85.976 E0.02768
G1 X148.832 Y86.202 E0.02768
G1 X149.281 Y86.528 E0.02768
G1 X149.652 Y86.940 E0.02769
G1 X149.930 Y87.420 E0.02768
G1 X150.101 Y87.948 E0.02768
G1 X150.159 Y88.500 E0.02768
G1 X150.101 Y89.052 E0.02768
G1 X149.930 Y89.580 E0.02768
G1 X149.652 Y90.060 E0.02768
G1 X149.281 Y90.472 E0.02769
G1 X148.832 Y90.798 E0.02768
G1 X148.325 Y91.024 E0.02768
G1 X147.783 Y91.140 E0.02768
G1 X147.228 Y91.140 E0.02768
G1 X146.685 Y91.024 E0.02768
G1 X145.965 Y90.703 E0.03934
G1 X145.826 Y90.895 E0.01180
G1 X146.456 Y91.595 E0.04699
G1 X146.983 Y92.232 E0.04127
G1 X147.483 Y92.891 E0.04127
G1 X147.955 Y93.570 E0.04127
G1 X148.399 Y94.269 E0.04127
G1 X148.812 Y94.985 E0.04127
G1 X149.196 Y95.718 E0.04127
G1 X149.548 Y96.467 E0.04127
G1 X149.868 Y97.229 E0.04127
G1 X150.157 Y98.005 E0.04127
G1 X150.412 Y98.792 E0.04127
G1 X150.635 Y99.588 E0.04127
G1 X150.824 Y100.394 E0.04127
G1 X150.979 Y101.206 E0.04127
G1 X151.100 Y102.025 E0.04127
G1 X151.186 Y102.847 E0.04127
G1 X151.238 Y103.673 E0.04127
G1 X151.255 Y104.500 E0.04127
G1 X151.238 Y105.327 E0.04127
G1 X151.186 Y106.153 E0.04127
G1 X151.100 Y106.975 E0.04127
G1 X150.979 Y107.794 E0.04127
G1 X150.824 Y108.606 E0.04127
G1 X150.635 Y109.412 E0.04127
G1 X150.301 Y110.607 E0.06191
G1 X149.868 Y111.770 E0.06193
G1 X149.548 Y112.533 E0.04128
G1 X149.196 Y113.282 E0.04127
G1 X148.812 Y114.015 E0.04127
G1 X148.399 Y114.731 E0.04127
G1 X147.955 Y115.430 E0.04127
G1 X147.483 Y116.109 E0.04127
G1 X146.983 Y116.768 E0.04127
G1 X146.456 Y117.405 E0.04127
G1 X145.826 Y118.105 E0.04699
G1 X145.965 Y118.297 E0.01180
G1 X146.685 Y117.976 E0.03934
G1 X147.228 Y117.860 E0.02768
G1 X147.783 Y117.860 E0.02768
G1 X148.325 Y117.976 E0.02768
G1 X148.832 Y118.202 E0.02768
G1 X149.281 Y118.528 E0.02768
G1 X149.652 Y118.940 E0.02769
G1 X149.930 Y119.420 E0.02768
G1 X150.101 Y119.948 E0.02768
G1 X150.159 Y120.500 E0.02768
G1 X150.101 Y121.052 E0.02768
G1 X149.930 Y121.580 E0.02768
G1 X149.652 Y122.060 E0.02768
G1 X149.281 Y122.472 E0.02769
G1 X148.832 Y122.798 E0.02768
G1 X148.325 Y123.024 E0.02768
G1 X147.783 Y123.140 E0.02768
G1 X147.228 Y123.140 E0.02768
G1 X146.685 Y123.024 E0.02768
G1 X146.178 Y122.798 E0.02768
G1 X145.729 Y122.472 E0.02768
G1 X145.358 Y122.060 E0.02768
G1 X145.080 Y121.580 E0.02768
G1 X144.909 Y121.052 E0.02769
G1 X144.851 Y120.500 E0.02768
G1 X144.909 Y119.948 E0.02768
G1 X145.230 Y118.961 E0.05179
G1 X145.084 Y118.864 E0.00875
G1 X144.094 Y119.718 E0.06521
G1 X143.446 Y120.232 E0.04127
G1 X142.777 Y120.718 E0.04127
G1 X142.088 Y121.176 E0.04127
G1 X141.380 Y121.604 E0.04127
G1 X140.655 Y122.003 E0.04127
G1 X139.914 Y122.370 E0.04127
G1 X139.159 Y122.707 E0.04127
G1 X138.389 Y123.012 E0.04127
G1 X137.608 Y123.284 E0.04127
G1 X136.816 Y123.523 E0.04127
G1 X136.015 Y123.728 E0.04127
G1 X135.206 Y123.900 E0.04127
G1 X134.390 Y124.038 E0.04127
G1 X133.569 Y124.142 E0.04127
G1 X132.745 Y124.211 E0.04127
G1 X131.755 Y124.253 E0.04944
G1 X131.755 Y112.831 E0.56984
G1 X134.053 Y112.342 E0.11722
G1 X135.628 Y111.641 E0.08600
G1 X137.023 Y110.628 E0.08600
G1 X138.176 Y109.347 E0.08600
G1 X139.351 Y107.312 E0.11721
G1 X143.372 Y108.619 E0.21096
G1 X143.527 Y108.143 E0.02494
G1 X139.505 Y106.837 E0.21096
G1 X139.751 Y104.500 E0.11722
G1 X139.571 Y102.786 E0.08600
G1 X139.038 Y101.146 E0.08600
G1 X138.176 Y99.653 E0.08600
G1 X136.604 Y97.907 E0.11722
G1 X136.667 Y97.821 E0.00531
G1 X134.053 Y96.658 E0.14271
G1 X132.367 Y96.299 E0.08600
G1 X130.643 Y96.299 E0.08601
G1 X128.957 Y96.658 E0.08600
G1 X126.344 Y97.821 E0.14271
G1 X126.406 Y97.907 E0.00531
G1 X124.834 Y99.653 E0.11722
G1 X123.972 Y101.146 E0.08600
G1 X123.439 Y102.786 E0.08600
G1 X123.259 Y104.500 E0.08600
G1 X123.505 Y106.837 E0.11722
G1 X117.580 Y108.762 E0.31080
G1 X117.735 Y109.237 E0.02494
G1 X123.659 Y107.312 E0.31080
G1 X124.834 Y109.347 E0.11721
G1 X125.987 Y110.628 E0.08600
G1 X127.382 Y111.641 E0.08600
G1 X128.957 Y112.342 E0.08600
G1 X131.255 Y112.831 E0.11722
G1 X131.255 Y124.253 E0.56984
G1 X131.069 Y124.245 E0.00931
G1 X131.069 Y124.279 E0.00168
G1 X129.441 Y124.142 E0.08150
G1 X128.620 Y124.038 E0.04127
G1 X127.804 Y123.900 E0.04127
G1 X126.995 Y123.728 E0.04128
G1 X126.194 Y123.523 E0.04127
G1 X125.402 Y123.284 E0.04127
G1 X124.621 Y123.012 E0.04127
G1 X123.852 Y122.707 E0.04127
G1 X123.096 Y122.370 E0.04127
G1 X122.355 Y122.003 E0.04127
G1 X121.630 Y121.604 E0.04127
G1 X120.922 Y121.176 E0.04127
G1 X120.233 Y120.718 E0.04127
G1 X119.564 Y120.232 E0.04127
G1 X118.916 Y119.718 E0.04127
G1 X117.927 Y118.864 E0.06520
G1 X117.780 Y118.961 E0.00875
G1 X118.101 Y119.948 E0.05179
G1 X118.159 Y120.500 E0.02768
G1 X118.101 Y121.052 E0.02768
G1 X117.930 Y121.580 E0.02768
G1 X117.652 Y122.060 E0.02768
G1 X117.281 Y122.472 E0.02769
G1 X116.832 Y122.799 E0.02768
G1 X116.325 Y123.024 E0.02768
G1 X115.783 Y123.140 E0.02768
G1 X115.228 Y123.140 E0.02768
G1 X114.685 Y123.024 E0.02768
G1 X114.178 Y122.798 E0.02768
G1 X113.729 Y122.472 E0.02768
G1 X113.358 Y122.060 E0.02769
G1 X113.080 Y121.580 E0.02768
G1 X112.909 Y121.052 E0.02768
G1 X112.898 Y120.950 E0.00512
G1 X112.851 Y120.500 E0.02256
G1 X112.909 Y119.948 E0.02768
G1 X113.080 Y119.420 E0.02768
G1 X113.358 Y118.940 E0.02768
G1 X113.729 Y118.528 E0.02769
G1 X114.178 Y118.201 E0.02768
G1 X114.685 Y117.976 E0.02768
G1 X115.228 Y117.860 E0.02768
G1 X115.783 Y117.860 E0.02768
G1 X116.325 Y117.976 E0.02768
G1 X117.045 Y118.297 E0.03933
G1 X117.185 Y118.105 E0.01180
G1 X116.554 Y117.405 E0.04699
G1 X116.027 Y116.768 E0.04127
G1 X115.491 Y116.057 E0.04443
G1 X115.055 Y115.430 E0.03810
G1 X114.612 Y114.731 E0.04127
G1 X114.198 Y114.015 E0.04127
G1 X113.815 Y113.282 E0.04127
G1 X113.462 Y112.533 E0.04127
G1 X113.142 Y111.771 E0.04127
G1 X112.709 Y110.606 E0.06200
G1 X112.375 Y109.412 E0.06185
G1 X112.187 Y108.606 E0.04127
G1 X112.029 Y107.774 E0.04228
G1 X111.911 Y106.975 E0.04025
G1 X111.824 Y106.153 E0.04127
G1 X111.772 Y105.327 E0.04127
G1 X111.755 Y104.500 E0.04127
G1 X111.772 Y103.673 E0.04127
G1 X111.820 Y102.911 E0.03811
G1 X111.911 Y102.025 E0.04443
G1 X112.032 Y101.206 E0.04127
G1 X112.187 Y100.394 E0.04127
G1 X112.375 Y99.588 E0.04127
G1 X112.598 Y98.792 E0.04127
G1 X112.854 Y98.005 E0.04127
G1 X113.142 Y97.229 E0.04127
G1 X113.462 Y96.467 E0.04127
G1 X113.815 Y95.718 E0.04127
G1 X114.198 Y94.985 E0.04127
G1 X114.612 Y94.269 E0.04127
G1 X115.055 Y93.570 E0.04127
G1 X115.527 Y92.891 E0.04127
G1 X116.027 Y92.232 E0.04127
G1 X116.554 Y91.595 E0.04127
G1 X117.185 Y90.895 E0.04699
G1 X117.045 Y90.703 E0.01180
G1 X116.325 Y91.024 E0.03933
G1 X115.783 Y91.140 E0.02768
G1 X115.228 Y91.140 E0.02768
G1 X114.685 Y91.024 E0.02768
G1 X114.178 Y90.798 E0.02768
G1 X113.729 Y90.472 E0.02768
G1 X113.358 Y90.060 E0.02769
G1 X113.080 Y89.580 E0.02768
G1 X112.909 Y89.052 E0.02768
G1 X112.851 Y88.500 E0.02768
G1 X112.909 Y87.948 E0.02768
G1 X113.080 Y87.420 E0.02768
G1 X113.320 Y87.005 E0.02394
G1 X113.765 Y87.235 F3600.000
G1 X114.066 Y86.901 E0.02244 F600.000
G1 X114.429 Y86.637 E0.02244
G1 X114.840 Y86.454 E0.02244
G1 X115.280 Y86.360 E0.02244
G1 X115.730 Y86.360 E0.02244
G1 X116.170 Y86.454 E0.02244
G1 X116.581 Y86.637 E0.02244
G1 X116.945 Y86.901 E0.02244
G1 X117.246 Y87.235 E0.02244
G1 X117.470 Y87.625 E0.02244
G1 X117.609 Y88.053 E0.02244
G1 X117.656 Y88.500 E0.02244
G1 X117.609 Y88.947 E0.02244
G1 X117.470 Y89.375 E0.02244
G1 X117.246 Y89.765 E0.02244
G1 X116.945 Y90.099 E0.02244
G1 X116.581 Y90.363 E0.02244
G1 X116.170 Y90.546 E0.02244
G1 X115.730 Y90.640 E0.02244
G1 X115.280 Y90.640 E0.02244
G1 X114.840 Y90.546 E0.02244
G1 X114.429 Y90.363 E0.02244
G1 X114.066 Y90.099 E0.02244
G1 X113.765 Y89.765 E0.02244
G1 X113.540 Y89.375 E0.02244
G1 X113.401 Y88.947 E0.02244
G1 X113.354 Y88.500 E0.02244
G1 X113.401 Y88.053 E0.02244
G1 X113.540 Y87.625 E0.02244
G1 X113.727 Y87.300 E0.01870
G1 X113.596 Y86.818 F3600.000
G1 F1800.000 E-4.00000
G1 X117.999 Y90.784 F3600.000
G1 E4.00000 F1800.000
G1 X118.624 Y90.194 E0.04287 F420.000
G1 X119.594 Y89.382 E0.06312
G1 X125.764 Y97.874 E0.52363
G1 X124.427 Y99.358 E0.09964
G1 X123.513 Y100.942 E0.09125
G1 X122.948 Y102.681 E0.09125
G1 X122.756 Y104.500 E0.09125
G1 X122.965 Y106.486 E0.09964
G1 X112.983 Y109.730 E0.52363
G1 X112.676 Y108.502 E0.06312
G1 X112.525 Y107.710 E0.04022
G1 X112.407 Y106.913 E0.04023
G1 X112.319 Y106.058 E0.04287
G1 X112.272 Y105.306 E0.03758
G1 X112.255 Y104.500 E0.04022
G1 X112.272 Y103.694 E0.04022
G1 X112.319 Y102.942 E0.03758
G1 X112.407 Y102.087 E0.04287
G1 X112.525 Y101.290 E0.04023
G1 X112.676 Y100.498 E0.04022
G1 X112.860 Y99.713 E0.04023
G1 X113.077 Y98.936 E0.04023
G1 X113.309 Y98.220 E0.03758
G1 X113.607 Y97.414 E0.04287
G1 X113.919 Y96.670 E0.04022
G1 X114.263 Y95.941 E0.04023
G1 X114.636 Y95.226 E0.04022
G1 X115.039 Y94.528 E0.04023
G1 X115.471 Y93.847 E0.04022
G1 X115.931 Y93.185 E0.04023
G1 X116.419 Y92.543 E0.04023
G1 X116.933 Y91.922 E0.04023
G1 X117.472 Y91.322 E0.04023
G1 X117.947 Y90.838 E0.03384
G1 X117.878 Y90.299 F3600.000
G1 X120.808 Y88.501 F3600.000
G1 X121.880 Y87.829 E0.06312 F420.000
G1 X122.587 Y87.440 E0.04023
G1 X123.309 Y87.082 E0.04022
G1 X124.045 Y86.754 E0.04022
G1 X124.795 Y86.457 E0.04023
G1 X125.557 Y86.192 E0.04023
G1 X126.328 Y85.959 E0.04022
G1 X127.109 Y85.759 E0.04023
G1 X127.898 Y85.591 E0.04023
G1 X128.693 Y85.456 E0.04022
G1 X129.493 Y85.355 E0.04023
G1 X130.296 Y85.288 E0.04022
G1 X131.102 Y85.254 E0.04023
G1 X131.908 Y85.254 E0.04022
G1 X132.714 Y85.288 E0.04023
G1 X133.517 Y85.355 E0.04022
G1 X134.317 Y85.456 E0.04023
G1 X135.112 Y85.591 E0.04022
G1 X135.901 Y85.759 E0.04023
G1 X136.682 Y85.959 E0.04023
G1 X137.454 Y86.192 E0.04022
G1 X138.215 Y86.457 E0.04023
G1 X138.965 Y86.754 E0.04023
G1 X139.701 Y87.082 E0.04022
G1 X140.424 Y87.440 E0.04022
G1 X141.130 Y87.829 E0.04023
G1 X142.202 Y88.501 E0.06312
G1 X136.033 Y96.992 E0.52363
G1 X134.209 Y96.180 E0.09963
G1 X132.420 Y95.799 E0.09125
G1 X130.591 Y95.799 E0.09125
G1 X128.802 Y96.180 E0.09125
G1 X126.977 Y96.992 E0.09963
G1 X120.852 Y88.561 E0.51988
G1 X120.533 Y88.083 F3600.000
G1 F1800.000 E-4.00000
G1 X145.354 Y88.500 F3600.000
G1 E4.00000 F1800.000
G1 X145.401 Y88.053 E0.02244 F600.000
G1 X145.540 Y87.625 E0.02244
G1 X145.765 Y87.235 E0.02244
G1 X146.066 Y86.901 E0.02244
G1 X146.429 Y86.637 E0.02243
G1 X146.840 Y86.454 E0.02244
G1 X147.280 Y86.360 E0.02244
G1 X147.730 Y86.360 E0.02244
G1 X148.170 Y86.454 E0.02244
G1 X148.581 Y86.637 E0.02244
G1 X148.945 Y86.901 E0.02243
G1 X149.246 Y87.235 E0.02244
G1 X149.470 Y87.625 E0.02244
G1 X149.609 Y88.053 E0.02244
G1 X149.656 Y88.500 E0.02244
G1 X149.609 Y88.947 E0.02244
G1 X149.470 Y89.375 E0.02244
G1 X149.246 Y89.765 E0.02244
G1 X148.945 Y90.099 E0.02244
G1 X148.581 Y90.363 E0.02243
G1 X148.170 Y90.546 E0.02244
G1 X147.730 Y90.640 E0.02244
G1 X147.280 Y90.640 E0.02244
G1 X146.840 Y90.546 E0.02244
G1 X146.429 Y90.363 E0.02244
G1 X146.066 Y90.099 E0.02243
G1 X145.765 Y89.765 E0.02244
G1 X145.540 Y89.375 E0.02244
G1 X145.401 Y88.947 E0.02244
G1 X145.362 Y88.575 E0.01870
G1 X144.972 Y88.262 F3600.000
G1 X143.776 Y89.668 F3600.000
G1 X144.386 Y90.194 E0.04023 F420.000
G1 X144.974 Y90.746 E0.04023
G1 X145.538 Y91.322 E0.04023
G1 X146.077 Y91.922 E0.04023
G1 X146.591 Y92.543 E0.04023
G1 X147.079 Y93.185 E0.04022
G1 X147.539 Y93.847 E0.04023
G1 X147.971 Y94.528 E0.04022
G1 X148.374 Y95.226 E0.04023
G1 X148.748 Y95.941 E0.04022
G1 X149.091 Y96.670 E0.04023
G1 X149.403 Y97.414 E0.04022
G1 X149.684 Y98.169 E0.04023
G1 X149.934 Y98.936 E0.04023
G1 X150.150 Y99.713 E0.04023
G1 X150.334 Y100.498 E0.04023
G1 X150.486 Y101.290 E0.04022
G1 X150.603 Y102.087 E0.04023
G1 X150.688 Y102.889 E0.04022
G1 X150.738 Y103.694 E0.04023
G1 X150.755 Y104.500 E0.04022
G1 X150.738 Y105.306 E0.04022
G1 X150.688 Y106.111 E0.04023
G1 X150.603 Y106.913 E0.04022
G1 X150.486 Y107.710 E0.04023
G1 X150.334 Y108.502 E0.04022
G1 X150.027 Y109.730 E0.06312
G1 X140.045 Y106.486 E0.52362
G1 X140.254 Y104.500 E0.09964
G1 X140.063 Y102.681 E0.09125
G1 X139.497 Y100.942 E0.09125
G1 X138.583 Y99.358 E0.09125
G1 X137.247 Y97.874 E0.09964
G1 X143.416 Y89.382 E0.52363
G1 X143.717 Y89.621 E0.01916
