; generated by Slic3r 1.0.0RC2 on 2014-01-23 at 09:57:09

; layer_height = 0.24
; perimeters = 2
; top_solid_layers = 4
; bottom_solid_layers = 3
; fill_density = 0.4
; perimeter_speed = 30
; infill_speed = 40
; travel_speed = 60
; nozzle_diameter = 0.3
; filament_diameter = 1.75
; extrusion_multiplier = 1
; perimeters extrusion width = 0.30mm
; infill extrusion width = 0.32mm
; solid infill extrusion width = 0.32mm
; top infill extrusion width = 0.32mm
; first layer extrusion width = 0.48mm

G21 ; set units to millimeters
M107
M104 S205 ; set temperature
G28 ; home all axes
G1 Z5 F200 ; lift nozzle
M109 S205 ; wait for temperature to be reached
G90 ; use absolute coordinates
M83 ; use relative distances for extrusion
G1 F1800.000 E-1.00000
G1 Z0.240 F3600.000
G1 X75.950 Y72.950 F3600.000
G1 E1.00000 F1800.000
G1 X76.920 Y72.140 E0.05565 F540.000
G1 X78.030 Y71.550 E0.05536
G1 X79.240 Y71.180 E0.05572
G1 X80.500 Y71.060 E0.05574
G1 X106.200 Y71.060 E1.13183
G1 X107.750 Y71.250 E0.06877
G1 X109.200 Y71.800 E0.06830
G1 X122.500 Y78.800 E0.66191
G1 X123.660 Y79.580 E0.06156
G1 X124.620 Y80.590 E0.06137
G1 X125.340 Y81.790 E0.06163
G1 X125.790 Y83.110 E0.06142
G1 X125.940 Y84.500 E0.06157
G1 X125.940 Y115.150 E1.34983
G1 X125.800 Y116.510 E0.06021
G1 X125.360 Y117.810 E0.06044
G1 X124.670 Y118.990 E0.06020
G1 X123.740 Y120.000 E0.06047
G1 X122.620 Y120.790 E0.06036
G1 X109.320 Y128.140 E0.66923
G1 X107.810 Y128.740 E0.07156
G1 X106.200 Y128.940 E0.07145
G1 X80.500 Y128.940 E1.13183
G1 X79.240 Y128.820 E0.05574
G1 X78.030 Y128.450 E0.05572
G1 X76.920 Y127.860 E0.05536
G1 X75.950 Y127.050 E0.05565
G1 X75.140 Y126.080 E0.05565
G1 X74.550 Y124.970 E0.05536
G1 X74.180 Y123.760 E0.05572
G1 X74.060 Y122.500 E0.05574
G1 X74.060 Y77.500 E1.98181
G1 X74.180 Y76.240 E0.05574
G1 X74.550 Y75.030 E0.05572
G1 X75.140 Y73.920 E0.05536
G1 X75.908 Y73.001 E0.05274
G1 F1800.000 E-1.00000
G1 X81.760 Y78.760 F3600.000
G1 E1.00000 F1800.000
G1 X86.740 Y78.760 E0.21932 F540.000
G1 X86.740 Y83.740 E0.21932
G1 X81.760 Y83.740 E0.21932
G1 X81.760 Y78.826 E0.21640
G1 X81.760 Y78.319 F3600.000
G1 F1800.000 E-1.00000
G1 X98.177 Y82.511 F3600.000
G1 E1.00000 F1800.000
G1 X98.517 Y81.845 E0.03293 F540.000
G1 X99.045 Y81.317 E0.03293
G1 X99.596 Y81.036 E0.02724
G1 X99.712 Y80.977 E0.00569
G1 X100.450 Y80.860 E0.03293
G1 X101.188 Y80.977 E0.03293
G1 X101.855 Y81.317 E0.03293
G1 X102.383 Y81.845 E0.03293
G1 X102.723 Y82.511 E0.03293
G1 X102.840 Y83.250 E0.03293
G1 X102.723 Y83.989 E0.03293
G1 X102.383 Y84.655 E0.03293
G1 X101.855 Y85.183 E0.03293
G1 X101.188 Y85.523 E0.03293
G1 X100.450 Y85.640 E0.03293
G1 X99.712 Y85.523 E0.03293
G1 X99.045 Y85.183 E0.03293
G1 X98.517 Y84.655 E0.03293
G1 X98.177 Y83.989 E0.03293
G1 X98.060 Y83.250 E0.03293
G1 X98.167 Y82.577 E0.03002
G1 X98.602 Y82.650 F3600.000
G1 X98.878 Y82.108 E0.02677 F540.000
G1 X99.308 Y81.678 E0.02677
G1 X99.797 Y81.429 E0.02416
G1 X99.850 Y81.402 E0.00261
G1 X100.450 Y81.307 E0.02677
G1 X101.050 Y81.402 E0.02677
G1 X101.592 Y81.678 E0.02677
G1 X102.022 Y82.108 E0.02677
G1 X102.298 Y82.650 E0.02677
G1 X102.393 Y83.250 E0.02677
G1 X102.298 Y83.850 E0.02677
G1 X102.022 Y84.392 E0.02677
G1 X101.592 Y84.822 E0.02677
G1 X101.050 Y85.098 E0.02677
G1 X100.450 Y85.193 E0.02677
G1 X99.850 Y85.098 E0.02677
G1 X99.308 Y84.822 E0.02677
G1 X98.878 Y84.392 E0.02677
G1 X98.602 Y83.850 E0.02677
G1 X98.507 Y83.250 E0.02677
G1 X98.592 Y82.715 E0.02386
G1 X98.324 Y82.307 F3600.000
G1 X86.989 Y114.477 F3600.000
G1 X87.655 Y114.817 E0.03293 F540.000
G1 X88.183 Y115.345 E0.03293
G1 X88.523 Y116.012 E0.03293
G1 X88.640 Y116.750 E0.03293
G1 X88.523 Y117.489 E0.03293
G1 X88.183 Y118.155 E0.03293
G1 X87.655 Y118.683 E0.03293
G1 X86.988 Y119.023 E0.03293
G1 X86.250 Y119.140 E0.03293
G1 X85.511 Y119.023 E0.03293
G1 X84.845 Y118.683 E0.03293
G1 X84.317 Y118.155 E0.03293
G1 X83.977 Y117.488 E0.03293
G1 X83.860 Y116.750 E0.03293
G1 X83.977 Y116.011 E0.03293
G1 X84.317 Y115.345 E0.03293
G1 X84.845 Y114.817 E0.03293
G1 X85.511 Y114.477 E0.03293
G1 X86.250 Y114.360 E0.03293
G1 X86.923 Y114.467 E0.03001
G1 X86.850 Y114.902 F3600.000
G1 X87.392 Y115.178 E0.02677 F540.000
G1 X87.822 Y115.608 E0.02677
G1 X88.098 Y116.150 E0.02677
G1 X88.193 Y116.750 E0.02677
G1 X88.098 Y117.350 E0.02677
G1 X87.822 Y117.892 E0.02677
G1 X87.392 Y118.322 E0.02677
G1 X86.850 Y118.598 E0.02677
G1 X86.250 Y118.693 E0.02677
G1 X85.650 Y118.598 E0.02677
G1 X85.108 Y118.322 E0.02677
G1 X84.678 Y117.892 E0.02677
G1 X84.402 Y117.350 E0.02677
G1 X84.307 Y116.750 E0.02677
G1 X84.402 Y116.150 E0.02677
G1 X84.678 Y115.608 E0.02677
G1 X85.108 Y115.178 E0.02677
G1 X85.650 Y114.902 E0.02677
G1 X86.250 Y114.807 E0.02677
G1 X86.785 Y114.892 E0.02386
G1 X87.193 Y114.624 F3600.000
G1 X99.960 Y116.260 F3600.000
G1 X104.940 Y116.260 E0.21932 F540.000
G1 X104.940 Y121.240 E0.21932
G1 X99.960 Y121.240 E0.21932
G1 X99.960 Y116.326 E0.21640
G1 X99.960 Y115.819 F3600.000
G1 X99.519 Y115.819 F3600.000
G1 X99.519 Y121.819 E0.26424 F540.000
G1 X81.181 Y121.819 E0.80758
G1 X81.181 Y84.181 E1.65755
G1 X87.181 Y84.181 E0.26424
G1 X87.181 Y78.181 E0.26424
G1 X105.519 Y78.181 E0.80758
G1 X105.519 Y115.819 E1.65755
G1 X99.585 Y115.819 E0.26133
G1 F1800.000 E-1.00000
G1 X105.960 Y122.260 F3600.000
G1 E1.00000 F1800.000
G1 X80.740 Y122.260 E1.11069 F378.000
G1 X80.740 Y77.740 E1.96067
G1 X105.960 Y77.740 E1.11069
G1 X105.960 Y122.194 E1.95776
G1 X105.578 Y122.039 F3600.000
G1 F1800.000 E-1.00000
G1 X88.867 Y116.280 F3600.000
G1 E1.00000 F1800.000
G1 X94.107 Y121.521 E0.32901 F720.000
G1 X93.478 Y121.521 E0.02793
G1 X88.909 Y116.952 E0.28685
G1 X88.823 Y117.495 E0.02441
G1 X92.849 Y121.521 E0.25275
G1 X92.220 Y121.521 E0.02793
G1 X88.631 Y117.932 E0.22531
G1 X88.415 Y118.345 E0.02069
G1 X91.591 Y121.521 E0.19941
G1 X90.962 Y121.521 E0.02793
G1 X88.100 Y118.659 E0.17966
G1 X87.770 Y118.959 E0.01977
G1 X90.332 Y121.521 E0.16086
G1 X89.703 Y121.521 E0.02793
G1 X87.353 Y119.171 E0.14752
G1 X86.893 Y119.340 E0.02178
G1 X89.074 Y121.521 E0.13695
G1 X88.445 Y121.521 E0.02793
G1 X86.349 Y119.426 E0.13155
G1 X85.639 Y119.345 E0.03173
G1 X87.816 Y121.521 E0.13663
G1 X87.186 Y121.521 E0.02793
G1 X81.479 Y115.814 E0.35831
G1 X81.479 Y116.443 E0.02793
G1 X86.557 Y121.521 E0.31881
G1 X85.928 Y121.521 E0.02793
G1 X81.479 Y117.072 E0.27931
G1 X81.479 Y117.701 E0.02793
G1 X85.299 Y121.521 E0.23980
G1 X84.670 Y121.521 E0.02793
G1 X81.479 Y118.330 E0.20030
G1 X81.479 Y118.960 E0.02793
G1 X84.040 Y121.521 E0.16080
G1 X83.411 Y121.521 E0.02793
G1 X81.479 Y119.589 E0.12130
G1 X81.479 Y120.218 E0.02793
G1 X82.782 Y121.521 E0.08180
G1 X82.153 Y121.521 E0.02793
G1 X81.479 Y120.847 E0.04229
G1 X81.479 Y121.476 E0.02793
G1 X81.524 Y121.521 E0.00279
G1 X81.479 Y115.184 F3600.000
G1 X83.655 Y117.361 E0.13663 F720.000
G1 X83.574 Y116.651 E0.03173
G1 X81.479 Y114.555 E0.13155
G1 X81.479 Y113.926 E0.02793
G1 X83.660 Y116.107 E0.13695
G1 X83.829 Y115.647 E0.02178
G1 X81.479 Y113.297 E0.14752
G1 X81.479 Y112.668 E0.02793
G1 X84.041 Y115.230 E0.16086
G1 X84.341 Y114.900 E0.01977
G1 X81.479 Y112.038 E0.17966
G1 X81.479 Y111.409 E0.02793
G1 X84.655 Y114.585 E0.19941
G1 X85.068 Y114.369 E0.02069
G1 X81.479 Y110.780 E0.22531
G1 X81.479 Y110.151 E0.02793
G1 X85.505 Y114.177 E0.25275
G1 X86.048 Y114.091 E0.02441
G1 X81.479 Y109.522 E0.28685
G1 X81.479 Y108.892 E0.02793
G1 X86.720 Y114.133 E0.32901
G1 X87.743 Y114.528 F3600.000
G1 X81.479 Y108.263 E0.39328 F720.000
G1 X88.472 Y115.257 F3600.000
G1 X94.737 Y121.521 E0.39328 F720.000
G1 X95.366 Y121.521 E0.02793
G1 X81.479 Y107.634 E0.87183
G1 X81.479 Y107.005 E0.02793
G1 X95.995 Y121.521 E0.91133
G1 X96.624 Y121.521 E0.02793
G1 X81.479 Y106.376 E0.95084
G1 X81.479 Y105.747 E0.02793
G1 X97.253 Y121.521 E0.99034
G1 X97.883 Y121.521 E0.02793
G1 X81.479 Y105.117 E1.02984
G1 X81.479 Y104.488 E0.02793
G1 X98.512 Y121.521 E1.06934
G1 X99.141 Y121.521 E0.02793
G1 X81.479 Y103.859 E1.10884
G1 X81.479 Y103.230 E0.02793
G1 X99.221 Y120.972 E1.11385
G1 X99.221 Y120.342 E0.02793
G1 X81.479 Y102.601 E1.11385
G1 X81.479 Y101.971 E0.02793
G1 X99.221 Y119.713 E1.11385
G1 X99.221 Y119.084 E0.02793
G1 X81.479 Y101.342 E1.11385
G1 X81.479 Y100.713 E0.02793
G1 X99.221 Y118.455 E1.11385
G1 X99.221 Y117.826 E0.02793
G1 X81.479 Y100.084 E1.11385
G1 X81.479 Y99.455 E0.02793
G1 X99.221 Y117.196 E1.11385
G1 X99.221 Y116.567 E0.02793
G1 X81.479 Y98.825 E1.11385
G1 X81.479 Y98.196 E0.02793
G1 X99.221 Y115.938 E1.11385
G1 X99.433 Y115.521 E0.02077
G1 X81.479 Y97.567 E1.12717
G1 X81.479 Y96.938 E0.02793
G1 X100.062 Y115.521 E1.16667
G1 X100.691 Y115.521 E0.02793
G1 X81.479 Y96.309 E1.20618
G1 X81.479 Y95.679 E0.02793
G1 X101.321 Y115.521 E1.24568
G1 X101.950 Y115.521 E0.02793
G1 X81.479 Y95.050 E1.28518
G1 X81.479 Y94.421 E0.02793
G1 X102.579 Y115.521 E1.32468
G1 X103.208 Y115.521 E0.02793
G1 X81.479 Y93.792 E1.36418
G1 X81.479 Y93.163 E0.02793
G1 X103.837 Y115.521 E1.40368
G1 X104.467 Y115.521 E0.02793
G1 X81.479 Y92.533 E1.44319
G1 X81.479 Y91.904 E0.02793
G1 X105.096 Y115.521 E1.48269
G1 X105.221 Y115.017 E0.02306
G1 X81.479 Y91.275 E1.49054
G1 X81.479 Y90.646 E0.02793
G1 X105.221 Y114.388 E1.49054
G1 X105.221 Y113.758 E0.02793
G1 X81.479 Y90.017 E1.49054
G1 X81.479 Y89.387 E0.02793
G1 X105.221 Y113.129 E1.49054
G1 X105.221 Y112.500 E0.02793
G1 X81.479 Y88.758 E1.49054
G1 X81.479 Y88.129 E0.02793
G1 X105.221 Y111.871 E1.49054
G1 X105.221 Y111.242 E0.02793
G1 X81.479 Y87.500 E1.49054
G1 X81.479 Y86.871 E0.02793
G1 X105.221 Y110.612 E1.49054
G1 X105.221 Y109.983 E0.02793
G1 X81.479 Y86.241 E1.49054
G1 X81.479 Y85.612 E0.02793
G1 X105.221 Y109.354 E1.49054
G1 X105.221 Y108.725 E0.02793
G1 X81.479 Y84.983 E1.49054
G1 X81.604 Y84.479 E0.02305
G1 X105.221 Y108.096 E1.48268
G1 X105.221 Y107.466 E0.02793
G1 X82.234 Y84.479 E1.44318
G1 X82.863 Y84.479 E0.02793
G1 X105.221 Y106.837 E1.40368
G1 X105.221 Y106.208 E0.02793
G1 X83.492 Y84.479 E1.36418
G1 X84.121 Y84.479 E0.02793
G1 X105.221 Y105.579 E1.32467
G1 X105.221 Y104.950 E0.02793
G1 X84.750 Y84.479 E1.28517
G1 X85.379 Y84.479 E0.02793
G1 X105.221 Y104.321 E1.24567
G1 X105.221 Y103.691 E0.02793
G1 X86.009 Y84.479 E1.20617
G1 X86.638 Y84.479 E0.02793
G1 X105.221 Y103.062 E1.16667
G1 X105.221 Y102.433 E0.02793
G1 X87.267 Y84.479 E1.12717
G1 X87.479 Y84.062 E0.02077
G1 X105.221 Y101.804 E1.11385
G1 X105.221 Y101.175 E0.02793
G1 X87.479 Y83.433 E1.11385
G1 X87.479 Y82.804 E0.02793
G1 X105.221 Y100.545 E1.11385
G1 X105.221 Y99.916 E0.02793
G1 X87.479 Y82.174 E1.11385
G1 X87.479 Y81.545 E0.02793
G1 X105.221 Y99.287 E1.11385
G1 X105.221 Y98.658 E0.02793
G1 X87.479 Y80.916 E1.11385
G1 X87.479 Y80.287 E0.02793
G1 X105.221 Y98.029 E1.11385
G1 X105.221 Y97.399 E0.02793
G1 X87.479 Y79.658 E1.11385
G1 X87.479 Y79.028 E0.02793
G1 X105.221 Y96.770 E1.11385
G1 X105.221 Y96.141 E0.02793
G1 X87.559 Y78.479 E1.10884
G1 X88.188 Y78.479 E0.02793
G1 X105.221 Y95.512 E1.06933
G1 X105.221 Y94.883 E0.02793
G1 X88.817 Y78.479 E1.02983
G1 X89.447 Y78.479 E0.02793
G1 X105.221 Y94.253 E0.99033
G1 X105.221 Y93.624 E0.02793
G1 X90.076 Y78.479 E0.95083
G1 X90.705 Y78.479 E0.02793
G1 X105.221 Y92.995 E0.91133
G1 X105.221 Y92.366 E0.02793
G1 X91.334 Y78.479 E0.87183
G1 X91.963 Y78.479 E0.02793
G1 X98.228 Y84.743 E0.39327
G1 X98.957 Y85.472 F3600.000
G1 X105.221 Y91.737 E0.39327 F720.000
G1 X105.221 Y91.107 E0.02793
G1 X99.980 Y85.867 E0.32900
G1 X100.652 Y85.909 E0.02987
G1 X105.221 Y90.478 E0.28684
G1 X105.221 Y89.849 E0.02793
G1 X101.195 Y85.823 E0.25274
G1 X101.632 Y85.631 E0.02119
G1 X105.221 Y89.220 E0.22531
G1 X105.221 Y88.591 E0.02793
G1 X102.045 Y85.414 E0.19940
G1 X102.359 Y85.100 E0.01975
G1 X105.221 Y87.961 E0.17965
G1 X105.221 Y87.332 E0.02793
G1 X102.659 Y84.770 E0.16085
G1 X102.871 Y84.353 E0.02077
G1 X105.221 Y86.703 E0.14752
G1 X105.221 Y86.074 E0.02793
G1 X103.040 Y83.892 E0.13695
G1 X103.126 Y83.349 E0.02441
G1 X105.221 Y85.445 E0.13155
G1 X105.221 Y84.815 E0.02793
G1 X103.045 Y82.639 E0.13663
G1 X105.221 Y82.928 F3600.000
G1 X100.772 Y78.479 E0.27930 F720.000
G1 X100.143 Y78.479 E0.02793
G1 X105.221 Y83.557 E0.31880
G1 X105.221 Y84.186 E0.02793
G1 X99.514 Y78.479 E0.35830
G1 X98.885 Y78.479 E0.02793
G1 X101.061 Y80.655 E0.13663
G1 X100.351 Y80.574 E0.03173
G1 X98.255 Y78.479 E0.13155
G1 X97.626 Y78.479 E0.02793
G1 X99.808 Y80.660 E0.13695
G1 X99.347 Y80.829 E0.02178
G1 X96.997 Y78.479 E0.14752
G1 X96.368 Y78.479 E0.02793
G1 X98.930 Y81.041 E0.16085
G1 X98.600 Y81.341 E0.01977
G1 X95.739 Y78.479 E0.17965
G1 X95.109 Y78.479 E0.02793
G1 X98.286 Y81.655 E0.19940
G1 X98.069 Y82.068 E0.02069
G1 X94.480 Y78.479 E0.22531
G1 X93.851 Y78.479 E0.02793
G1 X97.877 Y82.505 E0.25274
G1 X97.791 Y83.048 E0.02441
G1 X93.222 Y78.479 E0.28684
G1 X92.593 Y78.479 E0.02793
G1 X97.833 Y83.720 E0.32900
G1 X101.401 Y78.479 F3600.000
G1 X105.221 Y82.299 E0.23980 F720.000
G1 X105.221 Y81.669 E0.02793
G1 X102.031 Y78.479 E0.20030
G1 X102.660 Y78.479 E0.02793
G1 X105.221 Y81.040 E0.16079
G1 X105.221 Y80.411 E0.02793
G1 X103.289 Y78.479 E0.12129
G1 X103.918 Y78.479 E0.02793
G1 X105.221 Y79.782 E0.08179
G1 X105.221 Y79.153 E0.02793
G1 X104.547 Y78.479 E0.04229
G1 X105.177 Y78.479 E0.02793
G1 X105.221 Y78.523 E0.00279
G1 X86.744 Y78.224 F3600.000
G1 X86.698 Y78.178 E0.00297 F360.000
G1 X86.193 Y78.322 E0.02406 F360.000
G1 X86.048 Y78.178 E0.00937 F360.000
G1 X85.543 Y78.322 E0.02406 F360.000
G1 X85.399 Y78.178 E0.00937 F360.000
G1 X84.894 Y78.322 E0.02406 F360.000
G1 X84.750 Y78.178 E0.00937 F360.000
G1 X84.245 Y78.322 E0.02406 F360.000
G1 X84.100 Y78.178 E0.00937 F360.000
G1 X83.595 Y78.322 E0.02406 F360.000
G1 X83.451 Y78.178 E0.00937 F360.000
G1 X82.946 Y78.322 E0.02406 F360.000
G1 X82.801 Y78.178 E0.00937 F360.000
G1 X82.296 Y78.322 E0.02406 F360.000
G1 X82.152 Y78.178 E0.00937 F360.000
G1 X81.647 Y78.322 E0.02406 F360.000
G1 X81.502 Y78.178 E0.00937 F360.000
G1 X81.178 Y78.502 E0.02104 F360.000
G1 X81.322 Y78.647 E0.00937 F360.000
G1 X81.178 Y79.152 E0.02406 F360.000
G1 X81.322 Y79.296 E0.00937 F360.000
G1 X81.178 Y79.801 E0.02406 F360.000
G1 X81.322 Y79.946 E0.00937 F360.000
G1 X81.178 Y80.451 E0.02406 F360.000
G1 X81.322 Y80.595 E0.00937 F360.000
G1 X81.178 Y81.100 E0.02406 F360.000
G1 X81.322 Y81.245 E0.00937 F360.000
G1 X81.178 Y81.749 E0.02406 F360.000
G1 X81.322 Y81.894 E0.00937 F360.000
G1 X81.178 Y82.399 E0.02406 F360.000
G1 X81.322 Y82.543 E0.00937 F360.000
G1 X81.178 Y83.048 E0.02406 F360.000
G1 X81.322 Y83.193 E0.00937 F360.000
G1 X81.178 Y83.698 E0.02406 F360.000
G1 X81.224 Y83.744 E0.00298 F360.000
G1 X105.476 Y116.256 F3600.000
G1 X105.522 Y116.302 E0.00297 F360.000
G1 X105.378 Y116.807 E0.02406 F360.000
G1 X105.522 Y116.952 E0.00937 F360.000
G1 X105.378 Y117.457 E0.02406 F360.000
G1 X105.522 Y117.601 E0.00937 F360.000
G1 X105.378 Y118.106 E0.02406 F360.000
G1 X105.522 Y118.250 E0.00937 F360.000
G1 X105.378 Y118.755 E0.02406 F360.000
G1 X105.522 Y118.900 E0.00937 F360.000
G1 X105.378 Y119.405 E0.02406 F360.000
G1 X105.522 Y119.549 E0.00937 F360.000
G1 X105.378 Y120.054 E0.02406 F360.000
G1 X105.522 Y120.199 E0.00937 F360.000
G1 X105.378 Y120.704 E0.02406 F360.000
G1 X105.522 Y120.848 E0.00937 F360.000
G1 X105.378 Y121.353 E0.02406 F360.000
G1 X105.522 Y121.498 E0.00937 F360.000
G1 X105.198 Y121.822 E0.02104 F360.000
G1 X105.053 Y121.678 E0.00937 F360.000
G1 X104.548 Y121.822 E0.02406 F360.000
G1 X104.404 Y121.678 E0.00937 F360.000
G1 X103.899 Y121.822 E0.02406 F360.000
G1 X103.754 Y121.678 E0.00937 F360.000
G1 X103.249 Y121.822 E0.02406 F360.000
G1 X103.105 Y121.678 E0.00937 F360.000
G1 X102.600 Y121.822 E0.02406 F360.000
G1 X102.455 Y121.678 E0.00937 F360.000
G1 X101.951 Y121.822 E0.02406 F360.000
G1 X101.806 Y121.678 E0.00937 F360.000
G1 X101.301 Y121.822 E0.02406 F360.000
G1 X101.157 Y121.678 E0.00937 F360.000
G1 X100.652 Y121.822 E0.02406 F360.000
G1 X100.507 Y121.678 E0.00937 F360.000
G1 X99.956 Y121.776 E0.02564 F360.000
G1 X100.002 Y121.822 E0.00298 F360.000
G1 F1800.000 E-1.00000
G1 X109.181 Y113.819 F3600.000
G1 E1.00000 F1800.000
G1 X109.181 Y84.531 E1.28982 F540.000
G1 X111.819 Y84.531 E0.11615
G1 X111.819 Y113.819 E1.28982
G1 X109.248 Y113.819 E0.11323
