; generated by Slic3r 1.0.0RC2 on 2014-01-22 at 22:14:41

; layer_height = 0.24
; perimeters = 2
; top_solid_layers = 4
; bottom_solid_layers = 3
; fill_density = 0.4
; perimeter_speed = 30
; infill_speed = 40
; travel_speed = 60
; nozzle_diameter = 0.3
; filament_diameter = 1.75
; extrusion_multiplier = 1
; perimeters extrusion width = 0.30mm
; infill extrusion width = 0.32mm
; solid infill extrusion width = 0.32mm
; top infill extrusion width = 0.32mm
; first layer extrusion width = 0.48mm

G21 ; set units to millimeters
M107
M104 S205 ; set temperature
G28 ; home all axes
G1 Z5 F200 ; lift nozzle
M109 S205 ; wait for temperature to be reached
G90 ; use absolute coordinates
M83 ; use relative distances for extrusion
G1 F1800.000 E-1.00000
G1 Z0.240 F3600.000
G1 X78.450 Y72.950 F3600.000
G1 E1.00000 F1800.000
G1 X79.420 Y72.140 E0.05565 F540.000
G1 X80.530 Y71.550 E0.05536
G1 X81.740 Y71.180 E0.05572
G1 X83.000 Y71.060 E0.05574
G1 X108.700 Y71.060 E1.13183
G1 X110.180 Y71.230 E0.06561
G1 X111.570 Y71.730 E0.06506
G1 X112.820 Y72.550 E0.06584
G1 X113.840 Y73.620 E0.06510
G1 X122.140 Y84.620 E0.60688
G1 X122.850 Y85.810 E0.06103
G1 X123.290 Y87.120 E0.06086
G1 X123.440 Y88.500 E0.06113
G1 X123.430 Y96.960 E0.37258
G1 X122.430 Y110.960 E0.61813
G1 X122.140 Y112.460 E0.06728
G1 X121.500 Y113.850 E0.06739
G1 X114.200 Y125.850 E0.61859
G1 X113.410 Y126.900 E0.05787
G1 X112.410 Y127.760 E0.05809
G1 X111.270 Y128.410 E0.05779
G1 X110.010 Y128.810 E0.05822
G1 X108.700 Y128.940 E0.05798
G1 X83.000 Y128.940 E1.13183
G1 X81.740 Y128.820 E0.05574
G1 X80.530 Y128.450 E0.05572
G1 X79.420 Y127.860 E0.05536
G1 X78.450 Y127.050 E0.05565
G1 X77.640 Y126.080 E0.05565
G1 X77.050 Y124.970 E0.05536
G1 X76.680 Y123.760 E0.05572
G1 X76.560 Y122.500 E0.05574
G1 X76.560 Y77.500 E1.98181
G1 X76.680 Y76.240 E0.05574
G1 X77.050 Y75.030 E0.05572
G1 X77.640 Y73.920 E0.05536
G1 X78.408 Y73.001 E0.05274
G1 F1800.000 E-1.00000
G1 X84.260 Y78.760 F3600.000
G1 E1.00000 F1800.000
G1 X89.240 Y78.760 E0.21932 F540.000
G1 X89.240 Y83.740 E0.21932
G1 X84.260 Y83.740 E0.21932
G1 X84.260 Y78.826 E0.21640
G1 X84.260 Y78.319 F3600.000
G1 F1800.000 E-1.00000
G1 X100.677 Y82.511 F3600.000
G1 E1.00000 F1800.000
G1 X101.017 Y81.845 E0.03293 F540.000
G1 X101.545 Y81.317 E0.03293
G1 X102.096 Y81.036 E0.02724
G1 X102.212 Y80.977 E0.00569
G1 X102.950 Y80.860 E0.03293
G1 X103.688 Y80.977 E0.03293
G1 X104.355 Y81.317 E0.03293
G1 X104.883 Y81.845 E0.03293
G1 X105.223 Y82.511 E0.03293
G1 X105.340 Y83.250 E0.03293
G1 X105.223 Y83.989 E0.03293
G1 X104.883 Y84.655 E0.03293
G1 X104.355 Y85.183 E0.03293
G1 X103.688 Y85.523 E0.03293
G1 X102.950 Y85.640 E0.03293
G1 X102.212 Y85.523 E0.03293
G1 X101.545 Y85.183 E0.03293
G1 X101.017 Y84.655 E0.03293
G1 X100.677 Y83.989 E0.03293
G1 X100.560 Y83.250 E0.03293
G1 X100.667 Y82.577 E0.03002
G1 X101.102 Y82.650 F3600.000
G1 X101.378 Y82.108 E0.02677 F540.000
G1 X101.808 Y81.678 E0.02677
G1 X102.297 Y81.429 E0.02416
G1 X102.350 Y81.402 E0.00261
G1 X102.950 Y81.307 E0.02677
G1 X103.550 Y81.402 E0.02677
G1 X104.092 Y81.678 E0.02677
G1 X104.522 Y82.108 E0.02677
G1 X104.798 Y82.650 E0.02677
G1 X104.893 Y83.250 E0.02677
G1 X104.798 Y83.850 E0.02677
G1 X104.522 Y84.392 E0.02677
G1 X104.092 Y84.822 E0.02677
G1 X103.550 Y85.098 E0.02677
G1 X102.950 Y85.193 E0.02677
G1 X102.350 Y85.098 E0.02677
G1 X101.808 Y84.822 E0.02677
G1 X101.378 Y84.392 E0.02677
G1 X101.102 Y83.850 E0.02677
G1 X101.007 Y83.250 E0.02677
G1 X101.092 Y82.715 E0.02386
G1 X100.824 Y82.307 F3600.000
G1 X89.489 Y114.477 F3600.000
G1 X90.155 Y114.817 E0.03293 F540.000
G1 X90.683 Y115.345 E0.03293
G1 X91.023 Y116.012 E0.03293
G1 X91.140 Y116.750 E0.03293
G1 X91.023 Y117.488 E0.03293
G1 X90.683 Y118.155 E0.03293
G1 X90.155 Y118.683 E0.03293
G1 X89.489 Y119.023 E0.03293
G1 X88.750 Y119.140 E0.03293
G1 X88.011 Y119.023 E0.03293
G1 X87.345 Y118.683 E0.03293
G1 X86.817 Y118.155 E0.03293
G1 X86.477 Y117.488 E0.03293
G1 X86.360 Y116.750 E0.03293
G1 X86.477 Y116.012 E0.03293
G1 X86.817 Y115.345 E0.03293
G1 X87.345 Y114.817 E0.03293
G1 X88.011 Y114.477 E0.03293
G1 X88.750 Y114.360 E0.03293
G1 X89.423 Y114.467 E0.03001
G1 X89.350 Y114.902 F3600.000
G1 X89.892 Y115.178 E0.02677 F540.000
G1 X90.322 Y115.608 E0.02677
G1 X90.598 Y116.150 E0.02677
G1 X90.693 Y116.750 E0.02677
G1 X90.598 Y117.350 E0.02677
G1 X90.322 Y117.892 E0.02677
G1 X89.892 Y118.322 E0.02677
G1 X89.350 Y118.598 E0.02677
G1 X88.750 Y118.693 E0.02677
G1 X88.150 Y118.598 E0.02677
G1 X87.608 Y118.322 E0.02677
G1 X87.178 Y117.892 E0.02677
G1 X86.902 Y117.350 E0.02677
G1 X86.807 Y116.750 E0.02677
G1 X86.902 Y116.150 E0.02677
G1 X87.178 Y115.608 E0.02677
G1 X87.608 Y115.178 E0.02677
G1 X88.150 Y114.902 E0.02677
G1 X88.750 Y114.807 E0.02677
G1 X89.285 Y114.892 E0.02386
G1 X89.693 Y114.624 F3600.000
G1 X102.460 Y116.260 F3600.000
G1 X107.440 Y116.260 E0.21932 F540.000
G1 X107.440 Y121.240 E0.21932
G1 X102.460 Y121.240 E0.21932
G1 X102.460 Y116.326 E0.21640
G1 X102.460 Y115.819 F3600.000
G1 X102.019 Y115.819 F3600.000
G1 X102.019 Y121.819 E0.26424 F540.000
G1 X83.681 Y121.819 E0.80758
G1 X83.681 Y84.181 E1.65755
G1 X89.681 Y84.181 E0.26424
G1 X89.681 Y78.181 E0.26424
G1 X108.019 Y78.181 E0.80758
G1 X108.019 Y115.819 E1.65755
G1 X102.085 Y115.819 E0.26133
G1 F1800.000 E-1.00000
G1 X108.460 Y122.260 F3600.000
G1 E1.00000 F1800.000
G1 X83.240 Y122.260 E1.11069 F378.000
G1 X83.240 Y77.740 E1.96067
G1 X108.460 Y77.740 E1.11069
G1 X108.460 Y122.194 E1.95776
G1 X108.078 Y122.039 F3600.000
G1 F1800.000 E-1.00000
G1 X91.367 Y116.280 F3600.000
G1 E1.00000 F1800.000
G1 X96.607 Y121.521 E0.32901 F720.000
G1 X95.978 Y121.521 E0.02793
G1 X91.409 Y116.952 E0.28685
G1 X91.323 Y117.495 E0.02441
G1 X95.349 Y121.521 E0.25275
G1 X94.720 Y121.521 E0.02793
G1 X91.131 Y117.932 E0.22531
G1 X90.914 Y118.345 E0.02069
G1 X94.091 Y121.521 E0.19941
G1 X93.462 Y121.521 E0.02793
G1 X90.600 Y118.659 E0.17966
G1 X90.270 Y118.959 E0.01977
G1 X92.832 Y121.521 E0.16086
G1 X92.203 Y121.521 E0.02793
G1 X89.853 Y119.171 E0.14752
G1 X89.393 Y119.340 E0.02178
G1 X91.574 Y121.521 E0.13695
G1 X90.945 Y121.521 E0.02793
G1 X88.849 Y119.426 E0.13155
G1 X88.139 Y119.345 E0.03173
G1 X90.316 Y121.521 E0.13663
G1 X89.686 Y121.521 E0.02793
G1 X83.979 Y115.814 E0.35831
G1 X83.979 Y116.443 E0.02793
G1 X89.057 Y121.521 E0.31881
G1 X88.428 Y121.521 E0.02793
G1 X83.979 Y117.072 E0.27931
G1 X83.979 Y117.701 E0.02793
G1 X87.799 Y121.521 E0.23980
G1 X87.170 Y121.521 E0.02793
G1 X83.979 Y118.330 E0.20030
G1 X83.979 Y118.960 E0.02793
G1 X86.540 Y121.521 E0.16080
G1 X85.911 Y121.521 E0.02793
G1 X83.979 Y119.589 E0.12130
G1 X83.979 Y120.218 E0.02793
G1 X85.282 Y121.521 E0.08180
G1 X84.653 Y121.521 E0.02793
G1 X83.979 Y120.847 E0.04229
G1 X83.979 Y121.476 E0.02793
G1 X84.024 Y121.521 E0.00279
G1 X83.979 Y115.184 F3600.000
G1 X86.155 Y117.361 E0.13663 F720.000
G1 X86.074 Y116.651 E0.03173
G1 X83.979 Y114.555 E0.13155
G1 X83.979 Y113.926 E0.02793
G1 X86.160 Y116.107 E0.13695
G1 X86.329 Y115.647 E0.02178
G1 X83.979 Y113.297 E0.14752
G1 X83.979 Y112.668 E0.02793
G1 X86.541 Y115.230 E0.16086
G1 X86.841 Y114.900 E0.01977
G1 X83.979 Y112.038 E0.17966
G1 X83.979 Y111.409 E0.02793
G1 X87.155 Y114.585 E0.19941
G1 X87.568 Y114.369 E0.02069
G1 X83.979 Y110.780 E0.22531
G1 X83.979 Y110.151 E0.02793
G1 X88.005 Y114.177 E0.25275
G1 X88.548 Y114.091 E0.02441
G1 X83.979 Y109.522 E0.28685
G1 X83.979 Y108.892 E0.02793
G1 X89.220 Y114.133 E0.32901
G1 X90.243 Y114.528 F3600.000
G1 X83.979 Y108.263 E0.39328 F720.000
G1 X90.972 Y115.257 F3600.000
G1 X97.237 Y121.521 E0.39328 F720.000
G1 X97.866 Y121.521 E0.02793
G1 X83.979 Y107.634 E0.87183
G1 X83.979 Y107.005 E0.02793
G1 X98.495 Y121.521 E0.91133
G1 X99.124 Y121.521 E0.02793
G1 X83.979 Y106.376 E0.95084
G1 X83.979 Y105.747 E0.02793
G1 X99.753 Y121.521 E0.99034
G1 X100.383 Y121.521 E0.02793
G1 X83.979 Y105.117 E1.02984
G1 X83.979 Y104.488 E0.02793
G1 X101.012 Y121.521 E1.06934
G1 X101.641 Y121.521 E0.02793
G1 X83.979 Y103.859 E1.10884
G1 X83.979 Y103.230 E0.02793
G1 X101.721 Y120.972 E1.11385
G1 X101.721 Y120.342 E0.02793
G1 X83.979 Y102.601 E1.11385
G1 X83.979 Y101.971 E0.02793
G1 X101.721 Y119.713 E1.11385
G1 X101.721 Y119.084 E0.02793
G1 X83.979 Y101.342 E1.11385
G1 X83.979 Y100.713 E0.02793
G1 X101.721 Y118.455 E1.11385
G1 X101.721 Y117.826 E0.02793
G1 X83.979 Y100.084 E1.11385
G1 X83.979 Y99.455 E0.02793
G1 X101.721 Y117.196 E1.11385
G1 X101.721 Y116.567 E0.02793
G1 X83.979 Y98.825 E1.11385
G1 X83.979 Y98.196 E0.02793
G1 X101.721 Y115.938 E1.11385
G1 X101.933 Y115.521 E0.02077
G1 X83.979 Y97.567 E1.12717
G1 X83.979 Y96.938 E0.02793
G1 X102.562 Y115.521 E1.16667
G1 X103.191 Y115.521 E0.02793
G1 X83.979 Y96.309 E1.20618
G1 X83.979 Y95.679 E0.02793
G1 X103.821 Y115.521 E1.24568
G1 X104.450 Y115.521 E0.02793
G1 X83.979 Y95.050 E1.28518
G1 X83.979 Y94.421 E0.02793
G1 X105.079 Y115.521 E1.32468
G1 X105.708 Y115.521 E0.02793
G1 X83.979 Y93.792 E1.36418
G1 X83.979 Y93.163 E0.02793
G1 X106.337 Y115.521 E1.40368
G1 X106.967 Y115.521 E0.02793
G1 X83.979 Y92.533 E1.44319
G1 X83.979 Y91.904 E0.02793
G1 X107.596 Y115.521 E1.48269
G1 X107.721 Y115.017 E0.02306
G1 X83.979 Y91.275 E1.49054
G1 X83.979 Y90.646 E0.02793
G1 X107.721 Y114.388 E1.49054
G1 X107.721 Y113.758 E0.02793
G1 X83.979 Y90.017 E1.49054
G1 X83.979 Y89.387 E0.02793
G1 X107.721 Y113.129 E1.49054
G1 X107.721 Y112.500 E0.02793
G1 X83.979 Y88.758 E1.49054
G1 X83.979 Y88.129 E0.02793
G1 X107.721 Y111.871 E1.49054
G1 X107.721 Y111.242 E0.02793
G1 X83.979 Y87.500 E1.49054
G1 X83.979 Y86.871 E0.02793
G1 X107.721 Y110.612 E1.49054
G1 X107.721 Y109.983 E0.02793
G1 X83.979 Y86.241 E1.49054
G1 X83.979 Y85.612 E0.02793
G1 X107.721 Y109.354 E1.49054
G1 X107.721 Y108.725 E0.02793
G1 X83.979 Y84.983 E1.49054
G1 X84.104 Y84.479 E0.02305
G1 X107.721 Y108.096 E1.48268
G1 X107.721 Y107.466 E0.02793
G1 X84.734 Y84.479 E1.44318
G1 X85.363 Y84.479 E0.02793
G1 X107.721 Y106.837 E1.40368
G1 X107.721 Y106.208 E0.02793
G1 X85.992 Y84.479 E1.36418
G1 X86.621 Y84.479 E0.02793
G1 X107.721 Y105.579 E1.32467
G1 X107.721 Y104.950 E0.02793
G1 X87.250 Y84.479 E1.28517
G1 X87.879 Y84.479 E0.02793
G1 X107.721 Y104.321 E1.24567
G1 X107.721 Y103.691 E0.02793
G1 X88.509 Y84.479 E1.20617
G1 X89.138 Y84.479 E0.02793
G1 X107.721 Y103.062 E1.16667
G1 X107.721 Y102.433 E0.02793
G1 X89.767 Y84.479 E1.12717
G1 X89.979 Y84.062 E0.02077
G1 X107.721 Y101.804 E1.11385
G1 X107.721 Y101.175 E0.02793
G1 X89.979 Y83.433 E1.11385
G1 X89.979 Y82.804 E0.02793
G1 X107.721 Y100.545 E1.11385
G1 X107.721 Y99.916 E0.02793
G1 X89.979 Y82.174 E1.11385
G1 X89.979 Y81.545 E0.02793
G1 X107.721 Y99.287 E1.11385
G1 X107.721 Y98.658 E0.02793
G1 X89.979 Y80.916 E1.11385
G1 X89.979 Y80.287 E0.02793
G1 X107.721 Y98.029 E1.11385
G1 X107.721 Y97.399 E0.02793
G1 X89.979 Y79.658 E1.11385
G1 X89.979 Y79.028 E0.02793
G1 X107.721 Y96.770 E1.11385
G1 X107.721 Y96.141 E0.02793
G1 X90.059 Y78.479 E1.10884
G1 X90.688 Y78.479 E0.02793
G1 X107.721 Y95.512 E1.06933
G1 X107.721 Y94.883 E0.02793
G1 X91.317 Y78.479 E1.02983
G1 X91.947 Y78.479 E0.02793
G1 X107.721 Y94.253 E0.99033
G1 X107.721 Y93.624 E0.02793
G1 X92.576 Y78.479 E0.95083
G1 X93.205 Y78.479 E0.02793
G1 X107.721 Y92.995 E0.91133
G1 X107.721 Y92.366 E0.02793
G1 X93.834 Y78.479 E0.87183
G1 X94.463 Y78.479 E0.02793
G1 X100.728 Y84.743 E0.39327
G1 X101.457 Y85.472 F3600.000
G1 X107.721 Y91.737 E0.39327 F720.000
G1 X107.721 Y91.107 E0.02793
G1 X102.480 Y85.867 E0.32900
G1 X103.152 Y85.909 E0.02987
G1 X107.721 Y90.478 E0.28684
G1 X107.721 Y89.849 E0.02793
G1 X103.695 Y85.823 E0.25274
G1 X104.132 Y85.631 E0.02119
G1 X107.721 Y89.220 E0.22531
G1 X107.721 Y88.591 E0.02793
G1 X104.545 Y85.414 E0.19940
G1 X104.859 Y85.100 E0.01975
G1 X107.721 Y87.961 E0.17965
G1 X107.721 Y87.332 E0.02793
G1 X105.159 Y84.770 E0.16085
G1 X105.371 Y84.353 E0.02077
G1 X107.721 Y86.703 E0.14752
G1 X107.721 Y86.074 E0.02793
G1 X105.540 Y83.892 E0.13695
G1 X105.626 Y83.349 E0.02441
G1 X107.721 Y85.445 E0.13155
G1 X107.721 Y84.815 E0.02793
G1 X105.545 Y82.639 E0.13663
G1 X107.721 Y82.928 F3600.000
G1 X103.272 Y78.479 E0.27930 F720.000
G1 X102.643 Y78.479 E0.02793
G1 X107.721 Y83.557 E0.31880
G1 X107.721 Y84.186 E0.02793
G1 X102.014 Y78.479 E0.35830
G1 X101.385 Y78.479 E0.02793
G1 X103.561 Y80.655 E0.13663
G1 X102.851 Y80.574 E0.03173
G1 X100.755 Y78.479 E0.13155
G1 X100.126 Y78.479 E0.02793
G1 X102.308 Y80.660 E0.13695
G1 X101.847 Y80.829 E0.02178
G1 X99.497 Y78.479 E0.14752
G1 X98.868 Y78.479 E0.02793
G1 X101.430 Y81.041 E0.16085
G1 X101.100 Y81.341 E0.01977
G1 X98.239 Y78.479 E0.17965
G1 X97.609 Y78.479 E0.02793
G1 X100.786 Y81.655 E0.19940
G1 X100.569 Y82.068 E0.02069
G1 X96.980 Y78.479 E0.22531
G1 X96.351 Y78.479 E0.02793
G1 X100.377 Y82.505 E0.25274
G1 X100.291 Y83.048 E0.02441
G1 X95.722 Y78.479 E0.28684
G1 X95.093 Y78.479 E0.02793
G1 X100.333 Y83.720 E0.32900
G1 X103.901 Y78.479 F3600.000
G1 X107.721 Y82.299 E0.23980 F720.000
G1 X107.721 Y81.669 E0.02793
G1 X104.531 Y78.479 E0.20030
G1 X105.160 Y78.479 E0.02793
G1 X107.721 Y81.040 E0.16079
G1 X107.721 Y80.411 E0.02793
G1 X105.789 Y78.479 E0.12129
G1 X106.418 Y78.479 E0.02793
G1 X107.721 Y79.782 E0.08179
G1 X107.721 Y79.153 E0.02793
G1 X107.047 Y78.479 E0.04229
G1 X107.677 Y78.479 E0.02793
G1 X107.721 Y78.523 E0.00279
G1 X89.244 Y78.224 F3600.000
G1 X89.198 Y78.178 E0.00297 F360.000
G1 X88.693 Y78.322 E0.02406 F360.000
G1 X88.548 Y78.178 E0.00937 F360.000
G1 X88.043 Y78.322 E0.02406 F360.000
G1 X87.899 Y78.178 E0.00937 F360.000
G1 X87.394 Y78.322 E0.02406 F360.000
G1 X87.250 Y78.178 E0.00937 F360.000
G1 X86.745 Y78.322 E0.02406 F360.000
G1 X86.600 Y78.178 E0.00937 F360.000
G1 X86.095 Y78.322 E0.02406 F360.000
G1 X85.951 Y78.178 E0.00937 F360.000
G1 X85.446 Y78.322 E0.02406 F360.000
G1 X85.301 Y78.178 E0.00937 F360.000
G1 X84.796 Y78.322 E0.02406 F360.000
G1 X84.652 Y78.178 E0.00937 F360.000
G1 X84.147 Y78.322 E0.02406 F360.000
G1 X84.002 Y78.178 E0.00937 F360.000
G1 X83.678 Y78.502 E0.02104 F360.000
G1 X83.822 Y78.647 E0.00937 F360.000
G1 X83.678 Y79.152 E0.02406 F360.000
G1 X83.822 Y79.296 E0.00937 F360.000
G1 X83.678 Y79.801 E0.02406 F360.000
G1 X83.822 Y79.946 E0.00937 F360.000
G1 X83.678 Y80.451 E0.02406 F360.000
G1 X83.822 Y80.595 E0.00937 F360.000
G1 X83.678 Y81.100 E0.02406 F360.000
G1 X83.822 Y81.245 E0.00937 F360.000
G1 X83.678 Y81.749 E0.02406 F360.000
G1 X83.822 Y81.894 E0.00937 F360.000
G1 X83.678 Y82.399 E0.02406 F360.000
G1 X83.822 Y82.543 E0.00937 F360.000
G1 X83.678 Y83.048 E0.02406 F360.000
G1 X83.822 Y83.193 E0.00937 F360.000
G1 X83.678 Y83.698 E0.02406 F360.000
G1 X83.724 Y83.744 E0.00298 F360.000
G1 X107.976 Y116.256 F3600.000
G1 X108.022 Y116.302 E0.00297 F360.000
G1 X107.878 Y116.807 E0.02406 F360.000
G1 X108.022 Y116.952 E0.00937 F360.000
G1 X107.878 Y117.457 E0.02406 F360.000
G1 X108.022 Y117.601 E0.00937 F360.000
G1 X107.878 Y118.106 E0.02406 F360.000
G1 X108.022 Y118.250 E0.00937 F360.000
G1 X107.878 Y118.755 E0.02406 F360.000
G1 X108.022 Y118.900 E0.00937 F360.000
G1 X107.878 Y119.405 E0.02406 F360.000
G1 X108.022 Y119.549 E0.00937 F360.000
G1 X107.878 Y120.054 E0.02406 F360.000
G1 X108.022 Y120.199 E0.00937 F360.000
G1 X107.878 Y120.704 E0.02406 F360.000
G1 X108.022 Y120.848 E0.00937 F360.000
G1 X107.878 Y121.353 E0.02406 F360.000
G1 X108.022 Y121.498 E0.00937 F360.000
G1 X107.698 Y121.822 E0.02104 F360.000
G1 X107.553 Y121.678 E0.00937 F360.000
G1 X107.048 Y121.822 E0.02406 F360.000
G1 X106.904 Y121.678 E0.00937 F360.000
G1 X106.399 Y121.822 E0.02406 F360.000
G1 X106.254 Y121.678 E0.00937 F360.000
G1 X105.749 Y121.822 E0.02406 F360.000
G1 X105.605 Y121.678 E0.00937 F360.000
G1 X105.100 Y121.822 E0.02406 F360.000
G1 X104.955 Y121.678 E0.00937 F360.000
G1 X104.451 Y121.822 E0.02406 F360.000
G1 X104.306 Y121.678 E0.00937 F360.000
G1 X103.801 Y121.822 E0.02406 F360.000
G1 X103.657 Y121.678 E0.00937 F360.000
G1 X103.152 Y121.822 E0.02406 F360.000
G1 X103.007 Y121.678 E0.00937 F360.000
G1 X102.456 Y121.776 E0.02564 F360.000
G1 X102.502 Y121.822 E0.00298 F360.000
G1 F1800.000 E-1.00000
G1 X113.681 Y95.819 F3600.000
G1 E1.00000 F1800.000
G1 X113.681 Y89.181 E0.29231 F540.000
