; generated by Slic3r 1.0.0RC2 on 2014-01-31 at 16:44:22

; layer_height = 0.24
; perimeters = 2
; top_solid_layers = 4
; bottom_solid_layers = 3
; fill_density = 0.4
; perimeter_speed = 30
; infill_speed = 40
; travel_speed = 60
; nozzle_diameter = 0.3
; filament_diameter = 1.75
; extrusion_multiplier = 1
; perimeters extrusion width = 0.30mm
; infill extrusion width = 0.32mm
; solid infill extrusion width = 0.32mm
; top infill extrusion width = 0.32mm
; first layer extrusion width = 0.48mm

G21 ; set units to millimeters
M107
M104 S205 ; set temperature
G28 ; home all axes
G1 Z5 F200 ; lift nozzle
M109 S205 ; wait for temperature to be reached
G90 ; use absolute coordinates
M83 ; use relative distances for extrusion
G1 F1800.000 E-1.00000
G1 Z0.240 F3600.000
G1 X81.760 Y82.114 F3600.000
G1 E1.00000 F1800.000
G1 X83.090 Y80.864 E0.08038 F540.000
G1 X83.730 Y80.334 E0.03660
G1 X85.210 Y79.264 E0.08043
G1 X85.890 Y78.834 E0.03543
G1 X87.480 Y77.964 E0.07982
G1 X88.200 Y77.624 E0.03507
G1 X89.890 Y76.954 E0.08006
G1 X90.640 Y76.714 E0.03468
G1 X92.410 Y76.254 E0.08054
G1 X93.250 Y76.094 E0.03766
G1 X95.050 Y75.874 E0.07986
G1 X95.830 Y75.824 E0.03442
G1 X97.660 Y75.824 E0.08059
G1 X98.440 Y75.874 E0.03442
G1 X100.240 Y76.094 E0.07986
G1 X101.080 Y76.254 E0.03766
G1 X102.850 Y76.714 E0.08054
G1 X103.600 Y76.954 E0.03468
G1 X105.290 Y77.624 E0.08006
G1 X106.010 Y77.964 E0.03507
G1 X120.840 Y86.084 E0.74461
G1 X121.970 Y86.874 E0.06072
G1 X122.910 Y87.874 E0.06044
G1 X123.610 Y89.064 E0.06080
G1 X124.040 Y90.364 E0.06030
G1 X124.190 Y91.734 E0.06070
G1 X124.190 Y101.734 E0.44040
G1 X124.070 Y102.994 E0.05574
G1 X123.700 Y104.204 E0.05572
G1 X123.110 Y105.314 E0.05536
G1 X122.300 Y106.284 E0.05565
G1 X106.300 Y122.284 E0.99652
G1 X105.330 Y123.094 E0.05565
G1 X104.220 Y123.684 E0.05536
G1 X103.010 Y124.054 E0.05572
G1 X101.750 Y124.174 E0.05574
G1 X91.750 Y124.174 E0.44040
G1 X90.380 Y124.024 E0.06070
G1 X89.080 Y123.594 E0.06030
G1 X87.900 Y122.894 E0.06042
G1 X86.890 Y121.964 E0.06047
G1 X86.110 Y120.834 E0.06047
G1 X78.400 Y106.814 E0.70465
G1 X77.440 Y104.814 E0.09770
G1 X77.130 Y104.044 E0.03656
G1 X76.570 Y102.314 E0.08008
G1 X76.370 Y101.534 E0.03546
G1 X76.030 Y99.744 E0.08024
G1 X75.930 Y98.934 E0.03594
G1 X75.820 Y97.124 E0.07986
G1 X75.820 Y96.334 E0.03479
G1 X75.930 Y94.554 E0.07854
G1 X76.030 Y93.714 E0.03726
G1 X76.370 Y91.924 E0.08024
G1 X76.570 Y91.144 E0.03546
G1 X77.130 Y89.414 E0.08008
G1 X77.440 Y88.644 E0.03656
G1 X78.220 Y86.994 E0.08038
G1 X78.590 Y86.314 E0.03409
G1 X79.560 Y84.774 E0.08015
G1 X80.050 Y84.094 E0.03691
G1 X81.210 Y82.694 E0.08007
G1 X81.714 Y82.162 E0.03229
G1 F1800.000 E-1.00000
G1 X96.150 Y112.888 F3600.000
G1 E1.00000 F1800.000
G1 X96.750 Y112.793 E0.02677 F540.000
G1 X97.350 Y112.888 E0.02677
G1 X97.892 Y113.164 E0.02677
G1 X98.322 Y113.594 E0.02677
G1 X98.598 Y114.135 E0.02677
G1 X98.693 Y114.736 E0.02677
G1 X98.598 Y115.336 E0.02677
G1 X98.322 Y115.878 E0.02677
G1 X97.892 Y116.308 E0.02677
G1 X97.350 Y116.584 E0.02677
G1 X96.750 Y116.679 E0.02677
G1 X96.150 Y116.584 E0.02677
G1 X95.608 Y116.308 E0.02677
G1 X95.178 Y115.878 E0.02677
G1 X94.902 Y115.336 E0.02677
G1 X94.807 Y114.736 E0.02677
G1 X94.902 Y114.135 E0.02677
G1 X95.178 Y113.594 E0.02677
G1 X95.608 Y113.164 E0.02677
G1 X96.091 Y112.918 E0.02386
G1 X96.264 Y112.461 F3600.000
G1 X96.011 Y112.463 F3600.000
G1 X95.345 Y112.802 E0.03293 F540.000
G1 X94.817 Y113.331 E0.03293
G1 X94.477 Y113.997 E0.03293
G1 X94.360 Y114.736 E0.03293
G1 X94.477 Y115.474 E0.03293
G1 X94.817 Y116.140 E0.03293
G1 X95.730 Y117.054 E0.05692
G1 X92.431 Y117.054 E0.14529
G1 X92.431 Y109.857 E0.31696
G1 X90.867 Y109.238 E0.07410
G1 X89.346 Y108.402 E0.07642
G1 X87.943 Y107.382 E0.07642
G1 X86.678 Y106.194 E0.07642
G1 X85.572 Y104.857 E0.07642
G1 X84.642 Y103.392 E0.07642
G1 X83.903 Y101.822 E0.07642
G1 X83.367 Y100.172 E0.07642
G1 X83.042 Y98.467 E0.07642
G1 X82.933 Y96.736 E0.07642
G1 X83.042 Y95.004 E0.07642
G1 X83.367 Y93.299 E0.07642
G1 X83.903 Y91.649 E0.07642
G1 X84.642 Y90.079 E0.07642
G1 X85.572 Y88.614 E0.07642
G1 X86.678 Y87.277 E0.07642
G1 X87.943 Y86.089 E0.07642
G1 X89.346 Y85.069 E0.07642
G1 X90.867 Y84.233 E0.07642
G1 X92.480 Y83.595 E0.07642
G1 X94.161 Y83.163 E0.07642
G1 X95.882 Y82.946 E0.07642
G1 X97.618 Y82.946 E0.07642
G1 X99.339 Y83.163 E0.07642
G1 X101.020 Y83.595 E0.07642
G1 X102.633 Y84.233 E0.07642
G1 X104.154 Y85.069 E0.07642
G1 X105.557 Y86.089 E0.07642
G1 X106.822 Y87.277 E0.07642
G1 X107.928 Y88.614 E0.07642
G1 X108.858 Y90.079 E0.07642
G1 X109.597 Y91.649 E0.07642
G1 X109.846 Y92.417 E0.03556
G1 X117.069 Y92.417 E0.31807
G1 X117.069 Y94.554 E0.09413
G1 X107.696 Y94.554 E0.41278
G1 X107.581 Y93.955 E0.02689
G1 X107.147 Y92.619 E0.06185
G1 X106.549 Y91.348 E0.06185
G1 X105.797 Y90.163 E0.06185
G1 X104.902 Y89.081 E0.06185
G1 X103.878 Y88.119 E0.06185
G1 X102.742 Y87.294 E0.06185
G1 X101.511 Y86.617 E0.06185
G1 X100.206 Y86.100 E0.06185
G1 X98.845 Y85.751 E0.06185
G1 X97.452 Y85.575 E0.06185
G1 X96.048 Y85.575 E0.06185
G1 X94.655 Y85.751 E0.06185
G1 X93.294 Y86.100 E0.06185
G1 X91.989 Y86.617 E0.06185
G1 X90.702 Y87.335 E0.06487
G1 X89.622 Y88.119 E0.05880
G1 X88.598 Y89.081 E0.06185
G1 X87.703 Y90.163 E0.06185
G1 X86.951 Y91.348 E0.06185
G1 X86.353 Y92.619 E0.06185
G1 X85.919 Y93.955 E0.06185
G1 X85.655 Y95.334 E0.06185
G1 X85.567 Y96.736 E0.06185
G1 X85.655 Y98.137 E0.06185
G1 X85.919 Y99.517 E0.06185
G1 X86.353 Y100.852 E0.06185
G1 X86.951 Y102.123 E0.06185
G1 X87.703 Y103.309 E0.06185
G1 X88.598 Y104.391 E0.06185
G1 X89.622 Y105.352 E0.06185
G1 X90.758 Y106.178 E0.06185
G1 X91.989 Y106.854 E0.06185
G1 X93.294 Y107.371 E0.06185
G1 X94.655 Y107.720 E0.06185
G1 X96.048 Y107.896 E0.06185
G1 X97.452 Y107.896 E0.06185
G1 X98.845 Y107.720 E0.06185
G1 X100.206 Y107.371 E0.06185
G1 X101.511 Y106.854 E0.06185
G1 X102.742 Y106.178 E0.06185
G1 X103.878 Y105.352 E0.06185
G1 X104.902 Y104.391 E0.06185
G1 X105.797 Y103.309 E0.06185
G1 X106.549 Y102.123 E0.06185
G1 X107.147 Y100.852 E0.06185
G1 X107.581 Y99.517 E0.06185
G1 X107.696 Y98.917 E0.02689
G1 X117.069 Y98.917 E0.41278
G1 X117.069 Y101.054 E0.09413
G1 X109.846 Y101.054 E0.31807
G1 X109.597 Y101.822 E0.03556
G1 X108.858 Y103.392 E0.07642
G1 X107.928 Y104.857 E0.07642
G1 X106.822 Y106.194 E0.07642
G1 X105.557 Y107.382 E0.07642
G1 X104.154 Y108.402 E0.07642
G1 X102.633 Y109.238 E0.07642
G1 X101.069 Y109.857 E0.07410
G1 X101.069 Y117.054 E0.31696
G1 X97.770 Y117.054 E0.14529
G1 X98.683 Y116.140 E0.05692
G1 X99.023 Y115.474 E0.03293
G1 X99.140 Y114.736 E0.03293
G1 X99.023 Y113.997 E0.03293
G1 X98.683 Y113.331 E0.03293
G1 X98.155 Y112.802 E0.03293
G1 X97.489 Y112.463 E0.03293
G1 X96.750 Y112.346 E0.03293
G1 X96.077 Y112.452 E0.03002
G1 X91.990 Y110.157 F3600.000
G1 X90.679 Y109.638 E0.06212 F378.000
G1 X89.109 Y108.775 E0.07886
G1 X87.661 Y107.723 E0.07887
G1 X86.355 Y106.497 E0.07886
G1 X85.214 Y105.117 E0.07886
G1 X84.254 Y103.605 E0.07886
G1 X83.492 Y101.985 E0.07887
G1 X82.938 Y100.282 E0.07886
G1 X82.603 Y98.523 E0.07886
G1 X82.490 Y96.736 E0.07886
G1 X82.603 Y94.949 E0.07886
G1 X82.969 Y93.031 E0.08597
G1 X82.990 Y93.031 E0.00094
G1 X83.492 Y91.486 E0.07153
G1 X84.254 Y89.866 E0.07887
G1 X85.214 Y88.354 E0.07886
G1 X86.355 Y86.974 E0.07886
G1 X87.661 Y85.749 E0.07886
G1 X89.109 Y84.696 E0.07887
G1 X90.679 Y83.833 E0.07886
G1 X92.626 Y83.062 E0.09223
G1 X92.626 Y83.102 E0.00173
G1 X94.078 Y82.729 E0.06604
G1 X95.855 Y82.504 E0.07886
G1 X97.645 Y82.504 E0.07886
G1 X99.422 Y82.729 E0.07886
G1 X101.156 Y83.174 E0.07886
G1 X102.821 Y83.833 E0.07886
G1 X104.391 Y84.696 E0.07886
G1 X105.839 Y85.749 E0.07887
G1 X107.145 Y86.974 E0.07886
G1 X108.286 Y88.354 E0.07886
G1 X109.246 Y89.866 E0.07886
G1 X110.008 Y91.486 E0.07886
G1 X110.167 Y91.976 E0.02266
G1 X117.510 Y91.976 E0.32338
G1 X117.510 Y94.996 E0.13300
G1 X107.331 Y94.996 E0.44830
G1 X107.153 Y94.065 E0.04174
G1 X106.736 Y92.782 E0.05940
G1 X106.162 Y91.561 E0.05940
G1 X105.439 Y90.423 E0.05940
G1 X104.579 Y89.383 E0.05940
G1 X103.596 Y88.460 E0.05940
G1 X102.505 Y87.667 E0.05940
G1 X101.323 Y87.017 E0.05940
G1 X100.069 Y86.521 E0.05940
G1 X98.763 Y86.185 E0.05940
G1 X97.424 Y86.016 E0.05940
G1 X96.076 Y86.016 E0.05940
G1 X94.737 Y86.185 E0.05940
G1 X93.431 Y86.521 E0.05940
G1 X92.177 Y87.017 E0.05940
G1 X90.995 Y87.667 E0.05940
G1 X89.904 Y88.460 E0.05940
G1 X88.921 Y89.383 E0.05940
G1 X88.061 Y90.423 E0.05940
G1 X87.338 Y91.561 E0.05940
G1 X86.764 Y92.782 E0.05940
G1 X86.347 Y94.065 E0.05940
G1 X86.094 Y95.390 E0.05940
G1 X86.010 Y96.736 E0.05940
G1 X86.094 Y98.082 E0.05940
G1 X86.347 Y99.407 E0.05940
G1 X86.764 Y100.690 E0.05940
G1 X87.338 Y101.910 E0.05940
G1 X88.061 Y103.049 E0.05940
G1 X88.921 Y104.088 E0.05940
G1 X89.904 Y105.011 E0.05940
G1 X90.995 Y105.804 E0.05940
G1 X92.177 Y106.454 E0.05940
G1 X93.431 Y106.950 E0.05940
G1 X94.737 Y107.286 E0.05940
G1 X96.076 Y107.455 E0.05940
G1 X97.424 Y107.455 E0.05940
G1 X98.763 Y107.286 E0.05940
G1 X100.069 Y106.950 E0.05940
G1 X101.323 Y106.454 E0.05940
G1 X102.505 Y105.804 E0.05940
G1 X103.596 Y105.011 E0.05940
G1 X104.579 Y104.088 E0.05940
G1 X105.439 Y103.049 E0.05940
G1 X106.162 Y101.910 E0.05940
G1 X106.736 Y100.690 E0.05940
G1 X107.153 Y99.407 E0.05940
G1 X107.331 Y98.476 E0.04174
G1 X117.510 Y98.476 E0.44830
G1 X117.510 Y101.496 E0.13300
G1 X110.167 Y101.496 E0.32338
G1 X110.008 Y101.985 E0.02266
G1 X109.246 Y103.605 E0.07886
G1 X108.286 Y105.117 E0.07886
G1 X107.145 Y106.497 E0.07886
G1 X105.839 Y107.723 E0.07886
G1 X104.391 Y108.775 E0.07887
G1 X102.821 Y109.638 E0.07886
G1 X101.510 Y110.157 E0.06212
G1 X101.510 Y117.496 E0.32319
G1 X91.990 Y117.496 E0.41926
G1 X91.990 Y110.223 E0.32027
G1 X92.100 Y109.730 F3600.000
G1 X92.546 Y109.583 F3600.000
G1 X83.942 Y100.978 E0.54220 F720.000
G1 X84.301 Y101.969 F3600.000
G1 X91.501 Y109.169 E0.45368 F720.000
G1 X90.272 Y108.571 F3600.000
G1 X84.862 Y103.162 E0.34085 F720.000
G1 X87.029 Y102.803 F3600.000
G1 X83.498 Y99.271 E0.22252 F720.000
G1 X83.647 Y100.052 E0.03540
G1 X95.821 Y112.226 E0.76712
G1 X95.403 Y112.439 E0.02092
G1 X92.729 Y109.765 E0.16847
G1 X92.729 Y110.397 E0.02814
G1 X95.029 Y112.697 E0.14495
G1 X94.714 Y113.013 E0.01990
G1 X92.729 Y111.028 E0.12505
G1 X92.729 Y111.660 E0.02814
G1 X94.455 Y113.386 E0.10874
G1 X94.242 Y113.804 E0.02092
G1 X92.729 Y112.291 E0.09531
G1 X92.729 Y112.923 E0.02814
G1 X94.125 Y114.319 E0.08795
G1 X94.087 Y114.912 E0.02650
G1 X92.729 Y113.554 E0.08555
G1 X92.729 Y114.186 E0.02814
G1 X94.274 Y115.731 E0.09734
G1 X94.668 Y116.757 F3600.000
G1 X92.729 Y114.817 E0.12219 F720.000
G1 X92.729 Y115.449 E0.02814
G1 X94.037 Y116.757 E0.08240
G1 X93.405 Y116.757 E0.02814
G1 X92.729 Y116.081 E0.04261
G1 X92.729 Y116.712 E0.02814
G1 X92.774 Y116.757 E0.00281
G1 X99.089 Y116.757 F3600.000
G1 X98.788 Y116.456 E0.01892 F720.000
G1 X99.047 Y116.083 E0.02022
G1 X99.720 Y116.757 E0.04244
G1 X100.352 Y116.757 E0.02814
G1 X99.260 Y115.665 E0.06880
G1 X99.376 Y115.149 E0.02355
G1 X100.771 Y116.544 E0.08792
G1 X100.771 Y115.913 E0.02814
G1 X99.413 Y114.554 E0.08560
G1 X99.222 Y113.732 E0.03760
G1 X100.771 Y115.281 E0.09760
G1 X100.771 Y114.650 E0.02814
G1 X93.974 Y107.853 E0.42829
G1 X94.790 Y108.037 E0.03728
G1 X100.771 Y114.018 E0.37687
G1 X100.771 Y113.387 E0.02814
G1 X95.513 Y108.129 E0.33132
G1 X96.210 Y108.194 E0.03118
G1 X100.771 Y112.755 E0.28742
G1 X100.771 Y112.124 E0.02814
G1 X96.841 Y108.194 E0.24762
G1 X97.472 Y108.194 E0.02813
G1 X100.771 Y111.492 E0.20784
G1 X100.771 Y110.861 E0.02814
G1 X98.033 Y108.123 E0.17252
G1 X98.594 Y108.052 E0.02518
G1 X100.771 Y110.229 E0.13719
G1 X100.812 Y109.639 E0.02637
G1 X99.128 Y107.955 E0.10610
G1 X99.631 Y107.826 E0.02312
G1 X101.264 Y109.460 E0.10294
G1 X101.717 Y109.281 E0.02168
G1 X100.133 Y107.697 E0.09979
G1 X100.602 Y107.534 E0.02211
G1 X102.169 Y109.101 E0.09875
G1 X102.610 Y108.911 E0.02140
G1 X101.054 Y107.355 E0.09803
G1 X101.507 Y107.176 E0.02168
G1 X103.018 Y108.687 E0.09520
G1 X103.425 Y108.463 E0.02072
G1 X101.927 Y106.965 E0.09438
G1 X102.335 Y106.741 E0.02072
G1 X103.833 Y108.239 E0.09438
G1 X104.215 Y107.990 E0.02033
G1 X102.742 Y106.517 E0.09279
G1 X103.124 Y106.268 E0.02033
G1 X104.581 Y107.724 E0.09176
G1 X104.946 Y107.458 E0.02014
G1 X103.490 Y106.002 E0.09176
G1 X103.856 Y105.736 E0.02014
G1 X105.312 Y107.192 E0.09176
G1 X105.644 Y106.893 E0.01992
G1 X104.205 Y105.454 E0.09067
G1 X104.531 Y105.148 E0.01991
G1 X105.970 Y106.587 E0.09067
G1 X106.295 Y106.281 E0.01991
G1 X104.856 Y104.842 E0.09067
G1 X105.174 Y104.528 E0.01990
G1 X106.619 Y105.973 E0.09103
G1 X106.905 Y105.628 E0.01999
G1 X105.460 Y104.183 E0.09103
G1 X105.746 Y103.837 E0.01999
G1 X107.191 Y105.282 E0.09103
G1 X107.477 Y104.936 E0.01999
G1 X106.032 Y103.492 E0.09103
G1 X106.278 Y103.106 E0.02038
G1 X107.752 Y104.580 E0.09287
G1 X107.997 Y104.194 E0.02039
G1 X106.523 Y102.720 E0.09287
G1 X106.768 Y102.334 E0.02039
G1 X108.242 Y103.807 E0.09287
G1 X108.487 Y103.421 E0.02039
G1 X106.978 Y101.912 E0.09511
G1 X107.180 Y101.482 E0.02115
G1 X108.709 Y103.011 E0.09632
G1 X108.911 Y102.581 E0.02115
G1 X107.382 Y101.053 E0.09633
G1 X107.547 Y100.586 E0.02205
G1 X109.113 Y102.152 E0.09867
G1 X109.315 Y101.723 E0.02115
G1 X107.702 Y100.109 E0.10165
G1 X107.857 Y99.633 E0.02233
G1 X109.471 Y101.247 E0.10172
G1 X109.626 Y100.770 E0.02233
G1 X108.070 Y99.215 E0.09802
G1 X108.702 Y99.215 F3600.000
G1 X110.244 Y100.757 E0.09716 F720.000
G1 X110.875 Y100.757 E0.02814
G1 X109.333 Y99.215 E0.09716
G1 X109.965 Y99.215 E0.02814
G1 X111.507 Y100.757 E0.09716
G1 X112.138 Y100.757 E0.02814
G1 X110.596 Y99.215 E0.09716
G1 X111.228 Y99.215 E0.02814
G1 X112.770 Y100.757 E0.09716
G1 X113.401 Y100.757 E0.02814
G1 X111.859 Y99.215 E0.09716
G1 X112.491 Y99.215 E0.02814
G1 X114.033 Y100.757 E0.09716
G1 X114.664 Y100.757 E0.02814
G1 X113.122 Y99.215 E0.09716
G1 X113.754 Y99.215 E0.02814
G1 X115.296 Y100.757 E0.09716
G1 X115.927 Y100.757 E0.02814
G1 X114.385 Y99.215 E0.09716
G1 X115.017 Y99.215 E0.02814
G1 X116.559 Y100.757 E0.09716
G1 X116.771 Y100.337 E0.02094
G1 X115.648 Y99.215 E0.07074
G1 X116.280 Y99.215 E0.02814
G1 X116.771 Y99.706 E0.03095
G1 F1800.000 E-1.00000
G1 X116.726 Y92.715 F3600.000
G1 E1.00000 F1800.000
G1 X116.771 Y92.759 E0.00281 F720.000
G1 X116.771 Y93.391 E0.02814
G1 X116.095 Y92.715 E0.04260
G1 X115.463 Y92.715 E0.02814
G1 X116.771 Y94.022 E0.08239
G1 X116.374 Y94.257 E0.02055
G1 X114.832 Y92.715 E0.09716
G1 X114.200 Y92.715 E0.02814
G1 X115.742 Y94.257 E0.09716
G1 X115.111 Y94.257 E0.02814
G1 X113.569 Y92.715 E0.09716
G1 X112.937 Y92.715 E0.02814
G1 X114.479 Y94.257 E0.09716
G1 X113.848 Y94.257 E0.02814
G1 X112.306 Y92.715 E0.09716
G1 X111.674 Y92.715 E0.02814
G1 X113.216 Y94.257 E0.09716
G1 X112.585 Y94.257 E0.02814
G1 X111.043 Y92.715 E0.09716
G1 X110.411 Y92.715 E0.02814
G1 X111.953 Y94.257 E0.09716
G1 X111.322 Y94.257 E0.02814
G1 X100.954 Y83.889 E0.65331
G1 X100.099 Y83.666 F3600.000
G1 X110.690 Y94.257 E0.66737 F720.000
G1 X107.890 Y93.982 F3600.000
G1 X108.164 Y94.257 E0.01730 F720.000
G1 X108.796 Y94.257 E0.02814
G1 X107.606 Y93.067 E0.07498
G1 X107.198 Y92.027 F3600.000
G1 X109.427 Y94.257 E0.14047 F720.000
G1 X110.059 Y94.257 E0.02814
G1 X106.471 Y90.668 E0.22610
G1 X108.638 Y90.309 F3600.000
G1 X103.228 Y84.900 E0.34084 F720.000
G1 X101.999 Y84.303 F3600.000
G1 X109.199 Y91.502 E0.45367 F720.000
G1 X107.391 Y88.431 F3600.000
G1 X105.043 Y86.084 E0.14791 F720.000
G1 X102.774 Y86.972 F3600.000
G1 X99.255 Y83.452 E0.22174 F720.000
G1 X98.532 Y83.361 E0.03246
G1 X101.439 Y86.269 E0.18320
G1 X100.394 Y85.855 F3600.000
G1 X97.809 Y83.270 E0.16287 F720.000
G1 X97.151 Y83.243 E0.02934
G1 X99.526 Y85.619 E0.14967
G1 X98.710 Y85.434 E0.03728
G1 X96.519 Y83.243 E0.13804
G1 X95.889 Y83.245 E0.02807
G1 X97.987 Y85.343 E0.13219
G1 X97.290 Y85.277 E0.03118
G1 X95.329 Y83.316 E0.12361
G1 X94.768 Y83.386 E0.02518
G1 X96.659 Y85.277 E0.11915
G1 X96.028 Y85.278 E0.02813
G1 X94.208 Y83.458 E0.11464
G1 X93.706 Y83.587 E0.02312
G1 X95.467 Y85.348 E0.11097
G1 X94.906 Y85.419 E0.02518
G1 X93.203 Y83.716 E0.10731
G1 X92.701 Y83.845 E0.02311
G1 X94.372 Y85.516 E0.10529
