; generated by Slic3r 0.9.9-dev on 2013-12-17 at 21:07:36

; layer_height = 0.3
; perimeters = 2
; top_solid_layers = 3
; bottom_solid_layers = 2
; fill_density = 0.2
; perimeter_speed = 30
; infill_speed = 48
; travel_speed = 250
; scale = 1
; nozzle_diameter = 0.5
; filament_diameter = 1.75
; extrusion_multiplier = 1.0
; perimeters extrusion width = 0.50mm
; infill extrusion width = 0.50mm
; first layer extrusion width = 0.50mm

M190 S57 ; wait for bed temperature to be reached
M104 S200 ; set temperature
G28 X0 Y0
G1 X75 Y75 F12000
G28 Z0
G1 Z0.3 F200
G1 X15 Y20 F12000
M109 S200 ; wait for temperature to be reached
G90 ; use absolute coordinates
G21 ; set units to millimeters
G92 E0
M82 ; use absolute distances for extrusion
M106 S76
G1 F3600.000 E-2.40000
G92 E0
G1 Z0.300 F15000.000
G1 X5.646 Y5.100
G1 X6.100 Y4.707 F3600.000 E2.40000
G1 X6.246 Y4.580 F720.000 E2.41210
G1 X6.976 Y4.010 E2.46986
G1 X7.576 Y3.590 E2.51553
G1 X8.376 Y3.100 E2.57403
G1 X9.146 Y2.690 E2.62844
G1 X10.006 Y2.310 E2.68707
G1 X10.686 Y2.060 E2.73225
G1 X11.576 Y1.780 E2.79044
G1 X12.346 Y1.590 E2.83990
G1 X13.266 Y1.420 E2.89824
G1 X14.036 Y1.320 E2.94667
G1 X14.976 Y1.260 E3.00541
G1 X138.076 Y1.250 E10.68226
G1 X139.706 Y1.460 E10.78475
G1 X141.226 Y2.060 E10.88666
G1 X142.546 Y3.030 E10.98882
G1 X146.826 Y7.090 E11.35671
G1 X147.686 Y8.090 E11.43897
G1 X148.326 Y9.240 E11.52104
G1 X148.726 Y10.500 E11.60348
G1 X148.856 Y11.810 E11.68558
G1 X148.856 Y134.480 E19.33562
G1 X148.796 Y135.770 E19.41615
G1 X148.696 Y136.600 E19.46829
G1 X148.526 Y137.520 E19.52663
G1 X148.336 Y138.290 E19.57609
G1 X148.056 Y139.180 E19.63428
G1 X147.776 Y139.910 E19.68304
G1 X147.386 Y140.770 E19.74193
G1 X147.036 Y141.430 E19.78852
G1 X146.556 Y142.230 E19.84670
G1 X146.076 Y142.930 E19.89963
G1 X145.496 Y143.660 E19.95777
G1 X145.036 Y144.180 E20.00107
G1 X144.376 Y144.850 E20.05972
G1 X143.716 Y145.440 E20.11493
G1 X142.976 Y146.010 E20.17318
G1 X142.406 Y146.400 E20.21625
G1 X141.606 Y146.890 E20.27475
G1 X140.856 Y147.280 E20.32747
G1 X140.006 Y147.660 E20.38554
G1 X139.306 Y147.930 E20.43233
G1 X138.416 Y148.210 E20.49051
G1 X137.646 Y148.400 E20.53997
G1 X136.726 Y148.570 E20.59831
G1 X135.956 Y148.670 E20.64674
G1 X135.006 Y148.730 E20.70610
G1 X11.916 Y148.740 E28.38233
G1 X10.296 Y148.530 E28.48420
G1 X8.766 Y147.930 E28.58669
G1 X7.446 Y146.960 E28.68885
G1 X3.156 Y142.900 E29.05720
G1 X2.296 Y141.900 E29.13945
G1 X1.656 Y140.750 E29.22153
G1 X1.256 Y139.490 E29.30397
G1 X1.126 Y138.180 E29.38607
G1 X1.126 Y15.510 E37.03610
G1 X1.136 Y15.100 E37.06168
G1 X1.196 Y14.160 E37.12042
G1 X1.296 Y13.390 E37.16884
G1 X1.466 Y12.470 E37.22719
G1 X1.656 Y11.700 E37.27665
G1 X1.936 Y10.810 E37.33483
G1 X2.186 Y10.130 E37.38001
G1 X2.566 Y9.270 E37.43865
G1 X2.976 Y8.500 E37.49305
G1 X3.466 Y7.700 E37.55156
G1 X3.886 Y7.100 E37.59723
G1 X4.456 Y6.370 E37.65499
G1 X4.976 Y5.770 E37.70450
G1 X5.593 Y5.153 E37.75892
G1 X5.646 Y5.100 E37.76359
G1 F3600.000 E35.36359
G92 E0
G1 X46.393 Y77.551 F15000.000
G1 X46.940 Y77.305 F3600.000 E2.40000
G1 X47.123 Y77.222 F720.000 E2.41249
G1 X47.958 Y76.962 E2.46708
G1 X48.819 Y76.804 E2.52167
G1 X49.716 Y76.750 E2.57767
G1 X69.266 Y76.750 E3.79686
G1 X73.250 Y80.516 E4.13877
G1 X73.250 Y100.222 E5.36770
G1 X73.196 Y101.119 E5.42370
G1 X73.038 Y101.980 E5.47829
G1 X72.778 Y102.815 E5.53288
G1 X72.418 Y103.614 E5.58746
G1 X71.966 Y104.363 E5.64205
G1 X71.547 Y104.897 E5.68441
G1 X71.426 Y105.052 E5.69664
G1 X70.807 Y105.671 E5.75123
G1 X70.118 Y106.211 E5.80581
G1 X69.369 Y106.663 E5.86040
G1 X68.749 Y106.942 E5.90276
G1 X68.570 Y107.023 E5.91499
G1 X67.735 Y107.283 E5.96958
G1 X66.874 Y107.441 E6.02416
G1 X65.977 Y107.495 E6.08017
G1 X46.427 Y107.495 E7.29936
G1 X42.443 Y103.729 E7.64126
G1 X42.443 Y84.023 E8.87019
G1 X42.497 Y83.126 E8.92620
G1 X42.655 Y82.265 E8.98079
G1 X42.916 Y81.430 E9.03537
G1 X43.275 Y80.631 E9.08996
G1 X43.728 Y79.882 E9.14455
G1 X44.267 Y79.193 E9.19914
G1 X44.886 Y78.574 E9.25372
G1 X45.575 Y78.034 E9.30831
G1 X46.025 Y77.763 E9.34107
G1 X46.393 Y77.551
G1 X46.160 Y77.107 F15000.000
G1 X46.945 Y76.754 F576.000 E9.39475
G1 X47.839 Y76.476 E9.45311
G1 X48.759 Y76.307 E9.51147
G1 X49.701 Y76.250 E9.57031
G1 X69.465 Y76.250 E10.80284
G1 X73.750 Y80.301 E11.17058
G1 X73.750 Y100.237 E12.41389
G1 X73.693 Y101.179 E12.47272
G1 X73.524 Y102.100 E12.53108
G1 X73.246 Y102.993 E12.58944
G1 X72.862 Y103.846 E12.64780
G1 X72.378 Y104.647 E12.70616
G1 X71.801 Y105.384 E12.76452
G1 X71.139 Y106.046 E12.82288
G1 X70.402 Y106.623 E12.88124
G1 X69.601 Y107.107 E12.93960
G1 X68.954 Y107.398 E12.98384
G1 X68.748 Y107.491 E12.99796
G1 X67.855 Y107.769 E13.05632
G1 X66.934 Y107.938 E13.11468
G1 X65.992 Y107.995 E13.17351
G1 X46.228 Y107.995 E14.40605
G1 X41.943 Y103.944 E14.77379
G1 X41.943 Y84.008 E16.01710
G1 X42.000 Y83.066 E16.07593
G1 X42.169 Y82.145 E16.13429
G1 X42.447 Y81.252 E16.19265
G1 X42.831 Y80.399 E16.25101
G1 X43.315 Y79.598 E16.30937
G1 X43.893 Y78.861 E16.36773
G1 X44.554 Y78.199 E16.42609
G1 X45.291 Y77.622 E16.48445
G1 X45.685 Y77.384 E16.51319
G1 X46.160 Y77.107
G1 X46.025 Y77.763 F3600.000 E14.11319
G92 E0
G1 X72.588 Y80.570 F15000.000
G1 X72.909 Y80.891 F3600.000 E2.40000
G1 X72.909 Y80.891 F2880.000
G1 X72.909 Y81.601 E2.44454
G1 X68.399 Y77.091 E2.84435
G1 X67.688 Y77.091 E2.88889
G1 X72.909 Y82.312 E3.35169
G1 X72.909 Y83.023 E3.39623
G1 X66.977 Y77.091 E3.92202
G1 X66.267 Y77.091 E3.96656
G1 X72.909 Y83.733 E4.55534
G1 X72.909 Y84.444 E4.59989
G1 X65.556 Y77.091 E5.25166
G1 X64.845 Y77.091 E5.29620
G1 X72.909 Y85.155 E6.01096
G1 X72.909 Y85.865 E6.05550
G1 X64.135 Y77.091 E6.83326
G1 X63.424 Y77.091 E6.87780
G1 X72.909 Y86.576 E7.71855
G1 X72.909 Y87.287 E7.76309
G1 X62.713 Y77.091 E8.66682
G1 X62.003 Y77.091 E8.71136
G1 X72.909 Y87.997 E9.67809
G1 X72.909 Y88.708 E9.72263
G1 X61.292 Y77.091 E10.75235
G1 X60.581 Y77.091 E10.79689
G1 X72.909 Y89.419 E11.88960
G1 X72.909 Y90.129 E11.93414
G1 X59.871 Y77.091 E13.08984
G1 X59.160 Y77.091 E13.13439
G1 X72.909 Y90.840 E14.35308
G1 X72.909 Y91.551 E14.39762
G1 X58.449 Y77.091 E15.67930
G1 X57.739 Y77.091 E15.72384
G1 X72.909 Y92.261 E17.06852
G1 X72.909 Y92.972 E17.11306
G1 X57.028 Y77.091 E18.52072
G1 X56.317 Y77.091 E18.56526
G1 X72.909 Y93.683 E20.03592
G1 X72.909 Y94.393 E20.08046
G1 X55.607 Y77.091 E21.61411
G1 X54.896 Y77.091 E21.65865
G1 X72.909 Y95.104 E23.25528
G1 X72.909 Y95.815 E23.29983
G1 X54.185 Y77.091 E24.95945
G1 X53.475 Y77.091 E25.00400
G1 X72.909 Y96.525 E26.72661
G1 X72.909 Y97.236 E26.77116
G1 X52.764 Y77.091 E28.55677
G1 X52.053 Y77.091 E28.60131
G1 X72.909 Y97.947 E30.44991
G1 X72.909 Y98.657 E30.49445
G1 X51.343 Y77.091 E32.40604
G1 X50.632 Y77.091 E32.45058
G1 X72.909 Y99.368 E34.42517
G1 X72.909 Y100.079 E34.46971
G1 X49.921 Y77.091 E36.50728
G1 X49.231 Y77.111 E36.55055
G1 X72.885 Y100.765 E38.64716
G1 X72.822 Y101.413 E38.68793
G1 X48.578 Y77.168 E40.83687
G1 X47.977 Y77.279 E40.87514
G1 X72.712 Y102.013 E43.06756
G1 X72.544 Y102.556 E43.10315
G1 X47.430 Y77.442 E45.32918
G1 X46.912 Y77.635 E45.36381
G1 X72.346 Y103.069 E47.61821
G1 X72.124 Y103.557 E47.65184
G1 X46.422 Y77.855 E49.92998
G1 X45.977 Y78.121 E49.96246
G1 X71.856 Y104.000 E52.25633
G1 X71.568 Y104.422 E52.28838
G1 X45.551 Y78.405 E54.59445
G1 X45.152 Y78.717 E54.62618
G1 X71.255 Y104.821 E56.93990
G1 X70.906 Y105.182 E56.97140
G1 X44.787 Y79.063 E59.28656
G1 X44.438 Y79.424 E59.31806
G1 X70.541 Y105.528 E61.63179
G1 X70.143 Y105.840 E61.66351
G1 X44.126 Y79.823 E63.96959
G1 X43.837 Y80.245 E64.00164
G1 X69.716 Y106.124 E66.29550
G1 X69.271 Y106.390 E66.32799
G1 X43.569 Y80.688 E68.60612
G1 X43.347 Y81.176 E68.63975
G1 X68.781 Y106.610 E70.89415
G1 X68.263 Y106.803 E70.92878
G1 X43.150 Y81.689 E73.15481
G1 X42.981 Y82.232 E73.19040
G1 X67.716 Y106.966 E75.38282
G1 X67.115 Y107.077 E75.42109
G1 X42.871 Y82.832 E77.57003
G1 X42.808 Y83.480 E77.61081
G1 X66.462 Y107.134 E79.70741
G1 X65.772 Y107.154 E79.75068
G1 X42.784 Y84.166 E81.78826
G1 X42.784 Y84.877 E81.83280
G1 X65.061 Y107.154 E83.80738
G1 X64.350 Y107.154 E83.85192
G1 X42.784 Y85.588 E85.76351
G1 X42.784 Y86.298 E85.80806
G1 X63.640 Y107.154 E87.65666
G1 X62.929 Y107.154 E87.70120
G1 X42.784 Y87.009 E89.48681
G1 X42.784 Y87.720 E89.53135
G1 X62.218 Y107.154 E91.25397
G1 X61.508 Y107.154 E91.29851
G1 X42.784 Y88.430 E92.95814
G1 X42.784 Y89.141 E93.00268
G1 X60.797 Y107.154 E94.59932
G1 X60.086 Y107.154 E94.64386
G1 X42.784 Y89.852 E96.17751
G1 X42.784 Y90.562 E96.22205
G1 X59.376 Y107.154 E97.69271
G1 X58.665 Y107.154 E97.73725
G1 X42.784 Y91.273 E99.14491
G1 X42.784 Y91.984 E99.18945
G1 X57.954 Y107.154 E100.53413
G1 X57.244 Y107.154 E100.57867
G1 X42.784 Y92.694 E101.86035
G1 X42.784 Y93.405 E101.90489
G1 X56.533 Y107.154 E103.12358
G1 X55.822 Y107.154 E103.16813
G1 X42.784 Y94.116 E104.32383
G1 X42.784 Y94.826 E104.36837
G1 X55.112 Y107.154 E105.46108
G1 X54.401 Y107.154 E105.50562
G1 X42.784 Y95.537 E106.53534
G1 X42.784 Y96.248 E106.57988
G1 X53.690 Y107.154 E107.54661
G1 X52.980 Y107.154 E107.59115
G1 X42.784 Y96.958 E108.49488
G1 X42.784 Y97.669 E108.53943
G1 X52.269 Y107.154 E109.38017
G1 X51.558 Y107.154 E109.42471
G1 X42.784 Y98.380 E110.20247
G1 X42.784 Y99.090 E110.24701
G1 X50.848 Y107.154 E110.96177
G1 X50.137 Y107.154 E111.00631
G1 X42.784 Y99.801 E111.65809
G1 X42.784 Y100.512 E111.70263
G1 X49.427 Y107.154 E112.29141
G1 X48.716 Y107.154 E112.33595
G1 X42.784 Y101.222 E112.86174
G1 X42.784 Y101.933 E112.90628
G1 X48.005 Y107.154 E113.36908
G1 X47.295 Y107.154 E113.41362
G1 X42.784 Y102.644 E113.81343
G1 X42.784 Y103.354 E113.85797
G1 X43.105 Y103.675 E113.88641
G1 F3600.000 E111.48641
G92 E0
G1 X76.750 Y69.409 F15000.000
G1 X76.750 Y68.809 F3600.000 E2.40000
G1 X76.750 Y49.778 F720.000 E3.58684
G1 X76.804 Y48.881 E3.64284
G1 X76.962 Y48.020 E3.69743
G1 X77.222 Y47.185 E3.75202
G1 X77.582 Y46.386 E3.80660
G1 X77.933 Y45.805 E3.84896
G1 X78.034 Y45.637 E3.86119
G1 X78.574 Y44.948 E3.91578
G1 X79.193 Y44.329 E3.97037
G1 X79.882 Y43.789 E4.02495
G1 X80.631 Y43.337 E4.07954
G1 X81.251 Y43.058 E4.12190
G1 X81.430 Y42.977 E4.13413
G1 X82.265 Y42.717 E4.18872
G1 X83.126 Y42.559 E4.24330
G1 X84.023 Y42.505 E4.29931
G1 X103.573 Y42.505 E5.51850
G1 X107.557 Y46.271 E5.86040
G1 X107.557 Y65.977 E7.08933
G1 X107.503 Y66.874 E7.14534
G1 X107.345 Y67.735 E7.19993
G1 X107.084 Y68.570 E7.25451
G1 X106.725 Y69.369 E7.30910
G1 X106.272 Y70.118 E7.36369
G1 X105.733 Y70.807 E7.41828
G1 X105.114 Y71.426 E7.47286
G1 X104.425 Y71.966 E7.52745
G1 X103.675 Y72.418 E7.58204
G1 X103.056 Y72.697 E7.62439
G1 X102.877 Y72.778 E7.63663
G1 X102.042 Y73.038 E7.69121
G1 X101.181 Y73.196 E7.74580
G1 X100.284 Y73.250 E7.80180
G1 X80.734 Y73.250 E9.02099
G1 X77.004 Y69.724 E9.34107
G1 X76.750 Y69.409
G1 X76.250 Y69.624 F15000.000
G1 X76.250 Y49.763 F576.000 E10.57970
G1 X76.307 Y48.821 E10.63853
G1 X76.476 Y47.900 E10.69689
G1 X76.754 Y47.007 E10.75525
G1 X77.138 Y46.154 E10.81361
G1 X77.622 Y45.353 E10.87197
G1 X78.199 Y44.616 E10.93033
G1 X78.861 Y43.954 E10.98869
G1 X79.598 Y43.377 E11.04705
G1 X80.399 Y42.893 E11.10541
G1 X81.046 Y42.602 E11.14965
G1 X81.252 Y42.509 E11.16377
G1 X82.145 Y42.231 E11.22213
G1 X83.066 Y42.062 E11.28049
G1 X84.008 Y42.005 E11.33932
G1 X103.772 Y42.005 E12.57186
G1 X108.057 Y46.056 E12.93960
G1 X108.057 Y65.992 E14.18291
G1 X108.000 Y66.934 E14.24174
G1 X107.831 Y67.855 E14.30010
G1 X107.553 Y68.748 E14.35846
G1 X107.169 Y69.601 E14.41682
G1 X106.685 Y70.402 E14.47518
G1 X106.107 Y71.139 E14.53354
G1 X105.446 Y71.801 E14.59190
G1 X104.709 Y72.378 E14.65026
G1 X103.908 Y72.862 E14.70862
G1 X103.261 Y73.153 E14.75286
G1 X103.055 Y73.246 E14.76698
G1 X102.161 Y73.524 E14.82534
G1 X101.241 Y73.693 E14.88370
G1 X100.299 Y73.750 E14.94253
G1 X80.535 Y73.750 E16.17507
G1 X76.595 Y70.026 E16.51319
G1 X76.250 Y69.624
G1 X77.412 Y69.430 F15000.000
G1 X77.091 Y69.109 F1152.000 E16.54162
G1 X77.091 Y68.399 E16.58617
G1 X81.601 Y72.909 E16.98597
G1 X82.312 Y72.909 E17.03052
G1 X77.091 Y67.688 E17.49332
G1 X77.091 Y66.977 E17.53786
G1 X83.023 Y72.909 E18.06365
G1 X83.733 Y72.909 E18.10819
G1 X77.091 Y66.267 E18.69697
G1 X77.091 Y65.556 E18.74151
G1 X84.444 Y72.909 E19.39329
G1 X85.155 Y72.909 E19.43783
G1 X77.091 Y64.845 E20.15259
G1 X77.091 Y64.135 E20.19713
G1 X85.865 Y72.909 E20.97489
G1 X86.576 Y72.909 E21.01943
G1 X77.091 Y63.424 E21.86017
G1 X77.091 Y62.713 E21.90471
G1 X87.287 Y72.909 E22.80845
G1 X87.997 Y72.909 E22.85299
G1 X77.091 Y62.003 E23.81972
G1 X77.091 Y61.292 E23.86426
G1 X88.708 Y72.909 E24.89398
G1 X89.419 Y72.909 E24.93852
G1 X77.091 Y60.581 E26.03123
G1 X77.091 Y59.871 E26.07577
G1 X90.129 Y72.909 E27.23147
G1 X90.840 Y72.909 E27.27602
G1 X77.091 Y59.160 E28.49471
G1 X77.091 Y58.449 E28.53925
G1 X91.551 Y72.909 E29.82093
G1 X92.261 Y72.909 E29.86547
G1 X77.091 Y57.739 E31.21015
G1 X77.091 Y57.028 E31.25469
G1 X92.972 Y72.909 E32.66235
G1 X93.683 Y72.909 E32.70689
G1 X77.091 Y56.317 E34.17755
G1 X77.091 Y55.607 E34.22209
G1 X94.393 Y72.909 E35.75574
G1 X95.104 Y72.909 E35.80028
G1 X77.091 Y54.896 E37.39692
G1 X77.091 Y54.185 E37.44146
G1 X95.815 Y72.909 E39.10109
G1 X96.525 Y72.909 E39.14563
G1 X77.091 Y53.475 E40.86825
G1 X77.091 Y52.764 E40.91279
G1 X97.236 Y72.909 E42.69840
G1 X97.947 Y72.909 E42.74294
G1 X77.091 Y52.053 E44.59154
G1 X77.091 Y51.343 E44.63608
G1 X98.657 Y72.909 E46.54768
G1 X99.368 Y72.909 E46.59222
G1 X77.091 Y50.632 E48.56680
G1 X77.091 Y49.921 E48.61134
G1 X100.079 Y72.909 E50.64892
G1 X100.769 Y72.889 E50.69219
G1 X77.115 Y49.235 E52.78879
G1 X77.178 Y48.587 E52.82957
G1 X101.422 Y72.832 E54.97851
G1 X102.023 Y72.721 E55.01678
G1 X77.288 Y47.987 E57.20920
G1 X77.456 Y47.444 E57.24479
G1 X102.570 Y72.558 E59.47082
G1 X103.088 Y72.365 E59.50545
G1 X77.654 Y46.931 E61.75985
G1 X77.876 Y46.443 E61.79348
G1 X103.578 Y72.145 E64.07161
G1 X104.023 Y71.879 E64.10410
G1 X78.144 Y46.000 E66.39796
G1 X78.432 Y45.578 E66.43001
G1 X104.449 Y71.595 E68.73609
G1 X104.848 Y71.283 E68.76781
G1 X78.745 Y45.179 E71.08154
G1 X79.094 Y44.818 E71.11304
G1 X105.213 Y70.937 E73.42820
G1 X105.562 Y70.576 E73.45970
G1 X79.459 Y44.472 E75.77342
G1 X79.857 Y44.160 E75.80515
G1 X105.874 Y70.177 E78.11122
G1 X106.163 Y69.755 E78.14327
G1 X80.284 Y43.876 E80.43714
G1 X80.729 Y43.610 E80.46962
G1 X106.431 Y69.312 E82.74776
G1 X106.653 Y68.824 E82.78138
G1 X81.219 Y43.390 E85.03579
G1 X81.737 Y43.197 E85.07042
G1 X106.850 Y68.311 E87.29645
G1 X107.019 Y67.768 E87.33204
G1 X82.284 Y43.034 E89.52446
G1 X82.885 Y42.923 E89.56273
G1 X107.129 Y67.168 E91.71167
G1 X107.192 Y66.520 E91.75244
G1 X83.538 Y42.866 E93.84905
G1 X84.228 Y42.846 E93.89232
G1 X107.216 Y65.834 E95.92989
G1 X107.216 Y65.123 E95.97443
G1 X84.939 Y42.846 E97.94902
G1 X85.650 Y42.846 E97.99356
G1 X107.216 Y64.412 E99.90515
G1 X107.216 Y63.702 E99.94969
G1 X86.360 Y42.846 E101.79829
G1 X87.071 Y42.846 E101.84283
G1 X107.216 Y62.991 E103.62844
G1 X107.216 Y62.280 E103.67298
G1 X87.782 Y42.846 E105.39560
G1 X88.492 Y42.846 E105.44015
G1 X107.216 Y61.570 E107.09977
G1 X107.216 Y60.859 E107.14432
G1 X89.203 Y42.846 E108.74095
G1 X89.914 Y42.846 E108.78549
G1 X107.216 Y60.148 E110.31914
G1 X107.216 Y59.438 E110.36368
G1 X90.624 Y42.846 E111.83434
G1 X91.335 Y42.846 E111.87888
G1 X107.216 Y58.727 E113.28654
G1 X107.216 Y58.016 E113.33108
G1 X92.046 Y42.846 E114.67576
G1 X92.756 Y42.846 E114.72030
G1 X107.216 Y57.306 E116.00198
G1 X107.216 Y56.595 E116.04652
G1 X93.467 Y42.846 E117.26521
G1 X94.178 Y42.846 E117.30976
G1 X107.216 Y55.884 E118.46546
G1 X107.216 Y55.174 E118.51000
G1 X94.888 Y42.846 E119.60271
G1 X95.599 Y42.846 E119.64725
G1 X107.216 Y54.463 E120.67697
G1 X107.216 Y53.752 E120.72151
G1 X96.310 Y42.846 E121.68823
G1 X97.020 Y42.846 E121.73278
G1 X107.216 Y53.042 E122.63651
G1 X107.216 Y52.331 E122.68105
G1 X97.731 Y42.846 E123.52180
G1 X98.442 Y42.846 E123.56634
G1 X107.216 Y51.620 E124.34409
G1 X107.216 Y50.910 E124.38864
G1 X99.152 Y42.846 E125.10340
G1 X99.863 Y42.846 E125.14794
G1 X107.216 Y50.199 E125.79971
G1 X107.216 Y49.488 E125.84425
G1 X100.573 Y42.846 E126.43304
