; generated by Slic3r 0.9.9-dev on 2014-01-07 at 16:03:28

; M-PLA-05-03-1

; layer_height = 0.3
; perimeters = 2
; top_solid_layers = 3
; bottom_solid_layers = 2
; fill_density = 0.2
; perimeter_speed = 40
; infill_speed = 40
; travel_speed = 250
; scale = 1
; nozzle_diameter = 0.5
; filament_diameter = 1.70
; extrusion_multiplier = 1.0
; perimeters extrusion width = 0.50mm
; infill extrusion width = 0.50mm
; first layer extrusion width = 0.50mm

M107
M190 S57 ; wait for bed temperature to be reached
M104 S200 ; set temperature
G28 X0 Y0
G1 X75 Y75 F12000
G28 Z0
G1 Z0.3 F200
G1 X15 Y20 F12000
M109 S200 ; wait for temperature to be reached
G90 ; use absolute coordinates
G21 ; set units to millimeters
G92 E0
M82 ; use absolute distances for extrusion
G1 F3600.000 E-2.40000
G92 E0
G1 Z0.300 F15000.000
G1 X10.700 Y5.190
G1 X10.802 Y5.018 F3600.000 E2.40000
G1 X10.990 Y4.700 F1200.000 E2.42441
G1 X11.340 Y4.220 E2.46367
G1 X11.970 Y3.590 E2.52255
G1 X12.450 Y3.240 E2.56181
G1 X12.940 Y2.950 E2.59943
G1 X13.190 Y2.830 E2.61776
G1 X13.500 Y2.700 E2.63997
G1 X13.820 Y2.600 E2.66213
G1 X14.090 Y2.530 E2.68056
G1 X14.610 Y2.440 E2.71544
G1 X15.260 Y2.390 E2.75852
G1 X88.230 Y2.390 E7.58075
G1 X88.880 Y2.440 E7.62383
G1 X89.400 Y2.530 E7.65871
G1 X89.990 Y2.700 E7.69928
G1 X90.300 Y2.830 E7.72150
G1 X90.550 Y2.950 E7.73982
G1 X90.980 Y3.200 E7.77270
G1 X137.310 Y34.070 E11.45182
G1 X137.800 Y34.420 E11.49161
G1 X138.240 Y34.800 E11.53003
G1 X138.650 Y35.220 E11.56882
G1 X139.000 Y35.700 E11.60808
G1 X139.290 Y36.190 E11.64571
G1 X139.540 Y36.750 E11.68623
G1 X139.640 Y37.070 E11.70839
G1 X139.760 Y37.530 E11.73981
G1 X139.840 Y37.970 E11.76936
G1 X139.870 Y38.410 E11.79850
G1 X139.840 Y111.480 E16.62734
G1 X139.810 Y112.010 E16.66242
G1 X139.770 Y112.330 E16.68374
G1 X139.710 Y112.650 E16.70525
G1 X139.540 Y113.240 E16.74583
G1 X139.290 Y113.800 E16.78636
G1 X139.000 Y114.290 E16.82398
G1 X138.650 Y114.770 E16.86324
G1 X138.020 Y115.400 E16.92212
G1 X137.540 Y115.750 E16.96138
G1 X90.980 Y146.790 E20.65938
G1 X90.550 Y147.040 E20.69225
G1 X90.300 Y147.160 E20.71058
G1 X89.990 Y147.290 E20.73279
G1 X89.400 Y147.460 E20.77337
G1 X88.760 Y147.560 E20.81617
G1 X88.230 Y147.590 E20.85126
G1 X15.260 Y147.590 E25.67349
G1 X14.730 Y147.560 E25.70857
G1 X14.410 Y147.520 E25.72988
G1 X14.090 Y147.460 E25.75139
G1 X13.500 Y147.290 E25.79197
G1 X12.940 Y147.040 E25.83250
G1 X12.450 Y146.750 E25.87013
G1 X11.970 Y146.400 E25.90938
G1 X11.340 Y145.770 E25.96826
G1 X11.150 Y145.520 E25.98901
G1 X10.990 Y145.290 E26.00753
G1 X10.700 Y144.800 E26.04516
G1 X10.580 Y144.550 E26.06348
G1 X10.450 Y144.240 E26.08570
G1 X10.280 Y143.650 E26.12628
G1 X10.190 Y143.130 E26.16115
G1 X10.140 Y142.480 E26.20423
G1 X10.140 Y7.510 E35.12374
G1 X10.190 Y6.860 E35.16682
G1 X10.280 Y6.340 E35.20170
G1 X10.450 Y5.750 E35.24227
G1 X10.668 Y5.258 E35.27785
G1 X10.700 Y5.190 E35.28280
G1 F3600.000 E32.88280
G92 E0
G1 X20.366 Y82.393 F15000.000
G1 X20.750 Y82.360 F3600.000 E2.40000
G1 X20.750 Y82.360 F2400.000
G1 X21.208 Y82.400 E2.43042
G1 X21.653 Y82.519 E2.46083
G1 X22.070 Y82.713 E2.49125
G1 X22.269 Y82.853 E2.50732
G1 X22.447 Y82.977 E2.52166
G1 X22.773 Y83.303 E2.55208
G1 X23.037 Y83.680 E2.58249
G1 X23.231 Y84.097 E2.61291
G1 X23.350 Y84.542 E2.64332
G1 X23.390 Y85.000 E2.67374
G1 X23.350 Y85.458 E2.70415
G1 X23.231 Y85.903 E2.73457
G1 X23.128 Y86.123 E2.75064
G1 X23.037 Y86.320 E2.76498
G1 X22.773 Y86.697 E2.79540
G1 X22.447 Y87.023 E2.82581
G1 X22.070 Y87.287 E2.85623
G1 X21.653 Y87.481 E2.88664
G1 X21.208 Y87.600 E2.91706
G1 X20.750 Y87.640 E2.94747
G1 X20.292 Y87.600 E2.97789
G1 X19.847 Y87.481 E3.00830
G1 X19.430 Y87.287 E3.03872
G1 X19.053 Y87.023 E3.06913
G1 X18.727 Y86.697 E3.09955
G1 X18.463 Y86.320 E3.12996
G1 X18.269 Y85.903 E3.16038
G1 X18.150 Y85.458 E3.19079
G1 X18.110 Y85.000 E3.22121
G1 X18.150 Y84.542 E3.25162
G1 X18.269 Y84.097 E3.28204
G1 X18.463 Y83.680 E3.31246
G1 X18.727 Y83.303 E3.34287
G1 X19.053 Y82.977 E3.37329
G1 X19.430 Y82.713 E3.40370
G1 X19.847 Y82.519 E3.43412
G1 X19.978 Y82.484 E3.44305
G1 X20.366 Y82.393
G1 X20.279 Y81.899 F15000.000
G1 X20.750 Y81.858 F780.000 E3.47429
G1 X21.296 Y81.905 E3.51049
G1 X21.573 Y81.980 E3.52945
G1 X21.825 Y82.047 E3.54669
G1 X22.321 Y82.279 E3.58288
G1 X22.770 Y82.593 E3.61908
G1 X23.157 Y82.980 E3.65528
G1 X23.471 Y83.429 E3.69147
G1 X23.703 Y83.925 E3.72767
G1 X23.845 Y84.454 E3.76387
G1 X23.892 Y85.000 E3.80007
G1 X23.845 Y85.546 E3.83626
G1 X23.703 Y86.075 E3.87246
G1 X23.581 Y86.335 E3.89142
G1 X23.471 Y86.571 E3.90866
G1 X23.157 Y87.020 E3.94485
G1 X22.770 Y87.407 E3.98105
G1 X22.321 Y87.721 E4.01725
G1 X21.825 Y87.953 E4.05344
G1 X21.296 Y88.095 E4.08964
G1 X20.750 Y88.142 E4.12584
G1 X20.204 Y88.095 E4.16204
G1 X19.675 Y87.953 E4.19823
G1 X19.179 Y87.721 E4.23443
G1 X18.730 Y87.407 E4.27062
G1 X18.343 Y87.020 E4.30682
G1 X18.029 Y86.571 E4.34302
G1 X17.797 Y86.075 E4.37922
G1 X17.655 Y85.546 E4.41541
G1 X17.591 Y84.807 E4.46444
G1 X17.561 Y84.807 E4.46640
G1 X17.797 Y83.925 E4.52670
G1 X18.029 Y83.429 E4.56290
G1 X18.343 Y82.980 E4.59909
G1 X18.730 Y82.593 E4.63529
G1 X19.179 Y82.279 E4.67149
G1 X19.675 Y82.047 E4.70768
G1 X19.770 Y82.022 E4.71414
G1 X20.279 Y81.899
G1 F3600.000 E2.31414
G92 E0
G1 X80.249 Y65.831 F15000.000
G1 X80.150 Y65.458 F3600.000 E2.40000
G1 X80.150 Y65.458 F2400.000
G1 X80.110 Y65.000 E2.43041
G1 X80.150 Y64.542 E2.46083
G1 X80.269 Y64.097 E2.49125
G1 X80.372 Y63.877 E2.50732
G1 X80.463 Y63.680 E2.52166
G1 X80.727 Y63.303 E2.55208
G1 X81.053 Y62.977 E2.58249
G1 X81.430 Y62.713 E2.61291
G1 X81.847 Y62.519 E2.64332
G1 X82.292 Y62.400 E2.67374
G1 X82.750 Y62.360 E2.70415
G1 X83.208 Y62.400 E2.73457
G1 X83.653 Y62.519 E2.76498
G1 X84.070 Y62.713 E2.79540
G1 X84.447 Y62.977 E2.82581
G1 X84.773 Y63.303 E2.85623
G1 X85.037 Y63.680 E2.88664
G1 X85.231 Y64.097 E2.91706
G1 X85.350 Y64.542 E2.94747
G1 X85.390 Y65.000 E2.97789
G1 X85.350 Y65.458 E3.00830
G1 X85.231 Y65.903 E3.03872
G1 X85.037 Y66.320 E3.06913
G1 X84.773 Y66.697 E3.09955
G1 X84.447 Y67.023 E3.12996
G1 X84.070 Y67.287 E3.16038
G1 X83.653 Y67.481 E3.19079
G1 X83.208 Y67.600 E3.22121
G1 X82.750 Y67.640 E3.25162
G1 X82.292 Y67.600 E3.28204
G1 X81.847 Y67.481 E3.31245
G1 X81.430 Y67.287 E3.34287
G1 X81.053 Y67.023 E3.37328
G1 X80.727 Y66.697 E3.40370
G1 X80.463 Y66.320 E3.43411
G1 X80.406 Y66.198 E3.44305
G1 X80.249 Y65.831
G1 X79.778 Y66.002 F15000.000
G1 X79.655 Y65.546 F780.000 E3.47429
G1 X79.608 Y65.000 E3.51049
G1 X79.655 Y64.454 E3.54669
G1 X79.797 Y63.925 E3.58288
G1 X79.919 Y63.665 E3.60185
G1 X80.029 Y63.429 E3.61908
G1 X80.343 Y62.980 E3.65528
G1 X80.730 Y62.593 E3.69147
G1 X81.179 Y62.279 E3.72767
G1 X81.675 Y62.047 E3.76387
G1 X82.204 Y61.905 E3.80006
G1 X82.750 Y61.858 E3.83627
G1 X83.296 Y61.905 E3.87246
G1 X83.825 Y62.047 E3.90865
G1 X84.085 Y62.169 E3.92762
G1 X84.321 Y62.279 E3.94485
G1 X84.770 Y62.593 E3.98105
G1 X85.157 Y62.980 E4.01725
G1 X85.471 Y63.429 E4.05344
G1 X85.703 Y63.925 E4.08964
G1 X85.845 Y64.454 E4.12584
G1 X85.892 Y65.000 E4.16203
G1 X85.845 Y65.546 E4.19823
G1 X85.703 Y66.075 E4.23443
G1 X85.471 Y66.571 E4.27062
G1 X85.157 Y67.020 E4.30682
G1 X84.770 Y67.407 E4.34302
G1 X84.321 Y67.721 E4.37921
G1 X83.825 Y67.953 E4.41541
G1 X83.296 Y68.095 E4.45161
G1 X82.750 Y68.142 E4.48780
G1 X82.204 Y68.095 E4.52400
G1 X81.675 Y67.953 E4.56020
G1 X81.179 Y67.721 E4.59640
G1 X80.730 Y67.407 E4.63259
G1 X80.343 Y67.020 E4.66879
G1 X80.029 Y66.571 E4.70499
G1 X79.987 Y66.483 E4.71144
G1 X79.778 Y66.002
G1 F3600.000 E2.31144
G92 E0
G1 X89.850 Y54.586 F15000.000
G1 X89.850 Y54.786 F3600.000 E2.40000
G1 X89.850 Y95.489 F1200.000 E5.08987
G1 X89.825 Y95.778 E5.10902
G1 X89.753 Y96.047 E5.12744
G1 X89.635 Y96.300 E5.14586
G1 X89.475 Y96.528 E5.16428
G1 X89.367 Y96.636 E5.17435
G1 X89.278 Y96.725 E5.18270
G1 X89.050 Y96.885 E5.20112
G1 X88.797 Y97.003 E5.21954
G1 X88.528 Y97.075 E5.23796
G1 X88.239 Y97.100 E5.25710
G1 X15.261 Y97.100 E10.07987
G1 X14.972 Y97.075 E10.09901
G1 X14.703 Y97.003 E10.11744
G1 X14.450 Y96.885 E10.13585
G1 X14.222 Y96.725 E10.15428
G1 X14.114 Y96.617 E10.16435
G1 X14.025 Y96.528 E10.17270
G1 X13.865 Y96.300 E10.19112
G1 X13.747 Y96.047 E10.20954
G1 X13.675 Y95.778 E10.22796
G1 X13.650 Y95.489 E10.24710
G1 X13.650 Y54.511 E12.95515
G1 X13.675 Y54.222 E12.97429
G1 X13.747 Y53.953 E12.99271
G1 X13.865 Y53.700 E13.01113
G1 X14.025 Y53.472 E13.02955
G1 X14.133 Y53.364 E13.03962
G1 X14.222 Y53.275 E13.04797
G1 X14.450 Y53.115 E13.06639
G1 X14.703 Y52.997 E13.08481
G1 X14.972 Y52.925 E13.10323
G1 X15.261 Y52.900 E13.12237
G1 X88.239 Y52.900 E17.94514
G1 X88.528 Y52.925 E17.96429
G1 X88.797 Y52.997 E17.98271
G1 X89.050 Y53.115 E18.00113
G1 X89.278 Y53.275 E18.01955
G1 X89.475 Y53.472 E18.03797
G1 X89.635 Y53.700 E18.05639
G1 X89.753 Y53.953 E18.07481
G1 X89.816 Y54.188 E18.09089
G1 X89.850 Y54.586
G1 X89.350 Y54.608 F15000.000
G1 X89.350 Y95.467 F1200.000 E20.79110
G1 X89.330 Y95.690 E20.80591
G1 X89.281 Y95.875 E20.81855
G1 X89.200 Y96.049 E20.83119
G1 X89.090 Y96.205 E20.84382
G1 X89.014 Y96.282 E20.85101
G1 X88.955 Y96.340 E20.85646
G1 X88.799 Y96.450 E20.86910
G1 X88.625 Y96.531 E20.88174
G1 X88.441 Y96.580 E20.89438
G1 X88.217 Y96.600 E20.90919
G1 X15.283 Y96.600 E25.72907
G1 X15.059 Y96.580 E25.74388
G1 X14.875 Y96.531 E25.75652
G1 X14.701 Y96.450 E25.76916
G1 X14.545 Y96.340 E25.78180
G1 X14.468 Y96.264 E25.78898
G1 X14.410 Y96.205 E25.79444
G1 X14.300 Y96.049 E25.80707
G1 X14.219 Y95.875 E25.81971
G1 X14.170 Y95.691 E25.83235
G1 X14.150 Y95.467 E25.84716
G1 X14.150 Y54.533 E28.55232
G1 X14.170 Y54.309 E28.56713
G1 X14.219 Y54.125 E28.57977
G1 X14.300 Y53.951 E28.59241
G1 X14.410 Y53.795 E28.60505
G1 X14.486 Y53.718 E28.61223
G1 X14.545 Y53.660 E28.61769
G1 X14.701 Y53.550 E28.63033
G1 X14.875 Y53.469 E28.64296
G1 X15.059 Y53.420 E28.65560
G1 X15.283 Y53.400 E28.67041
G1 X88.217 Y53.400 E33.49030
G1 X88.441 Y53.420 E33.50511
G1 X88.625 Y53.469 E33.51774
G1 X88.799 Y53.550 E33.53038
G1 X88.955 Y53.660 E33.54302
G1 X89.090 Y53.795 E33.55566
G1 X89.200 Y53.951 E33.56830
G1 X89.266 Y54.093 E33.57865
G1 X89.350 Y54.608
G1 X88.838 Y54.250 F15000.000
G1 X88.519 Y53.930 F1200.000 E33.60861
G1 X87.620 Y53.741 E33.66955
G1 X89.009 Y55.130 E33.79988
G1 X89.009 Y55.840 E33.84695
G1 X86.910 Y53.741 E34.04385
G1 X86.200 Y53.741 E34.09092
G1 X89.009 Y56.550 E34.35439
G1 X89.009 Y57.259 E34.40146
G1 X85.491 Y53.741 E34.73149
G1 X84.781 Y53.741 E34.77856
G1 X89.009 Y57.969 E35.17515
G1 X89.009 Y58.679 E35.22222
G1 X84.071 Y53.741 E35.68539
G1 X83.362 Y53.741 E35.73246
G1 X89.009 Y59.388 E36.26219
G1 X89.009 Y60.098 E36.30926
G1 X82.652 Y53.741 E36.90555
G1 X81.942 Y53.741 E36.95262
G1 X89.009 Y60.808 E37.61549
G1 X89.009 Y61.517 E37.66256
G1 X81.233 Y53.741 E38.39198
G1 X80.523 Y53.741 E38.43905
G1 X89.009 Y62.227 E39.23505
G1 X89.009 Y62.937 E39.28212
G1 X79.813 Y53.741 E40.14468
G1 X79.104 Y53.741 E40.19175
G1 X89.009 Y63.646 E41.12088
G1 X89.009 Y64.356 E41.16795
G1 X78.394 Y53.741 E42.16364
G1 X77.684 Y53.741 E42.21071
G1 X89.009 Y65.066 E43.27297
G1 F3600.000 E40.87297
G92 E0
G1 X89.009 Y75.711 F15000.000
G1 X88.868 Y75.569 F3600.000 E2.40000
G1 X81.644 Y68.345 F1200.000 E3.07761
G1 X82.484 Y68.476 E3.13398
G1 X89.009 Y75.001 E3.74608
G1 X89.009 Y74.292 E3.79315
G1 X83.153 Y68.436 E4.34241
G1 X83.723 Y68.296 E4.38132
G1 X89.009 Y73.582 E4.87714
G1 X89.009 Y72.872 E4.92421
G1 X84.223 Y68.086 E5.37319
G1 X84.666 Y67.819 E5.40750
G1 X89.009 Y72.163 E5.81487
G1 X89.009 Y71.453 E5.86194
G1 X85.061 Y67.505 E6.23228
G1 X85.410 Y67.144 E6.26556
G1 X89.009 Y70.743 E6.60317
G1 X89.009 Y70.033 E6.65024
G1 X85.702 Y66.727 E6.96043
G1 X85.938 Y66.253 E6.99553
G1 X89.009 Y69.324 E7.28360
G1 X89.009 Y68.614 E7.33067
G1 X86.114 Y65.719 E7.60224
G1 X86.212 Y65.107 E7.64334
G1 X89.009 Y67.904 E7.90574
G1 X89.009 Y67.195 E7.95281
G1 X86.195 Y64.380 E8.21681
G1 X85.925 Y63.401 E8.28420
G1 X89.009 Y66.485 E8.57352
G1 X89.009 Y65.775 E8.62059
G1 X76.975 Y53.741 E9.74941
G1 X76.265 Y53.741 E9.79648
G1 X84.349 Y61.825 E10.55478
G1 X83.370 Y61.555 E10.62217
G1 X75.555 Y53.741 E11.35516
G1 X74.846 Y53.741 E11.40223
G1 X82.643 Y61.538 E12.13362
G1 X82.031 Y61.636 E12.17472
G1 X74.136 Y53.741 E12.91529
G1 X73.426 Y53.741 E12.96236
G1 X81.497 Y61.812 E13.71942
G1 X81.023 Y62.048 E13.75452
G1 X72.717 Y53.741 E14.53370
G1 X72.007 Y53.741 E14.58077
G1 X80.606 Y62.340 E15.38736
G1 X80.245 Y62.689 E15.42065
G1 X71.297 Y53.741 E16.25997
G1 X70.587 Y53.741 E16.30704
G1 X79.931 Y63.084 E17.18340
G1 X79.664 Y63.527 E17.21771
G1 X69.878 Y53.741 E18.13568
G1 X69.168 Y53.741 E18.18275
G1 X79.454 Y64.027 E19.14757
G1 X79.314 Y64.597 E19.18648
G1 X68.458 Y53.741 E20.20473
G1 X67.749 Y53.741 E20.25180
G1 X79.274 Y65.266 E21.33288
G1 X79.405 Y66.106 E21.38926
G1 X67.039 Y53.741 E22.54912
G1 X66.329 Y53.741 E22.59619
G1 X89.009 Y76.421 E24.72351
G1 X89.009 Y77.130 E24.77058
G1 X65.620 Y53.741 E26.96447
G1 X64.910 Y53.741 E27.01153
G1 X89.009 Y77.840 E29.27199
G1 X89.009 Y78.550 E29.31906
G1 X64.200 Y53.741 E31.64607
G1 X63.491 Y53.741 E31.69314
G1 X89.009 Y79.259 E34.08673
G1 X89.009 Y79.969 E34.13379
G1 X62.781 Y53.741 E36.59394
G1 X62.071 Y53.741 E36.64101
G1 X89.009 Y80.679 E39.16773
G1 X89.009 Y81.388 E39.21480
G1 X61.362 Y53.741 E41.80808
G1 X60.652 Y53.741 E41.85515
G1 X89.009 Y82.098 E44.51500
G1 X89.009 Y82.808 E44.56207
G1 X59.942 Y53.741 E47.28848
G1 X59.233 Y53.741 E47.33555
G1 X89.009 Y83.517 E50.12853
G1 X89.009 Y84.227 E50.17560
G1 X58.523 Y53.741 E53.03515
G1 X57.813 Y53.741 E53.08222
G1 X89.009 Y84.937 E56.00833
G1 X89.009 Y85.646 E56.05540
G1 X57.104 Y53.741 E59.04808
G1 X56.394 Y53.741 E59.09515
G1 X89.009 Y86.356 E62.15439
G1 X89.009 Y87.066 E62.20146
G1 X55.684 Y53.741 E65.32727
G1 X54.975 Y53.741 E65.37434
G1 X89.009 Y87.775 E68.56672
G1 X89.009 Y88.485 E68.61379
G1 X54.265 Y53.741 E71.87273
G1 X53.555 Y53.741 E71.91980
G1 X89.009 Y89.195 E75.24531
G1 X89.009 Y89.904 E75.29238
G1 X52.846 Y53.741 E78.68446
G1 X52.136 Y53.741 E78.73153
G1 X89.009 Y90.614 E82.19017
G1 X89.009 Y91.324 E82.23724
G1 X51.426 Y53.741 E85.76245
G1 X50.717 Y53.741 E85.80952
G1 X89.009 Y92.033 E89.40129
G1 X89.009 Y92.743 E89.44836
G1 X50.007 Y53.741 E93.10670
G1 X49.297 Y53.741 E93.15377
G1 X89.009 Y93.453 E96.87868
G1 X89.009 Y94.162 E96.92575
G1 X48.588 Y53.741 E100.71722
G1 X47.878 Y53.741 E100.76429
G1 X89.009 Y94.872 E104.62233
G1 X89.009 Y95.582 E104.66940
G1 X47.168 Y53.741 E108.59401
G1 X46.458 Y53.741 E108.64108
G1 X88.811 Y96.094 E112.61370
G1 X88.267 Y96.259 E112.65142
G1 X45.749 Y53.741 E116.63957
G1 X45.039 Y53.741 E116.68664
G1 X87.558 Y96.259 E120.67478
G1 X86.848 Y96.259 E120.72185
G1 X44.329 Y53.741 E124.70999
G1 X43.620 Y53.741 E124.75706
G1 X86.138 Y96.259 E128.74520
G1 X85.429 Y96.259 E128.79227
G1 X42.910 Y53.741 E132.78042
G1 X42.200 Y53.741 E132.82749
G1 X84.719 Y96.259 E136.81563
G1 X84.009 Y96.259 E136.86270
G1 X41.491 Y53.741 E140.85084
G1 X40.781 Y53.741 E140.89791
G1 X83.300 Y96.259 E144.88605
G1 X82.590 Y96.259 E144.93312
G1 X40.071 Y53.741 E148.92127
G1 X39.362 Y53.741 E148.96833
G1 X81.880 Y96.259 E152.95648
G1 X81.170 Y96.259 E153.00355
G1 X38.652 Y53.741 E156.99169
G1 X37.942 Y53.741 E157.03876
G1 X80.461 Y96.259 E161.02690
G1 X79.751 Y96.259 E161.07397
G1 X37.233 Y53.741 E165.06212
G1 X36.523 Y53.741 E165.10918
G1 X79.041 Y96.259 E169.09733
G1 X78.332 Y96.259 E169.14440
G1 X35.813 Y53.741 E173.13254
G1 X35.104 Y53.741 E173.17961
G1 X77.622 Y96.259 E177.16775
G1 X76.912 Y96.259 E177.21482
G1 X34.394 Y53.741 E181.20296
G1 X33.684 Y53.741 E181.25003
G1 X76.203 Y96.259 E185.23818
G1 X75.493 Y96.259 E185.28525
G1 X32.975 Y53.741 E189.27339
G1 X32.265 Y53.741 E189.32046
G1 X74.783 Y96.259 E193.30860
G1 X74.074 Y96.259 E193.35567
G1 X31.555 Y53.741 E197.34381
G1 X30.846 Y53.741 E197.39088
G1 X73.364 Y96.259 E201.37903
G1 X72.654 Y96.259 E201.42610
G1 X30.136 Y53.741 E205.41424
G1 X29.426 Y53.741 E205.46131
G1 X71.945 Y96.259 E209.44945
G1 X71.235 Y96.259 E209.49652
G1 X28.717 Y53.741 E213.48466
G1 X28.007 Y53.741 E213.53173
G1 X70.525 Y96.259 E217.51988
G1 X69.816 Y96.259 E217.56695
