; generated by Slic3r 0.9.9-dev on 2014-04-10 at 12:27:59

; M-PLA-05-03-1

; layer_height = 0.3
; perimeters = 2
; top_solid_layers = 3
; bottom_solid_layers = 2
; fill_density = 0.2
; perimeter_speed = 40
; infill_speed = 40
; travel_speed = 250
; scale = 1
; nozzle_diameter = 0.5
; filament_diameter = 1.70
; extrusion_multiplier = 1.0
; perimeters extrusion width = 0.50mm
; infill extrusion width = 0.50mm
; first layer extrusion width = 0.50mm

M107
M190 S57 ; wait for bed temperature to be reached
M104 S200 ; set temperature
G28
G1 Y20 F12000
G1 Z0.3 F200
M109 S200 ; wait for temperature to be reached
G90 ; use absolute coordinates
G21 ; set units to millimeters
G92 E0
M82 ; use absolute distances for extrusion
G1 F3600.000 E-3.20000
G92 E0
G1 Z0.300 F15000.000
G1 X61.934 Y91.225
G1 X62.444 Y90.908 F3600.000 E3.20000
G1 X107.314 Y63.025 F1200.000 E6.69116
G1 X107.584 Y62.875 E6.71158
G1 X108.994 Y62.175 E6.81561
G1 X111.994 Y61.005 E7.02841
G1 X113.514 Y60.575 E7.13280
G1 X113.824 Y60.505 E7.15380
G1 X116.484 Y60.015 E7.33254
G1 X117.924 Y59.855 E7.42829
G1 X118.594 Y59.815 E7.47265
G1 X121.474 Y59.815 E7.66297
G1 X122.104 Y59.855 E7.70469
G1 X123.164 Y59.975 E7.77519
G1 X126.064 Y60.505 E7.97001
G1 X126.354 Y60.565 E7.98958
G1 X127.384 Y60.845 E8.06012
G1 X127.934 Y61.015 E8.09816
G1 X130.904 Y62.175 E8.30887
G1 X131.864 Y62.635 E8.37922
G1 X132.574 Y63.025 E8.43275
G1 X134.874 Y64.455 E8.61173
G1 X135.384 Y64.805 E8.65261
G1 X136.344 Y65.545 E8.73271
G1 X136.554 Y65.725 E8.75099
G1 X138.754 Y67.725 E8.94748
G1 X157.574 Y87.505 E10.75178
G1 X158.284 Y88.615 E10.83886
G1 X158.534 Y89.915 E10.92634
G1 X158.524 Y107.875 E12.11323
G1 X157.184 Y128.695 E13.49197
G1 X157.054 Y129.615 E13.55337
G1 X156.834 Y130.695 E13.62621
G1 X156.654 Y131.325 E13.66951
G1 X156.394 Y132.105 E13.72384
G1 X156.064 Y132.925 E13.78226
G1 X155.944 Y133.185 E13.80118
G1 X155.554 Y133.935 E13.85705
G1 X155.124 Y134.675 E13.91361
G1 X154.764 Y135.225 E13.95705
G1 X154.064 Y136.145 E14.03344
G1 X153.504 Y136.775 E14.08915
G1 X152.884 Y137.395 E14.14709
G1 X152.224 Y137.985 E14.20559
G1 X151.704 Y138.395 E14.24935
G1 X150.974 Y138.905 E14.30820
G1 X150.254 Y139.345 E14.36397
G1 X149.434 Y139.775 E14.42515
G1 X148.684 Y140.115 E14.47957
G1 X147.794 Y140.445 E14.54230
G1 X94.304 Y157.035 E18.24331
G1 X93.784 Y157.155 E18.27858
G1 X93.264 Y157.195 E18.31304
G1 X85.414 Y157.195 E18.83181
G1 X84.444 Y157.055 E18.89658
G1 X83.554 Y156.665 E18.96079
G1 X82.814 Y156.035 E19.02502
G1 X73.714 Y145.895 E19.92540
G1 X73.104 Y145.175 E19.98776
G1 X72.514 Y144.415 E20.05134
G1 X72.114 Y143.825 E20.09845
G1 X71.544 Y142.855 E20.17280
G1 X71.114 Y141.995 E20.23634
G1 X70.774 Y141.205 E20.29318
G1 X70.454 Y140.335 E20.35444
G1 X70.214 Y139.575 E20.40711
G1 X60.414 Y104.645 E22.80459
G1 X60.314 Y104.175 E22.83635
G1 X60.284 Y103.695 E22.86813
G1 X60.284 Y94.195 E23.49594
G1 X60.484 Y93.035 E23.57373
G1 X61.054 Y92.005 E23.65152
G1 X61.878 Y91.275 E23.72428
G1 X61.934 Y91.225 E23.72923
G1 F3600.000 E20.52923
G92 E0
G1 X149.023 Y107.603 F15000.000
G1 X149.323 Y107.084 F3600.000 E3.20000
G1 X150.136 Y105.676 F1200.000 E3.30743
G1 X152.436 Y105.676 E3.45946
G1 X153.587 Y107.668 E3.61150
G1 X152.436 Y109.661 E3.76353
G1 X150.136 Y109.661 E3.91557
G1 X149.223 Y108.080 E4.03621
G1 X149.023 Y107.603
G1 X148.446 Y107.603 F15000.000
G1 X149.847 Y105.176 F780.000 E4.22145
G1 X152.725 Y105.176 E4.41163
G1 X154.164 Y107.668 E4.60182
G1 X152.725 Y110.161 E4.79201
G1 X149.847 Y110.161 E4.98220
G1 X148.633 Y108.058 E5.14265
G1 X148.446 Y107.603
G1 X147.536 Y107.581 F15000.000
G1 X147.536 Y89.918 F1200.000 E6.30990
G1 X148.936 Y89.918 E6.40242
G1 X148.936 Y93.462 E6.63661
G1 X148.851 Y93.668 E6.65136
G1 X149.564 Y95.390 E6.77454
G1 X151.286 Y96.104 E6.89772
G1 X153.008 Y95.390 E7.02090
G1 X153.721 Y93.668 E7.14408
G1 X153.636 Y93.462 E7.15882
G1 X153.636 Y89.918 E7.39302
G1 X155.036 Y89.918 E7.48554
G1 X155.036 Y107.656 E8.65774
G1 X154.963 Y108.400 E8.70712
G1 X154.749 Y109.103 E8.75568
G1 X154.403 Y109.751 E8.80425
G1 X153.937 Y110.319 E8.85281
G1 X153.369 Y110.785 E8.90138
G1 X152.721 Y111.132 E8.94994
G1 X152.017 Y111.345 E8.99851
G1 X151.286 Y111.417 E9.04707
G1 X150.555 Y111.345 E9.09564
G1 X149.851 Y111.132 E9.14420
G1 X149.203 Y110.785 E9.19277
G1 X148.635 Y110.319 E9.24134
G1 X148.169 Y109.751 E9.28990
G1 X147.823 Y109.103 E9.33847
G1 X147.609 Y108.400 E9.38703
G1 X147.583 Y108.129 E9.40502
G1 X147.536 Y107.581
G1 X148.036 Y107.387 F15000.000
G1 X148.036 Y93.650 F1200.000 E10.31284
G1 X148.281 Y93.601 E10.32937
G1 X149.181 Y95.773 E10.48476
G1 X151.286 Y96.645 E10.63532
G1 X153.391 Y95.773 E10.78587
G1 X154.291 Y93.601 E10.94126
G1 X154.536 Y93.650 E10.95779
G1 X154.536 Y107.443 E11.86932
G1 X154.554 Y107.449 E11.87057
G1 X154.536 Y107.631 E11.88272
G1 X154.536 Y107.955 E11.90411
G1 X154.503 Y107.964 E11.90635
G1 X154.470 Y108.302 E11.92878
G1 X154.285 Y108.911 E11.97083
G1 X153.985 Y109.472 E12.01289
G1 X153.582 Y109.964 E12.05495
G1 X152.748 Y110.648 E12.12621
G1 X152.677 Y110.588 E12.13234
G1 X152.528 Y110.668 E12.14350
G1 X151.919 Y110.852 E12.18555
G1 X151.286 Y110.915 E12.22761
G1 X150.653 Y110.852 E12.26967
G1 X150.044 Y110.668 E12.31173
G1 X149.895 Y110.588 E12.32288
G1 X149.824 Y110.648 E12.32901
G1 X148.990 Y109.964 E12.40028
G1 X148.587 Y109.472 E12.44233
G1 X148.287 Y108.911 E12.48439
G1 X148.102 Y108.302 E12.52644
G1 X148.069 Y107.964 E12.54887
G1 X148.036 Y107.955 E12.55111
G1 X148.035 Y107.898 E12.55489
G1 X148.036 Y107.387
G1 X148.695 Y106.248 F15000.000
G1 X148.377 Y105.930 F1200.000 E12.58604
G1 X149.097 Y105.910 E12.63587
G1 X148.377 Y105.190 E12.70631
G1 X148.377 Y104.450 E12.75751
G1 X149.368 Y105.441 E12.85445
G1 X149.639 Y104.972 E12.89193
G1 X148.377 Y103.710 E13.01537
G1 X148.377 Y102.970 E13.06656
G1 X150.242 Y104.835 E13.24905
G1 X150.982 Y104.835 E13.30024
G1 X148.377 Y102.229 E13.55513
G1 X148.377 Y101.489 E13.60633
G1 X151.723 Y104.835 E13.93361
G1 X152.463 Y104.835 E13.98480
G1 X148.377 Y100.749 E14.38449
G1 X148.377 Y100.009 E14.43568
G1 X154.195 Y105.828 E15.00484
G1 X154.195 Y105.087 E15.05603
G1 X148.377 Y99.269 E15.62519
G1 X148.377 Y98.529 E15.67638
G1 X154.195 Y104.347 E16.24554
G1 X154.195 Y103.607 E16.29673
G1 X148.377 Y97.789 E16.86589
G1 X148.377 Y97.049 E16.91708
G1 X154.195 Y102.867 E17.48624
G1 X154.195 Y102.127 E17.53743
G1 X148.377 Y96.309 E18.10659
G1 X148.922 Y96.113 E18.14663
G1 X154.195 Y101.387 E18.66248
G1 X154.195 Y100.647 E18.71367
G1 X150.185 Y96.637 E19.10593
G1 X151.260 Y96.972 E19.18381
G1 X154.195 Y99.907 E19.47092
G1 X154.195 Y99.167 E19.52211
G1 X151.784 Y96.755 E19.75802
G1 X152.307 Y96.538 E19.79721
G1 X154.195 Y98.427 E19.98193
G1 X154.195 Y97.686 E20.03312
G1 X152.830 Y96.321 E20.16665
G1 X153.354 Y96.105 E20.20583
G1 X154.195 Y96.946 E20.28816
G1 X154.195 Y96.206 E20.33936
G1 X153.877 Y95.888 E20.37050
G1 F3600.000 E17.17050
G92 E0
G1 X153.578 Y109.407 F15000.000
G1 X153.879 Y108.888 F3600.000 E3.20000
G1 X153.959 Y108.750 F1200.000 E3.20474
G1 X154.140 Y108.324 E3.21852
G1 F3600.000 E0.01852
G92 E0
G1 X153.953 Y95.591 F15000.000
G1 X154.039 Y95.508 F3600.000 E3.20000
G1 X154.039 Y95.508 F2400.000
G1 X154.238 Y94.504 E3.23048
G1 F3600.000 E0.03048
G92 E0
G1 X154.331 Y92.670 F15000.000
G1 X154.332 Y92.070 F3600.000 E3.20000
G1 X154.336 Y90.619 F1200.000 E3.29588
G1 X154.223 Y90.500 E3.30669
G1 F3600.000 E0.10669
G92 E0
G1 X148.234 Y90.987 F15000.000
G1 X148.233 Y91.587 F3600.000 E3.20000
G1 X148.231 Y92.625 F1200.000 E3.26860
G1 F3600.000 E0.06860
G92 E0
G1 X89.534 Y132.485 F15000.000
G1 X89.758 Y132.840 F3600.000 E3.20000
G1 X89.758 Y132.840 F2400.000
G1 X89.981 Y133.282 E3.23270
G1 X90.163 Y133.742 E3.26543
G1 X90.300 Y134.215 E3.29796
G1 X90.393 Y134.706 E3.33094
G1 X90.438 Y135.191 E3.36318
G1 X90.438 Y135.697 E3.39661
G1 X90.376 Y136.277 E3.43514
G1 X90.300 Y136.673 E3.46178
G1 X90.163 Y137.147 E3.49440
G1 X89.981 Y137.606 E3.52704
G1 X89.759 Y138.047 E3.55968
G1 X89.493 Y138.469 E3.59262
G1 X89.192 Y138.859 E3.62517
G1 X88.848 Y139.227 E3.65842
G1 X88.485 Y139.550 E3.69053
G1 X88.091 Y139.839 E3.72288
G1 X87.656 Y140.100 E3.75638
G1 X87.216 Y140.310 E3.78861
G1 X86.749 Y140.481 E3.82150
G1 X86.271 Y140.608 E3.85417
G1 X85.781 Y140.689 E3.88701
G1 X85.288 Y140.724 E3.91964
G1 X84.793 Y140.712 E3.95238
G1 X84.301 Y140.655 E3.98512
G1 X83.815 Y140.550 E4.01793
G1 X83.345 Y140.402 E4.05055
G1 X82.889 Y140.210 E4.08324
G1 X82.450 Y139.975 E4.11610
G1 X82.039 Y139.702 E4.14875
G1 X81.655 Y139.392 E4.18135
G1 X81.300 Y139.045 E4.21416
G1 X80.979 Y138.669 E4.24682
G1 X80.697 Y138.263 E4.27948
G1 X80.453 Y137.833 E4.31216
G1 X80.248 Y137.377 E4.34520
G1 X80.090 Y136.912 E4.37769
G1 X79.974 Y136.424 E4.41081
G1 X79.906 Y135.931 E4.44370
G1 X79.883 Y135.445 E4.47585
G1 X79.906 Y134.958 E4.50811
G1 X79.955 Y134.599 E4.53205
G1 X80.090 Y133.976 E4.57417
G1 X80.249 Y133.511 E4.60663
G1 X80.452 Y133.058 E4.63941
G1 X80.697 Y132.626 E4.67224
G1 X80.979 Y132.221 E4.70491
G1 X81.301 Y131.843 E4.73766
G1 X81.654 Y131.499 E4.77024
G1 X82.039 Y131.186 E4.80303
G1 X82.450 Y130.913 E4.83568
G1 X82.889 Y130.678 E4.86854
G1 X83.345 Y130.486 E4.90123
G1 X83.817 Y130.338 E4.93393
G1 X84.300 Y130.235 E4.96656
G1 X84.791 Y130.176 E4.99928
G1 X85.285 Y130.164 E5.03190
G1 X85.782 Y130.199 E5.06484
G1 X86.267 Y130.280 E5.09731
G1 X86.748 Y130.407 E5.13022
G1 X87.216 Y130.579 E5.16318
G1 X87.656 Y130.789 E5.19542
G1 X88.091 Y131.048 E5.22883
G1 X88.486 Y131.340 E5.26129
G1 X88.876 Y131.690 E5.29595
G1 X89.192 Y132.030 E5.32659
G1 X89.203 Y132.045 E5.32787
G1 X89.534 Y132.485
G1 X89.203 Y132.045 F3600.000 E2.12787
G92 E0
G1 X91.898 Y133.732 F15000.000
G1 X92.072 Y133.425 F3600.000 E3.20000
G1 X92.072 Y133.425 F2400.000
G1 X92.321 Y133.080 E3.22812
G1 X92.610 Y132.765 E3.25635
G1 X92.933 Y132.486 E3.28458
G1 X93.285 Y132.245 E3.31276
G1 X93.662 Y132.047 E3.34092
G1 X94.059 Y131.893 E3.36902
G1 X94.471 Y131.784 E3.39722
G1 X94.893 Y131.724 E3.42534
G1 X95.319 Y131.710 E3.45353
G1 X95.745 Y131.748 E3.48182
G1 X96.162 Y131.833 E3.50990
G1 X96.567 Y131.964 E3.53806
G1 X96.955 Y132.140 E3.56623
G1 X97.321 Y132.361 E3.59448
G1 X97.660 Y132.622 E3.62272
G1 X97.966 Y132.919 E3.65087
G1 X98.236 Y133.249 E3.67908
G1 X98.465 Y133.608 E3.70722
G1 X98.655 Y133.991 E3.73547
G1 X98.797 Y134.393 E3.76366
G1 X98.893 Y134.807 E3.79177
G1 X98.942 Y135.231 E3.81994
G1 X98.942 Y135.657 E3.84812
G1 X98.893 Y136.080 E3.87627
G1 X98.798 Y136.497 E3.90451
G1 X98.654 Y136.899 E3.93275
G1 X98.465 Y137.281 E3.96088
G1 X98.236 Y137.639 E3.98899
G1 X97.966 Y137.969 E4.01715
G1 X97.660 Y138.268 E4.04544
G1 X97.321 Y138.527 E4.07366
G1 X96.956 Y138.747 E4.10178
G1 X96.568 Y138.926 E4.13001
G1 X96.162 Y139.057 E4.15823
G1 X95.744 Y139.142 E4.18638
G1 X95.319 Y139.178 E4.21459
G1 X94.893 Y139.167 E4.24278
G1 X94.471 Y139.104 E4.27092
G1 X94.059 Y138.997 E4.29908
G1 X93.662 Y138.841 E4.32729
G1 X93.285 Y138.643 E4.35540
G1 X92.933 Y138.402 E4.38357
G1 X92.610 Y138.123 E4.41180
G1 X92.321 Y137.808 E4.44003
G1 X92.073 Y137.464 E4.46812
G1 X91.861 Y137.094 E4.49629
G1 X91.695 Y136.700 E4.52451
G1 X91.575 Y136.290 E4.55277
G1 X91.504 Y135.870 E4.58087
G1 X91.479 Y135.445 E4.60903
G1 X91.504 Y135.020 E4.63718
G1 X91.575 Y134.598 E4.66543
G1 X91.682 Y134.237 E4.69035
G1 X91.898 Y133.732
G1 X91.448 Y133.510 F15000.000
G1 X91.651 Y133.154 F1200.000 E4.71745
G1 X91.933 Y132.764 E4.74927
G1 X92.261 Y132.405 E4.78136
G1 X92.628 Y132.089 E4.81340
G1 X93.027 Y131.816 E4.84533
G1 X93.455 Y131.591 E4.87730
G1 X93.904 Y131.417 E4.90913
G1 X94.372 Y131.293 E4.94109
G1 X94.849 Y131.225 E4.97298
G1 X95.333 Y131.209 E5.00499
G1 X95.818 Y131.253 E5.03712
G1 X96.289 Y131.348 E5.06891
G1 X96.748 Y131.497 E5.10080
G1 X97.189 Y131.697 E5.13277
G1 X97.604 Y131.948 E5.16481
G1 X97.988 Y132.243 E5.19682
G1 X98.334 Y132.580 E5.22877
G1 X98.641 Y132.955 E5.26080
G1 X98.901 Y133.361 E5.29268
G1 X99.116 Y133.796 E5.32469
G1 X99.278 Y134.252 E5.35672
G1 X99.387 Y134.722 E5.38857
G1 X99.442 Y135.202 E5.42050
G1 X99.442 Y135.686 E5.45249
G1 X99.387 Y136.165 E5.48438
G1 X99.278 Y136.637 E5.51636
G1 X99.115 Y137.095 E5.54849
G1 X98.901 Y137.527 E5.58039
G1 X98.641 Y137.933 E5.61221
G1 X98.336 Y138.307 E5.64412
G1 X97.988 Y138.647 E5.67628
G1 X97.602 Y138.941 E5.70832
G1 X97.191 Y139.190 E5.74010
G1 X96.750 Y139.392 E5.77213
G1 X96.289 Y139.542 E5.80416
G1 X95.815 Y139.638 E5.83610
G1 X95.333 Y139.678 E5.86807
G1 X94.849 Y139.666 E5.90007
G1 X94.372 Y139.595 E5.93198
G1 X93.904 Y139.474 E5.96390
G1 X93.453 Y139.296 E5.99593
G1 X93.027 Y139.072 E6.02776
G1 X92.628 Y138.799 E6.05969
G1 X92.261 Y138.483 E6.09172
G1 X91.933 Y138.124 E6.12381
G1 X91.652 Y137.735 E6.15556
G1 X91.412 Y137.315 E6.18750
G1 X90.951 Y136.221 E6.26597
G1 X90.637 Y137.308 E6.34075
G1 X90.439 Y137.810 E6.37644
G1 X90.196 Y138.291 E6.41205
G1 X89.902 Y138.757 E6.44843
G1 X89.575 Y139.181 E6.48379
G1 X89.192 Y139.590 E6.52088
G1 X88.803 Y139.937 E6.55531
G1 X88.377 Y140.251 E6.59025
G1 X87.893 Y140.541 E6.62759
G1 X87.367 Y140.788 E6.66600
G1 X86.901 Y140.958 E6.69874
G1 X86.379 Y141.097 E6.73444
G1 X85.839 Y141.186 E6.77063
G1 X85.301 Y141.224 E6.80624
G1 X84.759 Y141.211 E6.84208
G1 X84.349 Y141.164 E6.86934
G1 X83.686 Y141.034 E6.91400
G1 X83.173 Y140.872 E6.94957
G1 X82.674 Y140.663 E6.98533
G1 X82.192 Y140.404 E7.02143
G1 X81.743 Y140.105 E7.05714
G1 X81.323 Y139.767 E7.09275
G1 X80.934 Y139.386 E7.12874
G1 X80.584 Y138.976 E7.16438
G1 X80.274 Y138.532 E7.20012
G1 X80.007 Y138.062 E7.23585
G1 X79.781 Y137.557 E7.27240
G1 X79.609 Y137.052 E7.30769
G1 X79.482 Y136.511 E7.34439
G1 X79.407 Y135.968 E7.38066
G1 X79.382 Y135.445 E7.41521
G1 X79.407 Y134.921 E7.44991
G1 X79.482 Y134.377 E7.48618
G1 X79.611 Y133.833 E7.52313
G1 X79.783 Y133.329 E7.55835
G1 X80.005 Y132.832 E7.59433
G1 X80.274 Y132.357 E7.63038
G1 X80.584 Y131.914 E7.66612
G1 X80.935 Y131.501 E7.70193
G1 X81.320 Y131.126 E7.73747
G1 X81.743 Y130.783 E7.77341
G1 X82.192 Y130.484 E7.80913
G1 X82.674 Y130.226 E7.84523
G1 X83.173 Y130.016 E7.88098
G1 X83.689 Y129.853 E7.91676
G1 X84.217 Y129.741 E7.95241
G1 X84.755 Y129.677 E7.98822
G1 X85.293 Y129.663 E8.02378
G1 X85.841 Y129.702 E8.06011
G1 X86.369 Y129.790 E8.09545
G1 X86.899 Y129.930 E8.13171
G1 X87.414 Y130.119 E8.16794
G1 X87.893 Y130.348 E8.20304
G1 X88.376 Y130.636 E8.24023
G1 X88.804 Y130.953 E8.27540
G1 X89.241 Y131.348 E8.31433
G1 X89.574 Y131.707 E8.34673
G1 X89.905 Y132.135 E8.38245
G1 X90.194 Y132.594 E8.41830
G1 X90.439 Y133.078 E8.45411
G1 X90.637 Y133.582 E8.48989
G1 X90.952 Y134.668 E8.56466
G1 X91.237 Y133.990 E8.61325
G1 X91.448 Y133.510
G1 F3600.000 E5.41325
G92 E0
G1 X107.549 Y121.915 F15000.000
G1 X107.348 Y121.563 F3600.000 E3.20000
G1 X107.348 Y121.563 F2400.000
G1 X107.189 Y121.179 E3.22744
G1 X107.073 Y120.773 E3.25533
G1 X107.003 Y120.363 E3.28287
G1 X106.980 Y119.945 E3.31054
G1 X107.003 Y119.530 E3.33796
G1 X107.073 Y119.115 E3.36582
G1 X107.189 Y118.710 E3.39362
G1 X107.349 Y118.324 E3.42126
G1 X107.552 Y117.959 E3.44885
G1 X107.794 Y117.615 E3.47664
G1 X108.072 Y117.303 E3.50426
G1 X108.384 Y117.025 E3.53188
G1 X108.728 Y116.783 E3.55968
G1 X109.093 Y116.580 E3.58726
G1 X109.479 Y116.420 E3.61490
G1 X109.883 Y116.304 E3.64270
G1 X110.299 Y116.234 E3.67053
G1 X110.714 Y116.211 E3.69805
G1 X111.131 Y116.234 E3.72562
G1 X111.543 Y116.304 E3.75320
G1 X111.948 Y116.420 E3.78109
G1 X112.332 Y116.579 E3.80852
G1 X112.702 Y116.783 E3.83645
G1 X113.042 Y117.024 E3.86399
G1 X113.353 Y117.303 E3.89164
G1 X113.633 Y117.617 E3.91940
G1 X113.875 Y117.958 E3.94703
G1 X114.115 Y118.415 E3.98115
G1 X114.238 Y118.715 E4.00257
G1 X114.355 Y119.115 E4.03009
G1 X114.425 Y119.530 E4.05792
G1 X114.448 Y119.944 E4.08536
G1 X114.424 Y120.363 E4.11309
G1 X114.355 Y120.773 E4.14059
G1 X114.222 Y121.216 E4.17112
G1 X114.077 Y121.564 E4.19602
G1 X113.874 Y121.934 E4.22391
G1 X113.634 Y122.271 E4.25128
G1 X113.353 Y122.584 E4.27907
G1 X113.040 Y122.865 E4.30685
G1 X112.703 Y123.105 E4.33423
G1 X112.333 Y123.308 E4.36211
G1 X111.944 Y123.469 E4.38994
G1 X111.543 Y123.586 E4.41755
