; generated by Slic3r 1.0.1-dev on 2014-01-23 at 23:29:38

; perimeters extrusion width = 0.50mm
; infill extrusion width = 0.87mm
; solid infill extrusion width = 0.85mm
; top infill extrusion width = 0.85mm

G21 ; set units to millimeters
M107
M104 S200 ; set temperature
G21 ; set units to millimeters
G90 ; use absolute coordinates
M83 ; use relative distances for extrusion
M140 S65; Set bed temperature
G1 Z5 F200 ; lift nozzle
G1 X2 Y50 F2000; Go to wait for warm position
M116; Wait for all temperatures
G10 P0 S205 R0 ; Set extruder temperature
T0; Select extruder
M116; Wait for all temperatures
M109 S200 ; wait for temperature to be reached
G90 ; use absolute coordinates
M83 ; use relative distances for extrusion
G1 F3600.000 E-2.40000
G1 Z0.240 F15000.000
G1 X55.421 Y81.698 F15000.000
G1 E2.40000 F3600.000
G1 X99.425 Y56.906 E2.51981 F1200
G1 X107.215 Y54.033 E0.41426
G1 X109.287 Y53.458 E0.10728
G1 X111.973 Y52.971 E0.13620
G1 X114.116 Y52.788 E0.10727
G1 X116.846 Y52.803 E0.13619
G1 X118.985 Y53.016 E0.10727
G1 X121.666 Y53.532 E0.13620
G1 X123.681 Y54.117 E0.10468
G1 X131.214 Y56.906 E0.40075
G1 X132.105 Y57.393 E0.05066
G1 X132.626 Y57.871 E0.03529
G1 X138.838 Y64.925 E0.46891
G1 X139.274 Y65.954 E0.05574
G1 X141.103 Y73.426 E0.38382
G1 X149.280 Y117.704 E2.24637
G1 X149.354 Y119.326 E0.08101
G1 X149.331 Y119.933 E0.03030
G1 X149.004 Y122.138 E0.11123
G1 X148.308 Y124.256 E0.11123
G1 X147.263 Y126.226 E0.11123
G1 X145.900 Y127.990 E0.11123
G1 X144.730 Y129.115 E0.08098
G1 X144.258 Y129.499 E0.03033
G1 X142.385 Y130.707 E0.11123
G1 X140.906 Y131.377 E0.08100
G1 X140.502 Y131.532 E0.02158
G1 X87.994 Y148.084 E2.74672
G1 X86.942 Y148.246 E0.05312
G1 X78.592 Y148.246 E0.41658
G1 X76.978 Y147.852 E0.08288
G1 X75.968 Y147.062 E0.06398
G1 X66.158 Y135.909 E0.74102
G1 X64.855 Y133.944 E0.11763
G1 X63.859 Y131.807 E0.11763
G1 X63.284 Y129.958 E0.09659
G1 X53.629 Y95.572 E1.78187
G1 X53.499 Y94.626 E0.04765
G1 X53.499 Y84.866 E0.48693
G1 X53.893 Y83.252 E0.08288
G1 X54.749 Y82.185 E0.06826
G1 X55.360 Y81.742 E0.03766
G1 F3600.000 E-2.40000
G1 X59.145 Y94.496 F15000.000
G1 E2.40000 F3600.000
G1 X57.249 Y94.496 E0.09462 F1200
G1 X57.249 Y84.996 E0.47396
G1 X59.138 Y84.996 E0.09424
G1 X63.407 Y85.136 E0.21312
G1 X67.654 Y85.554 E0.21291
G1 X71.865 Y86.248 E0.21291
G1 X76.021 Y87.217 E0.21291
G1 X80.106 Y88.455 E0.21297
G1 X84.100 Y89.957 E0.21286
G1 X87.850 Y91.654 E0.20538
G1 X86.791 Y92.160 E0.05853
G1 X86.285 Y92.526 E0.03115
G1 X85.940 Y92.871 E0.02437
G1 X85.850 Y92.974 E0.00680
G1 X85.499 Y93.491 E0.03116
G1 X85.243 Y94.060 E0.03116
G1 X85.117 Y94.532 E0.02437
G1 X85.089 Y94.666 E0.00680
G1 X85.042 Y95.288 E0.03116
G1 X85.104 Y95.910 E0.03116
G1 X85.272 Y96.512 E0.03116
G1 X85.541 Y97.075 E0.03116
G1 X85.821 Y97.475 E0.02437
G1 X85.904 Y97.584 E0.00680
G1 X86.349 Y98.022 E0.03117
G1 X86.856 Y98.372 E0.03072
G1 X87.431 Y98.637 E0.03161
G1 X88.036 Y98.795 E0.03117
G1 X88.658 Y98.847 E0.03117
G1 X89.280 Y98.790 E0.03117
G1 X89.883 Y98.626 E0.03117
G1 X90.449 Y98.360 E0.03117
G1 X90.960 Y98.001 E0.03117
G1 X91.402 Y97.559 E0.03117
G1 X91.760 Y97.047 E0.03115
G1 X92.024 Y96.481 E0.03117
G1 X92.187 Y95.878 E0.03117
G1 X92.242 Y95.256 E0.03117
G1 X92.190 Y94.633 E0.03117
G1 X91.989 Y93.874 E0.03917
G1 X95.377 Y95.979 E0.19899
G1 X98.848 Y98.464 E0.21298
G1 X102.147 Y101.169 E0.21284
G1 X105.264 Y104.084 E0.21291
G1 X108.180 Y107.194 E0.21267
G1 X108.650 Y107.815 E0.03888
G1 X109.025 Y108.493 E0.03863
G1 X109.298 Y109.217 E0.03863
G1 X109.464 Y109.974 E0.03864
G1 X109.520 Y110.755 E0.03909
G1 X109.520 Y120.996 E0.51092
G1 X124.892 Y120.996 E0.76688
G1 X124.892 Y124.133 E0.15651
G1 X124.736 Y124.237 E0.00935
G1 X124.591 Y124.400 E0.01088
G1 X124.540 Y124.497 E0.00546
G1 X124.492 Y124.710 E0.01088
G1 X124.516 Y124.926 E0.01088
G1 X124.611 Y125.123 E0.01088
G1 X124.765 Y125.277 E0.01088
G1 X124.961 Y125.371 E0.01088
G1 X125.178 Y125.396 E0.01088
G1 X125.391 Y125.347 E0.01087
G1 X125.575 Y125.231 E0.01088
G1 X125.755 Y124.996 E0.01476
G1 X129.725 Y124.996 E0.19808
G1 X129.843 Y125.164 E0.01026
G1 X129.923 Y125.245 E0.00567
G1 X130.119 Y125.358 E0.01128
G1 X130.342 Y125.397 E0.01128
G1 X130.455 Y125.387 E0.00566
G1 X130.667 Y125.310 E0.01128
G1 X130.840 Y125.165 E0.01128
G1 X130.905 Y125.072 E0.00566
G1 X130.953 Y124.969 E0.00566
G1 X130.993 Y124.746 E0.01128
G1 X130.953 Y124.523 E0.01128
G1 X130.905 Y124.421 E0.00566
G1 X130.760 Y124.247 E0.01128
G1 X130.592 Y124.129 E0.01026
G1 X130.592 Y121.996 E0.10644
G1 X131.613 Y121.996 E0.05093
G1 X131.640 Y122.310 E0.01575
G1 X131.787 Y122.858 E0.02828
G1 X132.026 Y123.372 E0.02827
G1 X132.351 Y123.836 E0.02826
G1 X132.752 Y124.236 E0.02828
G1 X133.216 Y124.562 E0.02828
G1 X133.730 Y124.801 E0.02826
G1 X134.277 Y124.948 E0.02827
G1 X134.831 Y124.996 E0.02773
G1 X136.247 Y124.996 E0.07064
G1 X137.232 Y124.912 E0.04932
G1 X138.199 Y124.660 E0.04986
G1 X139.109 Y124.248 E0.04985
G1 X139.936 Y123.687 E0.04986
G1 X140.657 Y122.994 E0.04986
G1 X141.250 Y122.190 E0.04985
G1 X141.698 Y121.297 E0.04985
G1 X141.988 Y120.341 E0.04985
G1 X142.112 Y119.349 E0.04986
G1 X142.067 Y118.351 E0.04985
G1 X141.853 Y117.375 E0.04985
G1 X141.477 Y116.449 E0.04985
G1 X140.965 Y115.625 E0.04839
G1 X140.286 Y114.853 E0.05130
G1 X139.506 Y114.229 E0.04985
G1 X138.631 Y113.746 E0.04985
G1 X136.155 Y112.906 E0.13045
G1 X134.715 Y112.174 E0.08060
G1 X133.396 Y111.241 E0.08060
G1 X132.229 Y110.124 E0.08060
G1 X131.238 Y108.848 E0.08060
G1 X130.444 Y107.442 E0.08060
G1 X129.864 Y105.934 E0.08060
G1 X129.511 Y104.357 E0.08060
G1 X129.392 Y102.748 E0.08051
G1 X129.419 Y102.442 E0.01530
G1 X129.498 Y102.148 E0.01521
G1 X129.627 Y101.872 E0.01521
G1 X129.802 Y101.622 E0.01521
G1 X130.017 Y101.406 E0.01521
G1 X130.267 Y101.231 E0.01521
G1 X130.543 Y101.102 E0.01521
G1 X130.838 Y101.024 E0.01521
G1 X131.142 Y100.997 E0.01521
G1 X131.445 Y101.024 E0.01521
G1 X131.740 Y101.102 E0.01521
G1 X132.016 Y101.231 E0.01521
G1 X132.266 Y101.406 E0.01521
G1 X132.482 Y101.622 E0.01521
G1 X132.656 Y101.872 E0.01521
G1 X132.785 Y102.148 E0.01521
G1 X132.864 Y102.442 E0.01521
G1 X132.993 Y103.982 E0.07706
G1 X133.297 Y105.183 E0.06185
G1 X133.795 Y106.319 E0.06185
G1 X134.472 Y107.357 E0.06185
G1 X135.311 Y108.270 E0.06185
G1 X136.289 Y109.032 E0.06185
G1 X137.378 Y109.624 E0.06185
G1 X140.056 Y110.551 E0.14136
G1 X141.451 Y111.321 E0.07951
G1 X142.696 Y112.317 E0.07951
G1 X143.754 Y113.509 E0.07951
G1 X144.595 Y114.862 E0.07951
G1 X145.194 Y116.339 E0.07951
G1 X145.535 Y117.896 E0.07951
G1 X145.608 Y119.488 E0.07951
G1 X145.409 Y121.069 E0.07951
G1 X144.946 Y122.594 E0.07951
G1 X144.232 Y124.019 E0.07951
G1 X143.286 Y125.302 E0.07951
G1 X142.137 Y126.406 E0.07951
G1 X140.818 Y127.300 E0.07951
G1 X139.366 Y127.957 E0.07951
G1 X137.824 Y128.360 E0.07951
G1 X136.486 Y128.474 E0.06699
G1 X136.486 Y126.736 E0.08670
G1 X124.892 Y126.736 E0.57845
G1 X124.892 Y128.681 E0.09702
G1 X124.433 Y129.498 E0.04676
G1 X123.815 Y130.260 E0.04896
G1 X123.077 Y130.908 E0.04896
G1 X122.241 Y131.421 E0.04896
G1 X121.329 Y131.785 E0.04896
G1 X120.370 Y131.991 E0.04896
G1 X119.389 Y132.031 E0.04896
G1 X118.416 Y131.905 E0.04896
G1 X117.478 Y131.617 E0.04896
G1 X116.602 Y131.175 E0.04896
G1 X115.813 Y130.590 E0.04896
G1 X115.134 Y129.881 E0.04896
G1 X114.585 Y129.068 E0.04896
G1 X114.181 Y128.174 E0.04896
G1 X113.934 Y127.224 E0.04896
G1 X113.830 Y125.996 E0.06148
G1 X99.209 Y125.996 E0.72944
G1 X99.067 Y127.984 E0.09942
G1 X98.698 Y129.686 E0.08691
G1 X98.091 Y131.321 E0.08700
G1 X97.260 Y132.848 E0.08674
G1 X96.218 Y134.246 E0.08700
G1 X94.989 Y135.481 E0.08691
G1 X93.597 Y136.529 E0.08691
G1 X92.071 Y137.370 E0.08691
G1 X89.658 Y138.288 E0.12881
G1 X88.934 Y138.713 E0.04190
G1 X88.286 Y139.247 E0.04190
G1 X87.732 Y139.879 E0.04191
G1 X87.285 Y140.590 E0.04191
G1 X86.958 Y141.363 E0.04190
G1 X86.758 Y142.179 E0.04190
G1 X86.692 Y143.007 E0.04140
G1 X86.692 Y144.496 E0.07431
G1 X78.842 Y144.496 E0.39164
G1 X78.842 Y142.750 E0.08711
G1 X78.776 Y141.926 E0.04127
G1 X78.577 Y141.112 E0.04176
G1 X78.252 Y140.341 E0.04177
G1 X77.808 Y139.631 E0.04176
G1 X77.257 Y139.001 E0.04177
G1 X76.634 Y138.483 E0.04044
G1 X75.893 Y138.040 E0.04308
G1 X73.437 Y137.086 E0.13143
G1 X71.876 Y136.195 E0.08967
G1 X70.466 Y135.081 E0.08967
G1 X69.238 Y133.769 E0.08967
G1 X68.219 Y132.288 E0.08967
G1 X67.433 Y130.671 E0.08967
G1 X66.898 Y128.956 E0.08967
G1 X66.624 Y127.179 E0.08967
G1 X66.619 Y125.382 E0.08967
G1 X66.882 Y123.604 E0.08967
G1 X67.408 Y121.885 E0.08967
G1 X68.185 Y120.264 E0.08967
G1 X69.195 Y118.777 E0.08967
G1 X70.415 Y117.458 E0.08967
G1 X71.819 Y116.336 E0.08967
G1 X73.375 Y115.435 E0.08967
G1 X75.047 Y114.778 E0.08967
G1 X76.799 Y114.377 E0.08967
G1 X78.842 Y114.224 E0.10218
G1 X78.842 Y107.379 E0.34149
G1 X78.695 Y105.492 E0.09441
G1 X78.255 Y103.642 E0.09489
G1 X77.535 Y101.881 E0.09489
G1 X76.550 Y100.254 E0.09489
G1 X75.326 Y98.798 E0.09489
G1 X73.891 Y97.550 E0.09489
G1 X72.280 Y96.538 E0.09489
G1 X70.532 Y95.789 E0.09489
G1 X68.695 Y95.320 E0.09459
G1 X65.524 Y94.862 E0.15984
G1 X62.338 Y94.588 E0.15954
G1 X59.220 Y94.498 E0.15561
G1 X58.899 Y94.061 F15000.000
G1 F3600.000 E-2.40000
G1 X125.755 Y125.722 F15000.000
G1 E2.40000 F3600.000
G1 X125.910 Y125.605 E0.00967 F960
G1 X126.013 Y125.496 E0.00751
G1 X129.467 Y125.496 E0.17233
G1 X129.601 Y125.629 E0.00940
G1 X129.765 Y125.744 E0.01002
G1 X129.979 Y125.844 E0.01178
G1 X129.892 Y126.236 E0.02002
G1 X125.592 Y126.236 E0.21455
G1 X125.499 Y125.854 E0.01961
G1 X125.688 Y125.756 E0.01061
G1 F3600.000 E-2.40000
G1 X130.918 Y125.745 F15000.000
G1 E2.40000 F3600.000
G1 X131.083 Y125.629 E0.01003 F1200
G1 X131.225 Y125.487 E0.01003
G1 X131.340 Y125.323 E0.01003
G1 X131.425 Y125.140 E0.01003
G1 X131.477 Y124.946 E0.01003
G1 X131.495 Y124.746 E0.01002
G1 X131.477 Y124.546 E0.01003
G1 X131.425 Y124.352 E0.01003
G1 X131.340 Y124.170 E0.01003
G1 X131.225 Y124.005 E0.01003
G1 X131.092 Y123.872 E0.00939
G1 X131.092 Y123.477 E0.01968
G1 X131.483 Y123.391 E0.02002
G1 X131.592 Y123.623 E0.01278
G1 X131.967 Y124.158 E0.03261
G1 X132.429 Y124.621 E0.03265
G1 X132.966 Y124.996 E0.03265
G1 X133.558 Y125.273 E0.03261
G1 X134.190 Y125.442 E0.03264
G1 X134.809 Y125.496 E0.03101
G1 X136.268 Y125.496 E0.07279
G1 X137.317 Y125.407 E0.05251
G1 X138.366 Y125.133 E0.05412
G1 X139.354 Y124.685 E0.05409
G1 X140.252 Y124.077 E0.05412
G1 X141.034 Y123.325 E0.05412
G1 X141.677 Y122.452 E0.05410
G1 X142.164 Y121.483 E0.05410
G1 X142.479 Y120.445 E0.05411
G1 X142.614 Y119.369 E0.05412
G1 X142.564 Y118.286 E0.05410
G1 X142.332 Y117.226 E0.05411
G1 X141.924 Y116.221 E0.05411
G1 X141.352 Y115.300 E0.05411
G1 X140.632 Y114.489 E0.05411
G1 X139.785 Y113.812 E0.05410
G1 X138.836 Y113.287 E0.05411
G1 X136.349 Y112.443 E0.13103
G1 X134.974 Y111.745 E0.07693
G1 X133.716 Y110.854 E0.07693
G1 X132.601 Y109.788 E0.07693
G1 X131.655 Y108.571 E0.07693
G1 X130.897 Y107.228 E0.07693
G1 X130.344 Y105.789 E0.07693
G1 X130.007 Y104.284 E0.07693
G1 X129.894 Y102.751 E0.07667
G1 X129.913 Y102.530 E0.01111
G1 X129.970 Y102.319 E0.01085
G1 X130.062 Y102.122 E0.01085
G1 X130.186 Y101.944 E0.01085
G1 X130.340 Y101.791 E0.01085
G1 X130.518 Y101.666 E0.01085
G1 X130.715 Y101.574 E0.01084
G1 X130.925 Y101.518 E0.01085
G1 X131.142 Y101.499 E0.01084
G1 X131.358 Y101.518 E0.01085
G1 X131.568 Y101.574 E0.01085
G1 X131.765 Y101.666 E0.01085
G1 X131.943 Y101.791 E0.01084
G1 X132.097 Y101.944 E0.01085
G1 X132.222 Y102.122 E0.01085
G1 X132.314 Y102.319 E0.01084
G1 X132.370 Y102.529 E0.01085
G1 X132.498 Y104.064 E0.07683
G1 X132.823 Y105.346 E0.06598
G1 X133.353 Y106.558 E0.06598
G1 X134.076 Y107.665 E0.06598
G1 X134.971 Y108.639 E0.06599
G1 X136.014 Y109.452 E0.06598
G1 X137.176 Y110.083 E0.06598
G1 X139.852 Y111.009 E0.14124
G1 X141.172 Y111.738 E0.07526
G1 X142.350 Y112.680 E0.07526
G1 X143.351 Y113.809 E0.07526
G1 X144.147 Y115.090 E0.07525
G1 X144.715 Y116.487 E0.07526
G1 X145.038 Y117.961 E0.07526
G1 X145.106 Y119.468 E0.07525
G1 X144.919 Y120.965 E0.07526
G1 X144.480 Y122.408 E0.07526
G1 X143.804 Y123.756 E0.07526
G1 X142.909 Y124.971 E0.07526
G1 X141.822 Y126.016 E0.07526
G1 X140.573 Y126.862 E0.07526
G1 X139.199 Y127.484 E0.07526
G1 X137.739 Y127.865 E0.07526
G1 X136.986 Y127.929 E0.03770
G1 X136.986 Y126.236 E0.08448
G1 X130.791 Y126.236 E0.30908
G1 X130.704 Y125.844 E0.02002
G1 X130.850 Y125.776 E0.00803
G1 F3600.000 E-2.40000
G1 X124.475 Y125.686 F15000.000
G1 E2.40000 F3600.000
G1 X124.783 Y125.868 E0.01783 F1200
G1 X124.682 Y126.236 E0.01905
G1 X124.392 Y126.236 E0.01448
G1 X124.392 Y128.550 E0.11544
G1 X124.018 Y129.216 E0.03812
G1 X123.453 Y129.913 E0.04472
G1 X122.779 Y130.504 E0.04472
G1 X122.015 Y130.972 E0.04472
G1 X121.183 Y131.305 E0.04472
G1 X120.307 Y131.493 E0.04472
G1 X119.411 Y131.530 E0.04472
G1 X118.522 Y131.415 E0.04472
G1 X117.665 Y131.152 E0.04472
G1 X116.865 Y130.747 E0.04472
G1 X116.145 Y130.214 E0.04472
G1 X115.525 Y129.566 E0.04472
G1 X115.023 Y128.824 E0.04472
G1 X114.655 Y128.007 E0.04472
G1 X114.429 Y127.139 E0.04472
G1 X114.289 Y125.496 E0.08227
G1 X98.743 Y125.496 E0.77558
G1 X98.571 Y127.913 E0.12087
G1 X98.217 Y129.545 E0.08336
G1 X97.634 Y131.113 E0.08344
G1 X96.838 Y132.578 E0.08318
G1 X95.838 Y133.919 E0.08344
G1 X94.660 Y135.103 E0.08336
G1 X93.325 Y136.109 E0.08336
G1 X91.861 Y136.914 E0.08336
G1 X89.440 Y137.836 E0.12926
G1 X88.646 Y138.302 E0.04591
G1 X87.937 Y138.887 E0.04590
G1 X87.329 Y139.579 E0.04592
G1 X86.840 Y140.358 E0.04591
G1 X86.482 Y141.206 E0.04589
G1 X86.263 Y142.099 E0.04591
G1 X86.192 Y142.987 E0.04440
G1 X86.192 Y143.996 E0.05037
G1 X79.342 Y143.996 E0.34175
G1 X79.342 Y142.730 E0.06316
G1 X79.271 Y141.846 E0.04426
G1 X79.054 Y140.955 E0.04575
G1 X78.697 Y140.110 E0.04575
G1 X78.211 Y139.332 E0.04575
G1 X77.608 Y138.641 E0.04576
G1 X76.953 Y138.098 E0.04243
G1 X76.112 Y137.589 E0.04904
G1 X73.652 Y136.634 E0.13167
G1 X72.157 Y135.780 E0.08592
G1 X70.805 Y134.712 E0.08592
G1 X69.628 Y133.454 E0.08592
G1 X68.653 Y132.035 E0.08592
G1 X67.900 Y130.486 E0.08592
G1 X67.386 Y128.842 E0.08592
G1 X67.124 Y127.140 E0.08592
G1 X67.119 Y125.418 E0.08592
G1 X67.372 Y123.714 E0.08592
G1 X67.875 Y122.067 E0.08592
G1 X68.619 Y120.514 E0.08592
G1 X69.587 Y119.089 E0.08592
G1 X70.757 Y117.825 E0.08592
G1 X72.102 Y116.750 E0.08592
G1 X73.593 Y115.887 E0.08592
G1 X75.195 Y115.257 E0.08592
G1 X76.874 Y114.873 E0.08592
G1 X79.342 Y114.688 E0.12345
G1 X79.342 Y107.359 E0.36560
G1 X79.190 Y105.415 E0.09732
G1 X78.733 Y103.488 E0.09878
G1 X77.983 Y101.656 E0.09878
G1 X76.958 Y99.962 E0.09878
G1 X75.684 Y98.447 E0.09878
G1 X74.190 Y97.147 E0.09878
G1 X72.513 Y96.094 E0.09878
G1 X70.693 Y95.314 E0.09878
G1 X68.793 Y94.829 E0.09786
G1 X65.581 Y94.365 E0.16188
G1 X62.367 Y94.088 E0.16097
G1 X59.152 Y93.996 E0.16043
G1 X57.749 Y93.996 E0.07003
G1 X57.749 Y85.496 E0.42407
G1 X59.129 Y85.496 E0.06889
G1 X63.374 Y85.635 E0.21189
G1 X67.589 Y86.050 E0.21128
G1 X71.767 Y86.739 E0.21128
G1 X75.892 Y87.700 E0.21128
G1 X79.949 Y88.930 E0.21153
G1 X83.908 Y90.419 E0.21103
G1 X86.640 Y91.655 E0.14957
G1 X85.950 Y92.154 E0.04248
G1 X85.574 Y92.530 E0.02651
G1 X85.456 Y92.666 E0.00897
G1 X85.058 Y93.255 E0.03547
G1 X84.768 Y93.904 E0.03547
G1 X84.630 Y94.417 E0.02651
G1 X84.594 Y94.593 E0.00897
G1 X84.542 Y95.302 E0.03547
G1 X84.613 Y96.010 E0.03547
G1 X84.805 Y96.694 E0.03547
G1 X85.113 Y97.335 E0.03548
G1 X85.417 Y97.771 E0.02651
G1 X85.527 Y97.914 E0.00898
G1 X86.034 Y98.412 E0.03548
G1 X86.597 Y98.800 E0.03414
G1 X87.267 Y99.110 E0.03681
G1 X87.955 Y99.290 E0.03548
G1 X88.484 Y99.336 E0.02651
G1 X88.664 Y99.348 E0.00898
G1 X89.372 Y99.283 E0.03549
G1 X90.059 Y99.096 E0.03549
G1 X90.540 Y98.871 E0.02651
G1 X90.702 Y98.793 E0.00898
G1 X91.284 Y98.384 E0.03549
G1 X91.787 Y97.881 E0.03549
G1 X92.194 Y97.299 E0.03543
G1 X92.495 Y96.654 E0.03549
G1 X92.680 Y95.968 E0.03549
G1 X92.771 Y94.949 E0.05103
G1 X95.099 Y96.395 E0.13673
G1 X98.546 Y98.863 E0.21149
G1 X101.818 Y101.545 E0.21107
G1 X104.910 Y104.438 E0.21128
G1 X107.797 Y107.516 E0.21054
G1 X108.230 Y108.088 E0.03577
G1 X108.570 Y108.703 E0.03503
G1 X108.817 Y109.360 E0.03503
