; generated by Slic3r 0.9.9-dev on 2014-01-06 at 23:43:05

; M-PLA-05-03-1

; layer_height = 0.3
; perimeters = 2
; top_solid_layers = 3
; bottom_solid_layers = 2
; fill_density = 0.2
; perimeter_speed = 40
; infill_speed = 40
; travel_speed = 250
; scale = 1
; nozzle_diameter = 0.5
; filament_diameter = 1.70
; extrusion_multiplier = 1.0
; perimeters extrusion width = 0.50mm
; infill extrusion width = 0.50mm
; first layer extrusion width = 0.50mm

M107
M190 S57 ; wait for bed temperature to be reached
M104 S200 ; set temperature
G28
G1 Y20 F12000
G1 Z0.3 F200
M109 S200 ; wait for temperature to be reached
G90 ; use absolute coordinates
G21 ; set units to millimeters
G92 E0
M82 ; use absolute distances for extrusion
G1 F3600.000 E-3.20000
G92 E0
G1 Z0.300 F15000.000
G1 X63.542 Y89.924
G1 X64.068 Y89.637 F3600.000 E3.20000
G1 X110.972 Y64.064 F1200.000 E6.73038
G1 X112.322 Y63.394 E6.82998
G1 X115.112 Y62.304 E7.02793
G1 X115.412 Y62.204 E7.04882
G1 X116.862 Y61.784 E7.14859
G1 X117.192 Y61.704 E7.17103
G1 X119.832 Y61.214 E7.34847
G1 X120.142 Y61.174 E7.36913
G1 X121.972 Y61.014 E7.49052
G1 X124.972 Y61.024 E7.68878
G1 X126.482 Y61.164 E7.78900
G1 X126.802 Y61.214 E7.81040
G1 X129.432 Y61.704 E7.98719
G1 X129.762 Y61.784 E8.00963
G1 X131.222 Y62.204 E8.11003
G1 X131.522 Y62.304 E8.13093
G1 X134.312 Y63.394 E8.32888
G1 X135.662 Y64.064 E8.42848
G1 X135.942 Y64.224 E8.44979
G1 X138.222 Y65.634 E8.62695
G1 X138.492 Y65.824 E8.64876
G1 X139.942 Y66.934 E8.76944
G1 X141.932 Y68.744 E8.94721
G1 X143.182 Y70.114 E9.06977
G1 X143.372 Y70.334 E9.08898
G1 X144.992 Y72.464 E9.26583
G1 X146.142 Y74.324 E9.41034
G1 X147.332 Y76.724 E9.58737
G1 X148.002 Y78.414 E9.70751
G1 X148.112 Y78.734 E9.72988
G1 X148.842 Y81.314 E9.90707
G1 X148.912 Y81.614 E9.92743
G1 X156.972 Y125.254 E12.86016
G1 X157.032 Y125.744 E12.89278
G1 X157.102 Y127.334 E12.99796
G1 X157.072 Y127.924 E13.03700
G1 X156.872 Y129.504 E13.14225
G1 X156.752 Y130.074 E13.18074
G1 X156.292 Y131.604 E13.28632
G1 X156.072 Y132.164 E13.32608
G1 X155.362 Y133.584 E13.43100
G1 X155.042 Y134.104 E13.47135
G1 X154.092 Y135.384 E13.57669
G1 X153.712 Y135.814 E13.61461
G1 X152.562 Y136.924 E13.72024
G1 X152.332 Y137.124 E13.74038
G1 X152.092 Y137.304 E13.76021
G1 X150.772 Y138.194 E13.86541
G1 X150.262 Y138.484 E13.90418
G1 X148.812 Y139.144 E14.00947
G1 X148.412 Y139.294 E14.03770
G1 X95.742 Y155.834 E17.68599
G1 X95.222 Y155.954 E17.72126
G1 X94.692 Y155.994 E17.75638
G1 X86.842 Y155.994 E18.27515
G1 X85.872 Y155.854 E18.33992
G1 X84.982 Y155.454 E18.40440
G1 X84.232 Y154.834 E18.46871
G1 X74.622 Y144.104 E19.42062
G1 X74.352 Y143.754 E19.44983
G1 X73.332 Y142.274 E19.56862
G1 X73.062 Y141.804 E19.60444
G1 X72.282 Y140.184 E19.72326
G1 X72.092 Y139.714 E19.75676
G1 X71.522 Y137.904 E19.88217
G1 X61.842 Y103.444 E22.24760
G1 X61.742 Y102.974 E22.27936
G1 X61.712 Y102.494 E22.31114
G1 X61.712 Y92.994 E22.93895
G1 X61.832 Y92.064 E23.00091
G1 X62.202 Y91.204 E23.06278
G1 X62.782 Y90.474 E23.12440
G1 X63.481 Y89.968 E23.18144
G1 X63.542 Y89.924 E23.18640
G1 F3600.000 E19.98640
G92 E0
G1 X84.018 Y129.639 F15000.000
G1 X84.562 Y129.386 F3600.000 E3.20000
G1 X84.785 Y129.282 F1200.000 E3.21625
G1 X85.674 Y129.043 E3.27710
G1 X86.592 Y128.963 E3.33796
G1 X87.509 Y129.043 E3.39881
G1 X88.399 Y129.282 E3.45967
G1 X89.233 Y129.671 E3.52052
G1 X89.987 Y130.199 E3.58138
G1 X90.639 Y130.850 E3.64223
G1 X91.167 Y131.605 E3.70309
G1 X91.556 Y132.439 E3.76394
G1 X91.724 Y133.067 E3.80687
G1 X91.794 Y133.329 E3.82480
G1 X91.875 Y134.246 E3.88565
G1 X91.794 Y135.163 E3.94651
G1 X91.556 Y136.053 E4.00736
G1 X91.167 Y136.887 E4.06822
G1 X90.639 Y137.642 E4.12907
G1 X89.987 Y138.293 E4.18993
G1 X89.233 Y138.821 E4.25078
G1 X88.399 Y139.210 E4.31164
G1 X87.509 Y139.449 E4.37249
G1 X86.592 Y139.529 E4.43335
G1 X85.674 Y139.449 E4.49420
G1 X85.047 Y139.281 E4.53713
G1 X84.785 Y139.210 E4.55506
G1 X83.950 Y138.821 E4.61591
G1 X83.196 Y138.293 E4.67677
G1 X82.545 Y137.642 E4.73762
G1 X82.017 Y136.887 E4.79848
G1 X81.627 Y136.053 E4.85933
G1 X81.389 Y135.163 E4.92019
G1 X81.309 Y134.246 E4.98105
G1 X81.389 Y133.329 E5.04190
G1 X81.627 Y132.439 E5.10276
G1 X82.017 Y131.605 E5.16361
G1 X82.545 Y130.850 E5.22447
G1 X83.196 Y130.199 E5.28532
G1 X83.561 Y129.943 E5.31479
G1 X84.018 Y129.639
G1 X83.561 Y129.943 F3600.000 E2.11479
G92 E0
G1 X93.163 Y132.900 F15000.000
G1 X93.406 Y132.378 F3600.000 E3.20000
G1 X93.406 Y132.378 F2400.000
G1 X93.780 Y131.845 E3.24303
G1 X94.240 Y131.384 E3.28607
G1 X94.774 Y131.011 E3.32910
G1 X95.364 Y130.736 E3.37214
G1 X95.993 Y130.567 E3.41517
G1 X96.642 Y130.510 E3.45820
G1 X97.290 Y130.567 E3.50124
G1 X97.919 Y130.736 E3.54427
G1 X98.510 Y131.011 E3.58731
G1 X99.043 Y131.384 E3.63034
G1 X99.503 Y131.845 E3.67337
G1 X99.877 Y132.378 E3.71641
G1 X100.152 Y132.968 E3.75944
G1 X100.321 Y133.597 E3.80248
G1 X100.377 Y134.246 E3.84551
G1 X100.321 Y134.895 E3.88854
G1 X100.152 Y135.524 E3.93158
G1 X99.877 Y136.114 E3.97461
G1 X99.503 Y136.647 E4.01765
G1 X99.043 Y137.108 E4.06068
G1 X98.510 Y137.481 E4.10372
G1 X97.919 Y137.757 E4.14675
G1 X97.290 Y137.925 E4.18978
G1 X96.642 Y137.982 E4.23282
G1 X95.993 Y137.925 E4.27585
G1 X95.364 Y137.757 E4.31889
G1 X94.774 Y137.481 E4.36192
G1 X94.240 Y137.108 E4.40495
G1 X93.780 Y136.647 E4.44799
G1 X93.406 Y136.114 E4.49102
G1 X93.131 Y135.524 E4.53406
G1 X92.963 Y134.895 E4.57709
G1 X92.906 Y134.246 E4.62012
G1 X92.963 Y133.597 E4.66316
G1 X93.008 Y133.427 E4.67480
G1 X93.163 Y132.900
G1 X92.691 Y132.729 F15000.000
G1 X92.972 Y132.127 F1200.000 E4.71866
G1 X93.395 Y131.522 E4.76748
G1 X93.918 Y131.000 E4.81629
G1 X94.523 Y130.576 E4.86511
G1 X95.192 Y130.264 E4.91392
G1 X95.906 Y130.073 E4.96274
G1 X96.642 Y130.008 E5.01156
G1 X97.378 Y130.073 E5.06037
G1 X98.091 Y130.264 E5.10919
G1 X98.761 Y130.576 E5.15800
G1 X99.366 Y131.000 E5.20682
G1 X99.888 Y131.522 E5.25563
G1 X100.312 Y132.127 E5.30445
G1 X100.624 Y132.797 E5.35327
G1 X100.815 Y133.510 E5.40208
G1 X100.879 Y134.246 E5.45090
G1 X100.815 Y134.982 E5.49971
G1 X100.624 Y135.695 E5.54853
G1 X100.312 Y136.365 E5.59735
G1 X99.888 Y136.970 E5.64616
G1 X99.366 Y137.492 E5.69498
G1 X98.761 Y137.916 E5.74379
G1 X98.091 Y138.228 E5.79261
G1 X97.378 Y138.419 E5.84142
G1 X96.642 Y138.484 E5.89024
G1 X95.906 Y138.419 E5.93906
G1 X95.192 Y138.228 E5.98787
G1 X94.523 Y137.916 E6.03669
G1 X93.918 Y137.492 E6.08550
G1 X93.395 Y136.970 E6.13432
G1 X92.972 Y136.365 E6.18313
G1 X92.660 Y135.695 E6.23195
G1 X92.507 Y135.126 E6.27091
G1 X92.322 Y135.126 E6.28314
G1 X92.028 Y136.225 E6.35829
G1 X91.601 Y137.138 E6.42493
G1 X91.023 Y137.964 E6.49157
G1 X90.310 Y138.677 E6.55820
G1 X89.484 Y139.256 E6.62484
G1 X88.570 Y139.682 E6.69148
G1 X87.596 Y139.943 E6.75811
G1 X86.592 Y140.031 E6.82475
G1 X85.587 Y139.943 E6.89139
G1 X84.613 Y139.682 E6.95802
G1 X83.699 Y139.256 E7.02466
G1 X82.873 Y138.677 E7.09130
G1 X82.160 Y137.964 E7.15793
G1 X81.582 Y137.138 E7.22457
G1 X81.156 Y136.225 E7.29121
G1 X80.895 Y135.251 E7.35784
G1 X80.807 Y134.246 E7.42448
G1 X80.895 Y133.242 E7.49112
G1 X81.156 Y132.268 E7.55775
G1 X81.582 Y131.354 E7.62439
G1 X81.980 Y130.786 E7.67021
G1 X82.160 Y130.528 E7.69103
G1 X82.873 Y129.815 E7.75766
G1 X83.699 Y129.236 E7.82430
G1 X84.613 Y128.810 E7.89094
G1 X85.587 Y128.549 E7.95757
G1 X86.592 Y128.461 E8.02421
G1 X87.596 Y128.549 E8.09085
G1 X88.570 Y128.810 E8.15748
G1 X89.484 Y129.236 E8.22412
G1 X90.310 Y129.815 E8.29076
G1 X91.023 Y130.528 E8.35740
G1 X91.601 Y131.354 E8.42403
G1 X92.028 Y132.268 E8.49067
G1 X92.322 Y133.366 E8.56582
G1 X92.507 Y133.366 E8.57805
G1 X92.543 Y133.231 E8.58727
G1 X92.691 Y132.729
G1 F3600.000 E5.38727
G92 E0
G1 X109.237 Y121.086 F15000.000
G1 X108.906 Y120.614 F3600.000 E3.20000
G1 X108.906 Y120.614 F2400.000
G1 X108.631 Y120.024 E3.24303
G1 X108.463 Y119.395 E3.28607
G1 X108.406 Y118.746 E3.32910
G1 X108.463 Y118.097 E3.37214
G1 X108.582 Y117.652 E3.40258
G1 X108.631 Y117.468 E3.41517
G1 X108.906 Y116.878 E3.45820
G1 X109.280 Y116.345 E3.50124
G1 X109.740 Y115.884 E3.54427
G1 X110.274 Y115.511 E3.58731
G1 X110.864 Y115.236 E3.63034
G1 X111.493 Y115.067 E3.67337
G1 X112.142 Y115.010 E3.71641
G1 X112.790 Y115.067 E3.75944
G1 X113.419 Y115.236 E3.80248
G1 X114.010 Y115.511 E3.84551
G1 X114.387 Y115.775 E3.87596
G1 X114.543 Y115.884 E3.88854
G1 X115.003 Y116.345 E3.93158
G1 X115.377 Y116.878 E3.97461
G1 X115.652 Y117.468 E4.01765
G1 X115.821 Y118.097 E4.06068
G1 X115.877 Y118.746 E4.10372
G1 X115.821 Y119.395 E4.14675
G1 X115.652 Y120.024 E4.18978
G1 X115.377 Y120.614 E4.23282
G1 X115.003 Y121.147 E4.27585
G1 X114.543 Y121.608 E4.31889
G1 X114.010 Y121.981 E4.36192
G1 X113.419 Y122.257 E4.40495
G1 X112.790 Y122.425 E4.44799
G1 X112.142 Y122.482 E4.49102
G1 X111.493 Y122.425 E4.53406
G1 X110.864 Y122.257 E4.57709
G1 X110.274 Y121.981 E4.62012
G1 X109.740 Y121.608 E4.66316
G1 X109.616 Y121.483 E4.67480
G1 X109.237 Y121.086
G1 X108.852 Y121.409 F15000.000
G1 X108.472 Y120.865 F780.000 E4.71866
G1 X108.160 Y120.195 E4.76748
G1 X107.968 Y119.482 E4.81629
G1 X107.904 Y118.746 E4.86511
G1 X107.968 Y118.010 E4.91392
G1 X108.099 Y117.523 E4.94726
G1 X108.160 Y117.297 E4.96274
G1 X108.472 Y116.627 E5.01156
G1 X108.895 Y116.022 E5.06037
G1 X109.418 Y115.500 E5.10919
G1 X110.023 Y115.076 E5.15800
G1 X110.692 Y114.764 E5.20682
G1 X111.406 Y114.573 E5.25563
G1 X112.142 Y114.508 E5.30445
G1 X112.878 Y114.573 E5.35327
G1 X113.591 Y114.764 E5.40208
G1 X114.261 Y115.076 E5.45090
G1 X114.674 Y115.365 E5.48423
G1 X114.866 Y115.500 E5.49971
G1 X115.388 Y116.022 E5.54853
G1 X115.812 Y116.627 E5.59735
G1 X116.124 Y117.297 E5.64616
G1 X116.254 Y117.784 E5.67950
G1 X116.315 Y118.010 E5.69498
G1 X116.383 Y118.705 E5.74111
G1 X116.315 Y119.482 E5.79265
G1 X116.124 Y120.195 E5.84147
G1 X115.812 Y120.865 E5.89028
G1 X115.388 Y121.470 E5.93910
G1 X114.866 Y121.992 E5.98791
G1 X114.261 Y122.416 E6.03673
G1 X113.591 Y122.728 E6.08555
G1 X112.878 Y122.919 E6.13436
G1 X112.142 Y122.984 E6.18318
G1 X111.406 Y122.919 E6.23199
G1 X110.692 Y122.728 E6.28081
G1 X110.023 Y122.416 E6.32963
G1 X109.418 Y121.992 E6.37844
G1 X109.214 Y121.788 E6.39752
G1 X108.852 Y121.409
G1 F3600.000 E3.19752
G92 E0
G1 X124.449 Y132.317 F15000.000
G1 X124.780 Y131.845 F3600.000 E3.20000
G1 X124.780 Y131.845 F2400.000
G1 X125.240 Y131.384 E3.24303
G1 X125.774 Y131.011 E3.28607
G1 X126.364 Y130.736 E3.32910
G1 X126.993 Y130.567 E3.37214
G1 X127.642 Y130.510 E3.41517
G1 X128.290 Y130.567 E3.45820
G1 X128.919 Y130.736 E3.50124
G1 X129.510 Y131.011 E3.54427
G1 X130.043 Y131.384 E3.58731
G1 X130.503 Y131.845 E3.63034
G1 X130.877 Y132.378 E3.67337
G1 X131.152 Y132.968 E3.71641
G1 X131.321 Y133.597 E3.75944
G1 X131.377 Y134.246 E3.80248
G1 X131.321 Y134.895 E3.84551
G1 X131.152 Y135.524 E3.88855
G1 X130.877 Y136.114 E3.93158
G1 X130.503 Y136.647 E3.97461
G1 X130.043 Y137.108 E4.01765
G1 X129.510 Y137.481 E4.06068
G1 X128.919 Y137.757 E4.10372
G1 X128.290 Y137.925 E4.14675
G1 X127.642 Y137.982 E4.18978
G1 X126.993 Y137.925 E4.23282
G1 X126.364 Y137.757 E4.27585
G1 X125.774 Y137.481 E4.31889
G1 X125.240 Y137.108 E4.36192
G1 X124.780 Y136.647 E4.40495
G1 X124.406 Y136.114 E4.44799
G1 X124.131 Y135.524 E4.49102
G1 X123.963 Y134.895 E4.53406
G1 X123.906 Y134.246 E4.57709
G1 X123.963 Y133.597 E4.62012
G1 X124.131 Y132.968 E4.66316
G1 X124.206 Y132.809 E4.67480
G1 X124.449 Y132.317
G1 X124.015 Y132.066 F15000.000
G1 X124.395 Y131.522 F780.000 E4.71866
G1 X124.918 Y131.000 E4.76748
G1 X125.523 Y130.576 E4.81629
G1 X126.192 Y130.264 E4.86511
G1 X126.906 Y130.073 E4.91392
G1 X127.642 Y130.008 E4.96274
G1 X128.378 Y130.073 E5.01156
G1 X129.091 Y130.264 E5.06037
G1 X129.761 Y130.576 E5.10919
G1 X130.366 Y131.000 E5.15800
G1 X130.888 Y131.522 E5.20682
G1 X131.312 Y132.127 E5.25563
G1 X131.773 Y133.117 E5.32784
G1 X131.833 Y133.109 E5.33180
G1 X131.782 Y133.130 E5.33545
G1 X131.879 Y134.246 E5.40950
G1 X131.815 Y134.982 E5.45832
G1 X131.624 Y135.695 E5.50714
G1 X131.312 Y136.365 E5.55595
G1 X130.888 Y136.970 E5.60477
G1 X130.366 Y137.492 E5.65358
G1 X129.761 Y137.916 E5.70240
G1 X129.091 Y138.228 E5.75122
G1 X128.378 Y138.419 E5.80003
G1 X127.642 Y138.484 E5.84885
G1 X126.906 Y138.419 E5.89766
G1 X126.192 Y138.228 E5.94648
G1 X125.523 Y137.916 E5.99529
G1 X124.918 Y137.492 E6.04411
G1 X124.395 Y136.970 E6.09293
G1 X123.972 Y136.365 E6.14174
G1 X123.660 Y135.695 E6.19056
G1 X123.468 Y134.982 E6.23937
G1 X123.404 Y134.246 E6.28819
G1 X123.468 Y133.510 E6.33700
G1 X123.660 Y132.797 E6.38582
G1 X123.782 Y132.535 E6.40490
G1 X124.015 Y132.066
G1 F3600.000 E3.20490
G92 E0
G1 X121.755 Y133.996 F15000.000
G1 X121.155 Y133.996 F3600.000 E3.20000
G1 X107.209 Y133.996 F1200.000 E4.12162
G1 X107.067 Y135.984 E4.25331
G1 X106.698 Y137.686 E4.36843
G1 X106.090 Y139.321 E4.48370
G1 X105.260 Y140.848 E4.59854
G1 X104.218 Y142.246 E4.71381
G1 X102.989 Y143.481 E4.82894
G1 X101.597 Y144.529 E4.94406
G1 X100.071 Y145.370 E5.05919
G1 X97.658 Y146.288 E5.22982
G1 X96.934 Y146.713 E5.28532
G1 X96.286 Y147.247 E5.34083
G1 X95.732 Y147.879 E5.39634
G1 X95.285 Y148.590 E5.45184
G1 X94.958 Y149.364 E5.50735
G1 X94.758 Y150.179 E5.56286
G1 X94.692 Y151.007 E5.61770
G1 X94.692 Y152.496 E5.71613
G1 X86.842 Y152.496 E6.23490
G1 X86.842 Y150.750 E6.35028
G1 X86.776 Y149.926 E6.40494
G1 X86.577 Y149.112 E6.46026
G1 X86.263 Y148.367 E6.51372
G1 X85.808 Y147.631 E6.57089
G1 X85.258 Y147.001 E6.62621
G1 X84.614 Y146.466 E6.68153
G1 X83.893 Y146.040 E6.73686
G1 X81.437 Y145.086 E6.91095
G1 X79.876 Y144.195 E7.02973
G1 X78.466 Y143.081 E7.14851
G1 X77.238 Y141.769 E7.26728
G1 X76.219 Y140.288 E7.38606
G1 X75.433 Y138.671 E7.50484
G1 X74.898 Y136.956 E7.62362
G1 X74.624 Y135.179 E7.74240
G1 X74.619 Y133.382 E7.86117
G1 X74.882 Y131.604 E7.97995
G1 X75.408 Y129.885 E8.09873
G1 X76.185 Y128.264 E8.21750
G1 X77.195 Y126.777 E8.33628
G1 X78.415 Y125.458 E8.45506
G1 X79.819 Y124.336 E8.57384
G1 X81.375 Y123.435 E8.69261
G1 X83.047 Y122.778 E8.81139
G1 X84.799 Y122.377 E8.93017
G1 X86.842 Y122.224 E9.06552
G1 X86.842 Y115.379 E9.51786
G1 X86.695 Y113.492 E9.64291
G1 X86.255 Y111.642 E9.76861
G1 X85.535 Y109.881 E9.89431
G1 X84.550 Y108.254 E10.02000
G1 X83.351 Y106.828 E10.14313
G1 X81.891 Y105.550 E10.27137
G1 X80.280 Y104.538 E10.39706
G1 X78.532 Y103.789 E10.52276
G1 X76.695 Y103.320 E10.64805
G1 X73.524 Y102.862 E10.85978
G1 X70.338 Y102.588 E11.07110
G1 X67.145 Y102.496 E11.28219
G1 X65.213 Y102.496 E11.40989
G1 X65.213 Y92.996 E12.03770
G1 X67.138 Y92.996 E12.16489
G1 X71.407 Y93.136 E12.44718
G1 X75.654 Y93.554 E12.72921
G1 X79.865 Y94.248 E13.01123
G1 X84.021 Y95.217 E13.29326
G1 X88.106 Y96.455 E13.57535
G1 X92.100 Y97.957 E13.85731
G1 X95.853 Y99.656 E14.12957
G1 X94.841 Y100.128 E14.20334
G1 X94.327 Y100.488 E14.24482
G1 X93.883 Y100.931 E14.28630
G1 X93.523 Y101.446 E14.32778
G1 X93.258 Y102.014 E14.36926
G1 X93.095 Y102.621 E14.41074
G1 X93.041 Y103.246 E14.45222
G1 X93.095 Y103.871 E14.49370
G1 X93.258 Y104.478 E14.53518
G1 X93.523 Y105.047 E14.57666
G1 X93.883 Y105.561 E14.61815
G1 X94.327 Y106.005 E14.65963
G1 X94.834 Y106.359 E14.70051
G1 X95.412 Y106.630 E14.74271
G1 X96.016 Y106.792 E14.78406
G1 X96.642 Y106.847 E14.82554
G1 X97.267 Y106.792 E14.86702
G1 X97.873 Y106.630 E14.90850
G1 X98.487 Y106.333 E14.95353
G1 X98.956 Y106.005 E14.99141
G1 X99.400 Y105.561 E15.03289
G1 X99.760 Y105.047 E15.07437
G1 X100.025 Y104.478 E15.11585
G1 X100.188 Y103.871 E15.15733
G1 X100.243 Y103.246 E15.19882
G1 X100.188 Y102.621 E15.24030
G1 X99.988 Y101.873 E15.29142
G1 X103.377 Y103.979 E15.55510
G1 X106.848 Y106.464 E15.83722
G1 X110.147 Y109.169 E16.11915
G1 X113.395 Y112.207 E16.41306
G1 X113.387 Y112.215 E16.41383
G1 X116.180 Y115.194 E16.68365
G1 X116.650 Y115.815 E16.73515
G1 X117.025 Y116.493 E16.78633
G1 X117.298 Y117.217 E16.83750
G1 X117.464 Y117.974 E16.88868
G1 X117.520 Y118.755 E16.94045
G1 X117.520 Y128.996 E17.61723
G1 X132.892 Y128.996 E18.63305
G1 X132.892 Y132.133 E18.84036
G1 X132.736 Y132.237 E18.85275
G1 X132.591 Y132.400 E18.86716
G1 X132.507 Y132.601 E18.88157
G1 X132.495 Y132.819 E18.89598
G1 X132.555 Y133.028 E18.91039
