; generated by Slic3r 0.9.9-dev on 2014-01-06 at 23:26:43

; M-PLA-05-03-1

; layer_height = 0.3
; perimeters = 2
; top_solid_layers = 3
; bottom_solid_layers = 2
; fill_density = 0.2
; perimeter_speed = 40
; infill_speed = 40
; travel_speed = 250
; scale = 1
; nozzle_diameter = 0.5
; filament_diameter = 1.70
; extrusion_multiplier = 1.0
; perimeters extrusion width = 0.50mm
; infill extrusion width = 0.50mm
; first layer extrusion width = 0.50mm

M107
M190 S57 ; wait for bed temperature to be reached
M104 S200 ; set temperature
G28
G1 Y20 F12000
G1 Z0.3 F200
M109 S200 ; wait for temperature to be reached
G90 ; use absolute coordinates
G21 ; set units to millimeters
G92 E0
M82 ; use absolute distances for extrusion
G1 F3600.000 E-3.20000
G92 E0
G1 Z0.300 F15000.000
G1 X62.992 Y90.304
G1 X63.513 Y90.006 F3600.000 E3.20000
G1 X64.042 Y89.704 F1200.000 E3.24027
G1 X65.232 Y89.494 E3.32012
G1 X67.242 Y89.494 E3.45296
G1 X71.512 Y89.634 E3.73529
G1 X75.992 Y90.064 E4.03271
G1 X80.662 Y90.834 E4.34550
G1 X84.862 Y91.814 E4.63051
G1 X140.292 Y105.614 E8.40542
G1 X140.872 Y105.784 E8.44537
G1 X141.202 Y105.924 E8.46906
G1 X141.782 Y106.204 E8.51162
G1 X142.062 Y106.384 E8.53361
G1 X142.312 Y106.564 E8.55397
G1 X143.002 Y107.194 E8.61572
G1 X153.222 Y117.894 E9.59355
G1 X154.362 Y119.174 E9.70683
G1 X154.722 Y119.654 E9.74648
G1 X155.562 Y121.004 E9.85155
G1 X155.832 Y121.544 E9.89145
G1 X156.432 Y123.024 E9.99699
G1 X156.612 Y123.584 E10.03586
G1 X156.952 Y125.144 E10.14137
G1 X157.032 Y125.744 E10.18138
G1 X157.102 Y127.334 E10.28655
G1 X157.072 Y127.924 E10.32559
G1 X156.872 Y129.504 E10.43084
G1 X156.752 Y130.074 E10.46933
G1 X156.292 Y131.604 E10.57492
G1 X156.072 Y132.164 E10.61468
G1 X155.362 Y133.584 E10.71959
G1 X155.042 Y134.104 E10.75994
G1 X154.092 Y135.384 E10.86528
G1 X153.702 Y135.824 E10.90414
G1 X152.572 Y136.914 E11.00790
G1 X152.342 Y137.124 E11.02848
G1 X152.092 Y137.304 E11.04884
G1 X150.772 Y138.194 E11.15404
G1 X150.262 Y138.484 E11.19282
G1 X148.812 Y139.144 E11.29810
G1 X148.412 Y139.294 E11.32633
G1 X95.742 Y155.834 E14.97462
G1 X95.222 Y155.954 E15.00989
G1 X94.692 Y155.994 E15.04501
G1 X86.842 Y155.994 E15.56378
G1 X85.872 Y155.854 E15.62855
G1 X84.982 Y155.454 E15.69303
G1 X84.232 Y154.834 E15.75734
G1 X74.622 Y144.104 E16.70925
G1 X74.352 Y143.754 E16.73846
G1 X73.332 Y142.274 E16.85725
G1 X73.062 Y141.804 E16.89307
G1 X72.282 Y140.184 E17.01189
G1 X72.112 Y139.784 E17.04061
G1 X59.062 Y101.224 E19.73083
G1 X58.932 Y100.674 E19.76818
G1 X58.882 Y100.104 E19.80599
G1 X58.882 Y95.374 E20.11858
G1 X59.032 Y94.364 E20.18605
G1 X59.462 Y93.444 E20.25317
G1 X60.142 Y92.684 E20.32056
G1 X62.934 Y90.352 E20.56098
G1 X62.992 Y90.304 E20.56594
G1 F3600.000 E17.36594
G92 E0
G1 X125.956 Y133.187 F15000.000
G1 X126.113 Y132.963 F3600.000 E3.20000
G1 X126.113 Y132.963 F2400.000
G1 X126.359 Y132.717 E3.22299
G1 X126.644 Y132.518 E3.24598
G1 X126.959 Y132.370 E3.26898
G1 X127.295 Y132.280 E3.29197
G1 X127.642 Y132.250 E3.31496
G1 X127.988 Y132.280 E3.33795
G1 X128.324 Y132.370 E3.36094
G1 X128.640 Y132.517 E3.38393
G1 X128.925 Y132.717 E3.40693
G1 X129.171 Y132.963 E3.42992
G1 X129.370 Y133.248 E3.45291
G1 X129.517 Y133.563 E3.47590
G1 X129.607 Y133.899 E3.49890
G1 X129.638 Y134.246 E3.52189
G1 X129.615 Y134.501 E3.53880
G1 X129.607 Y134.593 E3.54488
G1 X129.517 Y134.929 E3.56787
G1 X129.370 Y135.244 E3.59086
G1 X129.171 Y135.529 E3.61386
G1 X128.925 Y135.775 E3.63685
G1 X128.640 Y135.975 E3.65984
G1 X128.324 Y136.122 E3.68283
G1 X127.988 Y136.212 E3.70582
G1 X127.642 Y136.242 E3.72882
G1 X127.387 Y136.220 E3.74573
G1 X127.295 Y136.212 E3.75181
G1 X126.959 Y136.122 E3.77480
G1 X126.644 Y135.975 E3.79779
G1 X126.359 Y135.775 E3.82078
G1 X126.113 Y135.529 E3.84377
G1 X125.913 Y135.244 E3.86677
G1 X125.766 Y134.929 E3.88976
G1 X125.676 Y134.593 E3.91275
G1 X125.646 Y134.246 E3.93574
G1 X125.676 Y133.899 E3.95874
G1 X125.733 Y133.686 E3.97333
G1 X125.956 Y133.187
G1 X125.522 Y132.936 F15000.000
G1 X125.728 Y132.640 F780.000 E3.99715
G1 X126.036 Y132.333 E4.02592
G1 X126.393 Y132.083 E4.05469
G1 X126.787 Y131.899 E4.08347
G1 X127.208 Y131.786 E4.11224
G1 X127.642 Y131.748 E4.14101
G1 X128.075 Y131.786 E4.16979
G1 X128.496 Y131.899 E4.19856
G1 X128.891 Y132.083 E4.22733
G1 X129.247 Y132.333 E4.25611
G1 X129.555 Y132.640 E4.28488
G1 X129.805 Y132.997 E4.31366
G1 X129.989 Y133.392 E4.34243
G1 X130.102 Y133.812 E4.37120
G1 X130.140 Y134.246 E4.39998
G1 X130.113 Y134.545 E4.41978
G1 X130.102 Y134.680 E4.42875
G1 X129.989 Y135.100 E4.45753
G1 X129.805 Y135.495 E4.48630
G1 X129.555 Y135.852 E4.51507
G1 X129.247 Y136.160 E4.54385
G1 X128.891 Y136.409 E4.57262
G1 X128.496 Y136.593 E4.60139
G1 X127.577 Y136.839 E4.66426
G1 X127.577 Y136.738 E4.67094
G1 X127.208 Y136.706 E4.69544
G1 X126.787 Y136.593 E4.72421
G1 X126.393 Y136.409 E4.75298
G1 X126.036 Y136.159 E4.78176
G1 X125.728 Y135.852 E4.81053
G1 X125.478 Y135.495 E4.83931
G1 X125.294 Y135.100 E4.86808
G1 X125.182 Y134.680 E4.89685
G1 X125.144 Y134.246 E4.92563
G1 X125.182 Y133.812 E4.95440
G1 X125.291 Y133.406 E4.98221
G1 X125.522 Y132.936
G1 F3600.000 E1.78221
G92 E0
G1 X97.863 Y104.818 F15000.000
G1 X97.640 Y104.975 F3600.000 E3.20000
G1 X97.640 Y104.975 F2400.000
G1 X97.324 Y105.122 E3.22299
G1 X96.988 Y105.212 E3.24598
G1 X96.642 Y105.242 E3.26898
G1 X96.387 Y105.220 E3.28589
G1 X96.295 Y105.212 E3.29197
G1 X95.959 Y105.122 E3.31496
G1 X95.644 Y104.975 E3.33795
G1 X95.359 Y104.775 E3.36094
G1 X95.113 Y104.529 E3.38394
G1 X94.913 Y104.244 E3.40693
G1 X94.766 Y103.929 E3.42992
G1 X94.676 Y103.593 E3.45291
G1 X94.646 Y103.246 E3.47590
G1 X94.668 Y102.991 E3.49281
G1 X94.676 Y102.899 E3.49890
G1 X94.766 Y102.563 E3.52189
G1 X94.913 Y102.248 E3.54488
G1 X95.113 Y101.963 E3.56787
G1 X95.359 Y101.717 E3.59086
G1 X95.644 Y101.518 E3.61386
G1 X95.959 Y101.370 E3.63685
G1 X96.295 Y101.280 E3.65984
G1 X96.642 Y101.250 E3.68283
G1 X96.897 Y101.272 E3.69974
G1 X96.988 Y101.280 E3.70582
G1 X97.324 Y101.370 E3.72882
G1 X97.640 Y101.518 E3.75181
G1 X97.925 Y101.717 E3.77480
G1 X98.171 Y101.963 E3.79779
G1 X98.370 Y102.248 E3.82078
G1 X98.517 Y102.563 E3.84377
G1 X98.607 Y102.899 E3.86677
G1 X98.638 Y103.246 E3.88976
G1 X98.607 Y103.593 E3.91275
G1 X98.517 Y103.929 E3.93574
G1 X98.370 Y104.244 E3.95873
G1 X98.244 Y104.425 E3.97333
G1 X97.863 Y104.818
G1 X98.244 Y104.425 F3600.000 E0.77333
G92 E0
G1 X99.701 Y101.701 F15000.000
G1 X100.211 Y102.017 F3600.000 E3.20000
G1 X103.377 Y103.979 F1200.000 E3.44614
G1 X106.848 Y106.464 E3.72826
G1 X108.710 Y107.956 E3.88592
G1 X107.418 Y108.425 E3.97672
G1 X105.813 Y109.323 E4.09826
G1 X104.375 Y110.469 E4.21980
G1 X103.140 Y111.832 E4.34135
G1 X102.141 Y113.376 E4.46289
G1 X101.405 Y115.062 E4.58443
G1 X100.951 Y116.844 E4.70598
G1 X100.791 Y118.676 E4.82752
G1 X100.929 Y120.510 E4.94907
G1 X101.361 Y122.298 E5.07061
G1 X102.076 Y123.993 E5.19215
G1 X103.056 Y125.549 E5.31370
G1 X104.274 Y126.927 E5.43524
G1 X105.698 Y128.091 E5.55678
G1 X107.292 Y129.009 E5.67833
G1 X109.013 Y129.657 E5.79987
G1 X110.816 Y130.019 E5.92141
G1 X112.654 Y130.085 E6.04296
G1 X114.479 Y129.854 E6.16450
G1 X116.242 Y129.330 E6.28605
G1 X117.520 Y128.712 E6.37990
G1 X117.520 Y128.996 E6.39868
G1 X132.892 Y128.996 E7.41450
G1 X132.892 Y132.133 E7.62181
G1 X132.736 Y132.237 E7.63419
G1 X132.591 Y132.400 E7.64860
G1 X132.507 Y132.601 E7.66302
G1 X132.495 Y132.819 E7.67742
G1 X132.555 Y133.028 E7.69184
G1 X132.681 Y133.206 E7.70624
G1 X132.859 Y133.332 E7.72066
G1 X133.065 Y133.392 E7.73484
G1 X133.260 Y133.385 E7.74773
G1 X133.463 Y133.311 E7.76203
G1 X133.630 Y133.175 E7.77620
G1 X133.756 Y132.996 E7.79067
G1 X137.728 Y132.996 E8.05320
G1 X137.831 Y133.149 E8.06538
G1 X137.918 Y133.240 E8.07371
G1 X138.025 Y133.314 E8.08230
G1 X138.129 Y133.360 E8.08980
G1 X138.283 Y133.392 E8.10019
G1 X138.444 Y133.388 E8.11085
G1 X138.548 Y133.363 E8.11793
G1 X138.700 Y133.288 E8.12913
G1 X138.821 Y133.185 E8.13959
G1 X138.918 Y133.046 E8.15081
G1 X138.973 Y132.897 E8.16132
G1 X138.992 Y132.742 E8.17165
G1 X138.953 Y132.523 E8.18632
G1 X138.905 Y132.421 E8.19382
G1 X138.760 Y132.247 E8.20876
G1 X138.592 Y132.129 E8.22235
G1 X138.592 Y129.996 E8.36334
G1 X139.613 Y129.996 E8.43080
G1 X139.640 Y130.311 E8.45167
G1 X139.787 Y130.858 E8.48912
G1 X140.026 Y131.372 E8.52657
G1 X140.351 Y131.836 E8.56402
G1 X140.752 Y132.236 E8.60147
G1 X141.216 Y132.561 E8.63891
G1 X141.730 Y132.801 E8.67636
G1 X142.277 Y132.948 E8.71381
G1 X142.831 Y132.996 E8.75054
G1 X144.247 Y132.996 E8.84412
G1 X145.232 Y132.912 E8.90945
G1 X146.199 Y132.660 E8.97549
G1 X147.109 Y132.247 E9.04152
G1 X147.936 Y131.687 E9.10756
G1 X148.657 Y130.995 E9.17360
G1 X149.250 Y130.190 E9.23963
G1 X149.698 Y129.297 E9.30567
G1 X149.988 Y128.341 E9.37171
G1 X150.112 Y127.349 E9.43774
G1 X150.067 Y126.351 E9.50378
G1 X149.853 Y125.375 E9.56982
G1 X149.477 Y124.449 E9.63585
G1 X149.250 Y124.084 E9.66426
G1 X148.950 Y123.600 E9.70189
G1 X148.286 Y122.853 E9.76793
G1 X147.506 Y122.229 E9.83396
G1 X146.631 Y121.746 E9.90000
G1 X144.155 Y120.906 E10.07279
G1 X142.715 Y120.174 E10.17955
G1 X141.396 Y119.241 E10.28631
G1 X140.229 Y118.124 E10.39307
G1 X139.238 Y116.848 E10.49983
G1 X138.444 Y115.442 E10.60659
G1 X137.864 Y113.934 E10.71335
G1 X137.511 Y112.357 E10.82011
G1 X137.392 Y110.748 E10.92675
G1 X137.419 Y110.442 E10.94701
G1 X137.498 Y110.148 E10.96716
G1 X137.627 Y109.872 E10.98731
G1 X137.802 Y109.622 E11.00746
G1 X138.017 Y109.406 E11.02761
G1 X138.267 Y109.231 E11.04775
G1 X138.543 Y109.102 E11.06790
G1 X138.838 Y109.024 E11.08805
G1 X139.142 Y108.997 E11.10820
G1 X139.445 Y109.024 E11.12835
G1 X139.568 Y109.056 E11.13674
G1 X139.740 Y109.102 E11.14849
G1 X140.016 Y109.231 E11.16864
G1 X140.266 Y109.406 E11.18879
G1 X140.482 Y109.622 E11.20894
G1 X140.656 Y109.872 E11.22909
G1 X140.785 Y110.148 E11.24923
G1 X140.864 Y110.442 E11.26938
G1 X140.993 Y111.982 E11.37146
G1 X141.297 Y113.183 E11.45339
G1 X141.795 Y114.319 E11.53532
G1 X142.472 Y115.357 E11.61725
G1 X143.311 Y116.270 E11.69918
G1 X144.289 Y117.032 E11.78111
G1 X145.379 Y117.624 E11.86304
G1 X148.056 Y118.551 E12.05029
G1 X149.451 Y119.321 E12.15561
G1 X150.696 Y120.317 E12.26093
G1 X151.754 Y121.509 E12.36625
G1 X152.595 Y122.862 E12.47157
G1 X153.194 Y124.339 E12.57689
G1 X153.339 Y125.001 E12.62166
G1 X153.535 Y125.896 E12.68221
G1 X153.608 Y127.488 E12.78753
G1 X153.409 Y129.069 E12.89285
G1 X153.213 Y129.717 E12.93762
G1 X152.946 Y130.594 E12.99817
G1 X152.232 Y132.019 E13.10349
G1 X151.286 Y133.302 E13.20881
G1 X150.137 Y134.406 E13.31413
G1 X148.818 Y135.300 E13.41945
G1 X147.366 Y135.957 E13.52477
G1 X145.824 Y136.360 E13.63009
G1 X144.226 Y136.496 E13.73611
G1 X132.995 Y136.496 E14.47827
G1 X132.433 Y137.498 E14.55420
G1 X131.815 Y138.260 E14.61906
G1 X131.077 Y138.908 E14.68391
G1 X130.241 Y139.421 E14.74877
G1 X130.102 Y139.476 E14.75864
G1 X129.329 Y139.785 E14.81363
G1 X128.370 Y139.991 E14.87848
G1 X127.389 Y140.031 E14.94334
G1 X126.416 Y139.905 E15.00819
G1 X126.273 Y139.862 E15.01807
G1 X125.478 Y139.617 E15.07305
G1 X124.602 Y139.175 E15.13791
G1 X123.813 Y138.590 E15.20276
G1 X123.134 Y137.881 E15.26762
G1 X122.585 Y137.068 E15.33247
G1 X122.181 Y136.174 E15.39733
G1 X121.934 Y135.224 E15.46219
G1 X121.830 Y133.996 E15.54362
G1 X107.209 Y133.996 E16.50985
G1 X107.067 Y135.984 E16.64154
G1 X106.698 Y137.686 E16.75667
G1 X106.089 Y139.326 E16.87226
G1 X105.832 Y139.831 E16.90974
G1 X105.260 Y140.848 E16.98683
G1 X104.218 Y142.246 E17.10207
G1 X102.989 Y143.481 E17.21720
G1 X101.597 Y144.529 E17.33232
G1 X100.071 Y145.370 E17.44745
G1 X97.658 Y146.288 E17.61808
G1 X96.934 Y146.713 E17.67358
G1 X96.286 Y147.247 E17.72909
G1 X95.732 Y147.879 E17.78460
G1 X95.539 Y148.185 E17.80849
G1 X95.285 Y148.590 E17.84010
G1 X94.958 Y149.364 E17.89561
G1 X94.758 Y150.179 E17.95111
G1 X94.692 Y151.007 E18.00596
G1 X94.692 Y152.496 E18.10439
G1 X93.444 Y152.496 E18.18685
G1 X93.444 Y145.996 E18.61641
G1 X95.167 Y145.996 E18.73026
G1 X95.167 Y141.496 E19.02764
G1 X91.522 Y141.496 E19.26848
G1 X91.522 Y137.371 E19.54110
G1 X91.658 Y137.327 E19.55052
G1 X92.002 Y137.809 E19.58965
G1 X92.673 Y138.545 E19.65548
G1 X93.465 Y139.160 E19.72174
G1 X94.351 Y139.630 E19.78800
G1 X95.296 Y139.939 E19.85372
G1 X95.469 Y139.976 E19.86541
G1 X96.299 Y140.087 E19.92071
G1 X97.292 Y140.060 E19.98640
G1 X97.603 Y140.013 E20.00718
G1 X98.281 Y139.863 E20.05308
G1 X99.216 Y139.500 E20.11933
G1 X100.075 Y138.984 E20.18559
G1 X100.834 Y138.328 E20.25185
G1 X101.469 Y137.552 E20.31811
G1 X101.963 Y136.679 E20.38436
G1 X102.076 Y136.361 E20.40671
G1 X102.300 Y135.735 E20.45062
G1 X102.471 Y134.747 E20.51688
G1 X102.471 Y133.745 E20.58314
G1 X102.300 Y132.757 E20.64940
G1 X101.963 Y131.813 E20.71565
G1 X101.469 Y130.940 E20.78191
G1 X100.834 Y130.164 E20.84817
G1 X100.075 Y129.509 E20.91443
G1 X99.216 Y128.992 E20.98069
G1 X98.901 Y128.870 E21.00303
G1 X98.281 Y128.630 E21.04694
G1 X97.298 Y128.432 E21.11320
G1 X96.296 Y128.405 E21.17946
G1 X95.304 Y128.550 E21.24572
G1 X94.351 Y128.862 E21.31197
G1 X93.465 Y129.332 E21.37823
G1 X92.673 Y129.947 E21.44449
G1 X92.002 Y130.683 E21.51032
G1 X91.658 Y131.165 E21.54945
G1 X91.522 Y131.121 E21.55887
G1 X91.522 Y125.863 E21.90637
G1 X91.734 Y125.303 E21.94593
G1 X91.734 Y121.624 E22.18906
G1 X91.651 Y119.602 E22.32280
G1 X91.485 Y118.134 E22.42042
G1 X91.398 Y117.583 E22.45733
G1 X91.123 Y116.133 E22.55483
G1 X90.598 Y114.172 E22.68900
G1 X89.912 Y112.261 E22.82316
G1 X89.321 Y110.906 E22.92090
G1 X88.378 Y109.103 E23.05531
G1 X87.291 Y107.390 E23.18935
G1 X86.414 Y106.202 E23.28698
G1 X86.063 Y105.768 E23.32389
G1 X85.100 Y104.650 E23.42139
G1 X83.665 Y103.214 E23.55556
G1 X82.115 Y101.902 E23.68971
G1 X80.925 Y101.024 E23.78746
G1 X79.208 Y99.935 E23.92187
G1 X77.410 Y98.994 E24.05591
G1 X76.056 Y98.404 E24.15353
G1 X75.535 Y98.203 E24.19045
G1 X74.142 Y97.716 E24.28795
G1 X72.181 Y97.191 E24.42211
G1 X71.881 Y97.134 E24.44230
G1 X71.339 Y97.048 E24.47860
G1 X70.184 Y96.830 E24.55628
G1 X68.714 Y96.664 E24.65403
G1 X66.892 Y96.587 E24.77455
G1 X66.892 Y95.965 E24.81566
G1 X62.392 Y95.965 E25.11304
G1 X62.392 Y95.380 E25.15173
G1 X65.233 Y92.996 E25.39682
G1 X67.138 Y92.996 E25.52270
G1 X71.407 Y93.136 E25.80500
G1 X75.654 Y93.554 E26.08702
G1 X79.865 Y94.248 E26.36905
G1 X84.021 Y95.217 E26.65107
G1 X88.106 Y96.455 E26.93317
G1 X90.559 Y97.353 E27.10580
G1 X92.100 Y97.957 E27.21514
G1 X95.990 Y99.718 E27.49738
G1 X99.219 Y101.437 E27.73907
G1 X99.701 Y101.701
G1 X99.557 Y102.195 F15000.000
G1 X103.099 Y104.395 F1200.000 E28.01466
G1 X106.546 Y106.863 E28.29480
G1 X107.703 Y107.790 E28.39275
G1 X107.210 Y107.969 E28.42741
G1 X105.534 Y108.907 E28.55433
G1 X104.031 Y110.103 E28.68124
G1 X102.742 Y111.526 E28.80816
G1 X101.699 Y113.139 E28.93508
G1 X100.931 Y114.899 E29.06199
G1 X100.457 Y116.760 E29.18891
G1 X100.289 Y118.673 E29.31582
G1 X100.433 Y120.588 E29.44274
G1 X100.726 Y121.801 E29.52521
G1 X100.884 Y122.455 E29.56965
G1 X101.631 Y124.224 E29.69657
G1 X102.654 Y125.850 E29.82348
G1 X103.926 Y127.289 E29.95040
G1 X105.413 Y128.504 E30.07731
G1 X107.077 Y129.462 E30.20423
G1 X108.875 Y130.139 E30.33114
G1 X110.098 Y130.385 E30.41362
G1 X110.758 Y130.517 E30.45806
G1 X112.677 Y130.586 E30.58497
G1 X114.582 Y130.345 E30.71189
G1 X116.423 Y129.798 E30.83880
G1 X117.048 Y129.496 E30.88465
G1 X132.392 Y129.496 E31.89867
G1 X132.392 Y131.874 E32.05585
G1 X132.282 Y131.978 E32.06581
G1 X132.166 Y132.133 E32.07860
G1 X132.077 Y132.305 E32.09142
G1 X132.018 Y132.490 E32.10422
G1 X131.991 Y132.681 E32.11702
G1 X131.996 Y132.875 E32.12982
G1 X132.034 Y133.065 E32.14263
G1 X132.103 Y133.246 E32.15544
G1 X132.202 Y133.413 E32.16825
G1 X132.327 Y133.561 E32.18104
G1 X132.475 Y133.686 E32.19385
G1 X132.642 Y133.785 E32.20667
G1 X132.822 Y133.854 E32.21945
G1 X133.002 Y133.889 E32.23157
G1 X133.269 Y133.889 E32.24917
G1 X133.543 Y133.825 E32.26778
G1 X133.800 Y133.689 E32.28701
G1 X134.014 Y133.496 E32.30606
G1 X137.468 Y133.496 E32.53429
G1 X137.591 Y133.620 E32.54580
G1 X137.791 Y133.756 E32.56182
G1 X137.920 Y133.817 E32.57128
