; generated by Slic3r 1.0.0RC2 on 2014-02-06 at 12:16:41

; layer_height = 0.2
; perimeters = 2
; top_solid_layers = 3
; bottom_solid_layers = 2
; fill_density = 0.2
; perimeter_speed = 40
; infill_speed = 40
; travel_speed = 250
; nozzle_diameter = 0.3
; filament_diameter = 1.75
; extrusion_multiplier = 1
; perimeters extrusion width = 0.30mm
; infill extrusion width = 0.37mm
; solid infill extrusion width = 0.37mm
; top infill extrusion width = 0.37mm

G21 ; set units to millimeters
M107
M104 S200 ; set temperature

M109 S200 ; wait for temperature to be reached
G90 ; use absolute coordinates
M83 ; use relative distances for extrusion
G1 F3600.000 E-2.40000
G1 Z0.300 F15000.000
G1 X66.503 Y76.184 F15000.000
G1 E2.40000 F3600.000
G1 X66.973 Y75.454 E0.03249 F1200.000
G1 X67.323 Y74.994 E0.02163
G1 X67.903 Y74.304 E0.03373
G1 X68.463 Y73.714 E0.03044
G1 X68.883 Y73.324 E0.02145
G1 X69.573 Y72.744 E0.03373
G1 X70.033 Y72.394 E0.02163
G1 X70.843 Y71.874 E0.03602
G1 X71.533 Y71.474 E0.02984
G1 X72.223 Y71.134 E0.02878
G1 X72.753 Y70.904 E0.02162
G1 X73.633 Y70.584 E0.03504
G1 X74.353 Y70.364 E0.02817
G1 X75.133 Y70.174 E0.03004
G1 X75.873 Y70.044 E0.02811
G1 X76.663 Y69.954 E0.02975
G1 X77.603 Y69.904 E0.03522
G1 X102.803 Y68.924 E0.94364
G1 X104.633 Y68.924 E0.06847
G1 X128.593 Y70.304 E0.89801
G1 X129.243 Y70.404 E0.02461
G1 X129.783 Y70.534 E0.02078
G1 X130.123 Y70.634 E0.01326
G1 X130.813 Y70.904 E0.02772
G1 X131.543 Y71.294 E0.03097
G1 X131.933 Y71.534 E0.01713
G1 X132.413 Y71.894 E0.02245
G1 X132.923 Y72.344 E0.02545
G1 X133.393 Y72.844 E0.02568
G1 X133.773 Y73.334 E0.02320
G1 X133.943 Y73.594 E0.01162
G1 X134.273 Y74.144 E0.02400
G1 X134.433 Y74.464 E0.01339
G1 X134.663 Y74.984 E0.02128
G1 X134.793 Y75.344 E0.01432
G1 X135.023 Y76.224 E0.03403
G1 X135.123 Y76.944 E0.02720
G1 X135.143 Y77.314 E0.01386
G1 X135.143 Y77.934 E0.02320
G1 X135.103 Y78.504 E0.02138
G1 X135.053 Y78.854 E0.01323
G1 X126.673 Y122.014 E1.64510
G1 X126.603 Y122.304 E0.01116
G1 X126.503 Y122.594 E0.01148
G1 X124.053 Y128.824 E0.25049
G1 X123.563 Y129.674 E0.03671
G1 X122.843 Y130.344 E0.03680
G1 X121.953 Y130.764 E0.03682
G1 X120.983 Y130.914 E0.03673
G1 X72.373 Y130.914 E1.81887
G1 X71.393 Y130.764 E0.03710
G1 X70.503 Y130.334 E0.03698
G1 X69.613 Y129.704 E0.04080
G1 X68.673 Y128.894 E0.04643
G1 X67.963 Y128.164 E0.03810
G1 X67.463 Y127.584 E0.02865
G1 X67.203 Y127.234 E0.01631
G1 X66.983 Y126.854 E0.01643
G1 X65.053 Y122.804 E0.16787
G1 X64.913 Y122.454 E0.01411
G1 X64.813 Y122.084 E0.01434
G1 X64.663 Y121.384 E0.02679
G1 X64.563 Y120.644 E0.02794
G1 X64.503 Y119.844 E0.03002
G1 X64.503 Y82.614 E1.39306
G1 X64.553 Y81.864 E0.02813
G1 X64.623 Y81.294 E0.02149
G1 X64.753 Y80.554 E0.02811
G1 X64.993 Y79.604 E0.03666
G1 X65.223 Y78.874 E0.02864
G1 X65.483 Y78.174 E0.02794
G1 X65.713 Y77.644 E0.02162
G1 X66.163 Y76.744 E0.03765
G1 X66.478 Y76.222 E0.02283
G1 F3600.000 E-2.40000
G1 X72.307 Y127.394 F15000.000
G1 E2.40000 F3600.000
G1 X71.832 Y127.056 E0.02182 F960.000
G1 X71.391 Y126.700 E0.02121
G1 X70.971 Y126.320 E0.02119
G1 X70.573 Y125.915 E0.02125
G1 X70.291 Y125.592 E0.01603
G1 X82.643 Y125.592 E0.46218
G1 X82.643 Y127.469 E0.07023
G1 X72.420 Y127.469 E0.38251
G1 X72.344 Y127.419 E0.00340
G1 X72.332 Y127.096 F15000.000
G1 X72.471 Y127.143 F15000.000
G1 X72.013 Y126.817 E0.02103 F960.000
G1 X71.586 Y126.472 E0.02057
G1 X70.946 Y125.892 E0.03228
G1 X82.343 Y125.892 E0.42642
G1 X82.343 Y127.169 E0.04778
G1 X72.508 Y127.168 E0.36798
G1 F3600.000 E-2.40000
G1 X86.643 Y126.096 F15000.000
G1 E2.40000 F3600.000
G1 X86.643 Y127.469 E0.05139 F1200.000
G1 X85.743 Y127.469 E0.03368
G1 X85.743 Y125.277 E0.08201
G1 X88.843 Y125.277 E0.11599
G1 X88.843 Y121.239 E0.15111
G1 X68.154 Y121.239 E0.77413
G1 X68.008 Y120.345 E0.03388
G1 X67.959 Y119.781 E0.02121
G1 X67.943 Y119.212 E0.02129
G1 X67.949 Y82.854 E1.36043
G1 X67.986 Y82.287 E0.02126
G1 X68.056 Y81.724 E0.02122
G1 X68.158 Y81.166 E0.02122
G1 X68.292 Y80.615 E0.02123
G1 X68.457 Y80.072 E0.02123
G1 X68.653 Y79.540 E0.02122
G1 X68.880 Y79.020 E0.02122
G1 X69.136 Y78.514 E0.02122
G1 X69.421 Y78.024 E0.02122
G1 X69.734 Y77.550 E0.02122
G1 X70.073 Y77.096 E0.02123
G1 X70.438 Y76.662 E0.02122
G1 X70.828 Y76.249 E0.02123
G1 X71.240 Y75.860 E0.02122
G1 X71.674 Y75.495 E0.02123
G1 X72.129 Y75.155 E0.02122
G1 X72.602 Y74.843 E0.02122
G1 X73.093 Y74.558 E0.02122
G1 X73.599 Y74.302 E0.02122
G1 X74.119 Y74.075 E0.02122
G1 X74.651 Y73.879 E0.02122
G1 X75.193 Y73.713 E0.02122
G1 X75.745 Y73.579 E0.02123
G1 X76.303 Y73.477 E0.02123
G1 X76.866 Y73.408 E0.02122
G1 X77.794 Y73.364 E0.03477
G1 X97.257 Y73.364 E0.72825
G1 X98.070 Y73.127 E0.03171
G1 X98.868 Y72.926 E0.03080
G1 X99.674 Y72.756 E0.03080
G1 X100.485 Y72.616 E0.03080
G1 X101.301 Y72.507 E0.03080
G1 X102.120 Y72.428 E0.03080
G1 X102.942 Y72.381 E0.03080
G1 X103.765 Y72.364 E0.03080
G1 X104.588 Y72.379 E0.03080
G1 X105.369 Y72.422 E0.02930
G1 X106.229 Y72.500 E0.03230
G1 X107.045 Y72.608 E0.03080
G1 X107.857 Y72.745 E0.03080
G1 X108.623 Y72.905 E0.02930
G1 X109.461 Y73.112 E0.03230
G1 X110.281 Y73.350 E0.03196
G1 X111.345 Y73.714 E0.04207
G1 X127.789 Y73.714 E0.61530
G1 X128.137 Y73.729 E0.01301
G1 X128.478 Y73.775 E0.01288
G1 X128.814 Y73.850 E0.01288
G1 X129.142 Y73.954 E0.01288
G1 X129.460 Y74.087 E0.01288
G1 X129.765 Y74.247 E0.01288
G1 X130.054 Y74.433 E0.01288
G1 X130.326 Y74.645 E0.01288
G1 X130.579 Y74.879 E0.01288
G1 X130.809 Y75.134 E0.01288
G1 X131.017 Y75.409 E0.01288
G1 X131.200 Y75.701 E0.01288
G1 X131.356 Y76.008 E0.01288
G1 X131.485 Y76.327 E0.01288
G1 X131.585 Y76.656 E0.01288
G1 X131.656 Y76.993 E0.01288
G1 X131.697 Y77.335 E0.01288
G1 X131.707 Y77.679 E0.01288
G1 X131.688 Y78.023 E0.01288
G1 X131.638 Y78.364 E0.01288
G1 X131.559 Y78.699 E0.01288
G1 X131.450 Y79.026 E0.01288
G1 X131.313 Y79.341 E0.01288
G1 X131.149 Y79.644 E0.01288
G1 X130.959 Y79.931 E0.01288
G1 X130.745 Y80.201 E0.01288
G1 X130.507 Y80.450 E0.01288
G1 X130.249 Y80.678 E0.01288
G1 X129.972 Y80.882 E0.01288
G1 X129.677 Y81.061 E0.01288
G1 X129.369 Y81.213 E0.01288
G1 X129.048 Y81.338 E0.01288
G1 X128.717 Y81.433 E0.01288
G1 X128.379 Y81.500 E0.01288
G1 X128.037 Y81.537 E0.01288
G1 X127.692 Y81.543 E0.01288
G1 X127.349 Y81.519 E0.01288
G1 X126.691 Y81.417 E0.02490
G1 X126.371 Y81.402 E0.01201
G1 X126.050 Y81.421 E0.01201
G1 X125.733 Y81.472 E0.01201
G1 X125.423 Y81.557 E0.01201
G1 X125.124 Y81.672 E0.01201
G1 X124.838 Y81.819 E0.01201
G1 X124.569 Y81.994 E0.01201
G1 X124.319 Y82.196 E0.01201
G1 X124.092 Y82.422 E0.01201
G1 X123.889 Y82.671 E0.01201
G1 X123.713 Y82.940 E0.01201
G1 X123.566 Y83.225 E0.01201
G1 X123.450 Y83.525 E0.01201
G1 X123.365 Y83.834 E0.01201
G1 X123.312 Y84.151 E0.01201
G1 X123.293 Y84.471 E0.01201
G1 X123.306 Y84.792 E0.01201
G1 X123.353 Y85.110 E0.01201
G1 X123.433 Y85.421 E0.01201
G1 X123.856 Y86.487 E0.04294
G1 X124.138 Y87.264 E0.03093
G1 X124.390 Y88.052 E0.03093
G1 X124.612 Y88.848 E0.03093
G1 X124.803 Y89.652 E0.03093
G1 X124.963 Y90.463 E0.03093
G1 X125.091 Y91.280 E0.03093
G1 X125.188 Y92.100 E0.03093
G1 X125.254 Y92.924 E0.03093
G1 X125.288 Y93.750 E0.03093
G1 X125.290 Y94.577 E0.03093
G1 X125.260 Y95.403 E0.03093
G1 X125.198 Y96.227 E0.03093
G1 X125.105 Y97.048 E0.03093
G1 X124.980 Y97.865 E0.03093
G1 X124.824 Y98.677 E0.03093
G1 X124.637 Y99.482 E0.03093
G1 X124.419 Y100.280 E0.03093
G1 X124.171 Y101.068 E0.03093
G1 X123.892 Y101.846 E0.03093
G1 X123.584 Y102.614 E0.03094
G1 X123.293 Y103.271 E0.02689
G1 X123.293 Y121.239 E0.67233
G1 X117.743 Y121.239 E0.20767
G1 X117.743 Y125.277 E0.15111
G1 X120.843 Y125.277 E0.11599
G1 X120.843 Y127.469 E0.08201
G1 X119.943 Y127.469 E0.03368
G1 X119.943 Y126.096 E0.05139
G1 X112.643 Y126.096 E0.27315
G1 X112.643 Y127.469 E0.05139
G1 X111.743 Y127.469 E0.03368
G1 X111.743 Y125.277 E0.08201
G1 X114.843 Y125.277 E0.11599
G1 X114.843 Y121.239 E0.15111
G1 X104.743 Y121.239 E0.37792
G1 X104.743 Y125.277 E0.15111
G1 X107.843 Y125.277 E0.11599
G1 X107.843 Y127.469 E0.08201
G1 X106.943 Y127.469 E0.03368
G1 X106.943 Y126.096 E0.05139
G1 X99.643 Y126.096 E0.27315
G1 X99.643 Y127.469 E0.05139
G1 X98.743 Y127.469 E0.03368
G1 X98.743 Y125.277 E0.08201
G1 X101.843 Y125.277 E0.11599
G1 X101.843 Y121.239 E0.15111
G1 X91.743 Y121.239 E0.37792
G1 X91.743 Y125.277 E0.15111
G1 X94.843 Y125.277 E0.11599
G1 X94.843 Y127.469 E0.08201
G1 X93.943 Y127.469 E0.03368
G1 X93.943 Y126.096 E0.05139
G1 X86.688 Y126.096 E0.27147
G1 X86.343 Y126.096 F15000.000
G1 F3600.000 E-2.40000
G1 X89.143 Y120.939 F15000.000
G1 E2.40000 F3600.000
G1 X68.397 Y120.939 E0.77625 F1200.000
G1 X68.306 Y120.311 E0.02374
G1 X68.259 Y119.763 E0.02056
G1 X68.243 Y119.208 E0.02080
G1 X68.249 Y82.867 E1.35980
G1 X68.285 Y82.315 E0.02067
G1 X68.353 Y81.770 E0.02058
G1 X68.451 Y81.229 E0.02058
G1 X68.581 Y80.694 E0.02058
G1 X68.742 Y80.168 E0.02058
G1 X68.932 Y79.652 E0.02058
G1 X69.152 Y79.148 E0.02058
G1 X69.400 Y78.657 E0.02058
G1 X69.676 Y78.182 E0.02058
G1 X69.979 Y77.723 E0.02058
G1 X70.309 Y77.282 E0.02058
G1 X70.662 Y76.861 E0.02058
G1 X71.040 Y76.461 E0.02058
G1 X71.440 Y76.084 E0.02058
G1 X71.861 Y75.730 E0.02058
G1 X72.301 Y75.401 E0.02058
G1 X72.760 Y75.098 E0.02058
G1 X73.236 Y74.822 E0.02058
G1 X73.727 Y74.573 E0.02058
G1 X74.231 Y74.353 E0.02058
G1 X74.747 Y74.163 E0.02058
G1 X75.273 Y74.003 E0.02058
G1 X75.807 Y73.873 E0.02058
G1 X76.348 Y73.774 E0.02058
G1 X76.894 Y73.707 E0.02058
G1 X77.797 Y73.664 E0.03382
G1 X97.299 Y73.664 E0.72975
G1 X98.149 Y73.416 E0.03310
G1 X98.936 Y73.219 E0.03038
G1 X99.730 Y73.051 E0.03038
G1 X100.530 Y72.913 E0.03038
G1 X101.335 Y72.805 E0.03038
G1 X102.143 Y72.727 E0.03038
G1 X102.953 Y72.681 E0.03038
G1 X103.765 Y72.664 E0.03038
G1 X104.577 Y72.678 E0.03037
G1 X105.353 Y72.721 E0.02909
G1 X106.196 Y72.799 E0.03166
G1 X107.000 Y72.904 E0.03038
G1 X107.801 Y73.040 E0.03038
G1 X108.562 Y73.199 E0.02909
G1 X109.383 Y73.402 E0.03166
G1 X110.190 Y73.635 E0.03141
G1 X111.291 Y74.014 E0.04360
G1 X127.783 Y74.014 E0.61706
G1 X128.110 Y74.028 E0.01227
G1 X128.425 Y74.070 E0.01190
G1 X128.736 Y74.140 E0.01190
G1 X129.039 Y74.236 E0.01190
G1 X129.332 Y74.359 E0.01190
G1 X129.613 Y74.507 E0.01190
G1 X129.881 Y74.679 E0.01190
G1 X130.132 Y74.873 E0.01190
G1 X130.365 Y75.090 E0.01190
G1 X130.578 Y75.325 E0.01190
G1 X130.770 Y75.579 E0.01190
G1 X130.938 Y75.849 E0.01190
G1 X131.083 Y76.132 E0.01190
G1 X131.230 Y76.519 E0.01550
G1 X131.359 Y77.042 E0.02015
G1 X131.397 Y77.358 E0.01190
G1 X131.407 Y77.675 E0.01190
G1 X131.389 Y77.993 E0.01190
G1 X131.343 Y78.307 E0.01190
G1 X131.270 Y78.617 E0.01190
G1 X131.170 Y78.918 E0.01190
G1 X131.043 Y79.210 E0.01190
G1 X130.892 Y79.490 E0.01190
G1 X130.716 Y79.755 E0.01190
G1 X130.518 Y80.003 E0.01190
G1 X130.299 Y80.234 E0.01190
G1 X130.061 Y80.444 E0.01190
G1 X129.804 Y80.632 E0.01190
G1 X129.533 Y80.797 E0.01190
G1 X129.248 Y80.938 E0.01190
G1 X128.951 Y81.053 E0.01190
G1 X128.646 Y81.142 E0.01190
G1 X128.334 Y81.203 E0.01190
G1 X128.018 Y81.237 E0.01190
G1 X127.700 Y81.243 E0.01190
G1 X127.383 Y81.221 E0.01189
G1 X126.721 Y81.118 E0.02507
G1 X126.369 Y81.102 E0.01318
G1 X126.017 Y81.122 E0.01318
G1 X125.670 Y81.179 E0.01318
G1 X125.330 Y81.271 E0.01318
G1 X125.001 Y81.398 E0.01318
G1 X124.688 Y81.559 E0.01318
G1 X124.392 Y81.751 E0.01318
G1 X124.118 Y81.972 E0.01318
G1 X123.869 Y82.221 E0.01318
G1 X123.632 Y82.517 E0.01421
G1 X123.454 Y82.789 E0.01215
G1 X123.293 Y83.102 E0.01318
G1 X123.165 Y83.430 E0.01318
G1 X123.071 Y83.770 E0.01318
G1 X123.014 Y84.117 E0.01318
G1 X122.992 Y84.469 E0.01318
G1 X123.007 Y84.821 E0.01318
G1 X123.059 Y85.169 E0.01318
G1 X123.146 Y85.510 E0.01318
G1 X123.576 Y86.595 E0.04367
G1 X123.854 Y87.361 E0.03050
G1 X124.103 Y88.138 E0.03050
G1 X124.322 Y88.923 E0.03050
G1 X124.510 Y89.716 E0.03050
G1 X124.667 Y90.515 E0.03049
G1 X124.794 Y91.320 E0.03050
G1 X124.890 Y92.130 E0.03050
G1 X124.954 Y92.942 E0.03050
G1 X124.988 Y93.757 E0.03050
G1 X124.990 Y94.572 E0.03050
G1 X124.960 Y95.386 E0.03050
G1 X124.899 Y96.199 E0.03050
G1 X124.808 Y97.009 E0.03050
G1 X124.685 Y97.815 E0.03050
G1 X124.531 Y98.615 E0.03050
G1 X124.346 Y99.409 E0.03050
G1 X124.131 Y100.195 E0.03050
G1 X123.886 Y100.972 E0.03050
G1 X123.612 Y101.740 E0.03050
G1 X123.308 Y102.497 E0.03054
G1 X122.993 Y103.207 E0.02906
G1 X122.993 Y120.939 E0.66349
G1 X117.443 Y120.939 E0.20767
G1 X117.443 Y125.796 E0.18173
G1 X115.143 Y125.796 E0.08606
G1 X115.143 Y120.939 E0.18173
G1 X104.443 Y120.939 E0.40037
G1 X104.443 Y125.796 E0.18173
G1 X102.143 Y125.796 E0.08606
G1 X102.143 Y120.939 E0.18173
G1 X91.443 Y120.939 E0.40037
G1 X91.443 Y125.796 E0.18173
G1 X89.143 Y125.796 E0.08606
G1 X89.143 Y120.984 E0.18005
G1 F3600.000 E-2.40000
G1 X107.243 Y125.577 F15000.000
G1 E2.40000 F3600.000
G1 X107.543 Y125.577 E0.01123 F960.000
G1 X107.543 Y127.169 E0.05956
G1 X107.243 Y127.169 E0.01123
G1 X107.243 Y125.622 E0.05788
G1 F3600.000 E-2.40000
G1 X120.243 Y125.577 F15000.000
G1 E2.40000 F3600.000
G1 X120.543 Y125.577 E0.01123 F960.000
G1 X120.543 Y127.169 E0.05956
G1 X120.243 Y127.169 E0.01123
G1 X120.243 Y125.622 E0.05788
G1 F3600.000 E-2.40000
G1 X85.348 Y89.079 F15000.000
G1 E2.40000 F3600.000
G1 X85.482 Y88.607 E0.01836 F1200.000
G1 X85.736 Y87.834 E0.03042
G1 X86.024 Y87.074 E0.03042
G1 X86.343 Y86.326 E0.03042
G1 X86.693 Y85.593 E0.03042
G1 X87.097 Y84.836 E0.03210
G1 X87.486 Y84.174 E0.02874
G1 X87.927 Y83.491 E0.03042
G1 X88.396 Y82.827 E0.03042
G1 X88.893 Y82.184 E0.03042
G1 X89.417 Y81.562 E0.03042
G1 X89.967 Y80.963 E0.03042
G1 X90.542 Y80.389 E0.03042
G1 X91.175 Y79.810 E0.03210
G1 X91.762 Y79.315 E0.02874
G1 X92.405 Y78.818 E0.03042
G1 X93.069 Y78.348 E0.03042
G1 X93.752 Y77.907 E0.03042
G1 X94.453 Y77.496 E0.03042
G1 X95.171 Y77.115 E0.03042
G1 X95.905 Y76.764 E0.03042
G1 X96.652 Y76.445 E0.03042
G1 X97.456 Y76.144 E0.03210
G1 X98.185 Y75.903 E0.02874
G1 X98.967 Y75.682 E0.03042
G1 X99.758 Y75.494 E0.03042
G1 X100.556 Y75.340 E0.03042
G1 X101.360 Y75.219 E0.03042
G1 X102.169 Y75.133 E0.03042
G1 X102.980 Y75.081 E0.03042
G1 X103.793 Y75.064 E0.03042
G1 X104.650 Y75.084 E0.03210
G1 X105.417 Y75.133 E0.02874
G1 X106.225 Y75.219 E0.03042
G1 X107.029 Y75.340 E0.03042
G1 X107.827 Y75.494 E0.03042
G1 X108.618 Y75.682 E0.03042
G1 X109.400 Y75.903 E0.03042
G1 X110.172 Y76.158 E0.03042
G1 X110.933 Y76.445 E0.03042
G1 X111.681 Y76.764 E0.03042
G1 X112.414 Y77.115 E0.03042
G1 X113.171 Y77.519 E0.03210
G1 X113.833 Y77.907 E0.02874
G1 X114.516 Y78.348 E0.03042
G1 X115.180 Y78.818 E0.03042
G1 X115.823 Y79.315 E0.03042
G1 X116.445 Y79.839 E0.03042
G1 X117.043 Y80.389 E0.03042
G1 X117.648 Y80.997 E0.03210
G1 X118.168 Y81.562 E0.02874
G1 X118.692 Y82.184 E0.03042
G1 X119.189 Y82.827 E0.03042
G1 X119.659 Y83.491 E0.03042
G1 X120.099 Y84.174 E0.03042
G1 X120.511 Y84.875 E0.03042
G1 X120.892 Y85.593 E0.03042
G1 X121.243 Y86.326 E0.03042
G1 X121.562 Y87.074 E0.03042
G1 X121.849 Y87.834 E0.03042
G1 X122.103 Y88.607 E0.03042
G1 X122.230 Y89.054 E0.01742
G1 X122.513 Y90.180 E0.04341
G1 X122.667 Y90.978 E0.03042
G1 X122.788 Y91.782 E0.03042
G1 X122.874 Y92.590 E0.03042
G1 X122.925 Y93.401 E0.03042
G1 X122.943 Y94.214 E0.03042
G1 X122.925 Y95.027 E0.03042
G1 X122.874 Y95.838 E0.03042
G1 X122.788 Y96.646 E0.03042
G1 X122.667 Y97.450 E0.03042
G1 X122.513 Y98.249 E0.03042
G1 X122.325 Y99.039 E0.03042
G1 X122.103 Y99.822 E0.03042
G1 X121.849 Y100.594 E0.03042
G1 X121.562 Y101.354 E0.03042
G1 X121.243 Y102.102 E0.03042
G1 X120.892 Y102.836 E0.03042
G1 X120.511 Y103.553 E0.03042
G1 X120.099 Y104.255 E0.03042
G1 X119.659 Y104.938 E0.03042
G1 X119.189 Y105.601 E0.03042
G1 X118.692 Y106.245 E0.03042
G1 X118.168 Y106.866 E0.03042
G1 X117.618 Y107.465 E0.03042
G1 X117.043 Y108.040 E0.03042
G1 X116.445 Y108.589 E0.03042
G1 X115.823 Y109.113 E0.03042
G1 X115.180 Y109.611 E0.03042
G1 X114.516 Y110.080 E0.03042
G1 X113.833 Y110.521 E0.03042
G1 X113.132 Y110.932 E0.03042
G1 X112.414 Y111.314 E0.03042
G1 X111.681 Y111.664 E0.03042
G1 X110.933 Y111.983 E0.03042
G1 X110.172 Y112.270 E0.03042
G1 X109.400 Y112.525 E0.03042
G1 X108.618 Y112.746 E0.03042
G1 X107.827 Y112.934 E0.03042
G1 X107.029 Y113.089 E0.03042
