; generated by Slic3r 1.0.1-dev on 2014-02-05 at 23:40:40

; M-PLA-05-03-1

; perimeters extrusion width = 0.50mm
; infill extrusion width = 0.50mm
; solid infill extrusion width = 0.70mm
; top infill extrusion width = 0.70mm

G21 ; set units to millimeters
M107
M190 S57 ; wait for bed temperature to be reached
M104 S200 ; set temperature
G28
G1 Y20 F12000
G1 Z0.3 F200
M109 S200 ; wait for temperature to be reached
G90 ; use absolute coordinates
G92 E0
M82 ; use absolute distances for extrusion
G1 F3600.000 E-3.20000
G92 E0
G1 Z0.300 F15000.000
G1 X94.367 Y71.944 F15000.000
G1 E3.20000 F3600.000
G1 X94.751 Y71.579 E3.23496 F1200
G1 X95.341 Y71.069 E3.28652
G1 X95.958 Y70.595 E3.33790
G1 X96.601 Y70.158 E3.38930
G1 X97.267 Y69.759 E3.44061
G1 X97.951 Y69.401 E3.49161
G1 X98.665 Y69.078 E3.54340
G1 X99.391 Y68.799 E3.59479
G1 X100.131 Y68.562 E3.64616
G1 X100.884 Y68.369 E3.69754
G1 X101.647 Y68.219 E3.74891
G1 X102.417 Y68.113 E3.80028
G1 X103.192 Y68.052 E3.85165
G1 X103.969 Y68.035 E3.90303
G1 X104.743 Y68.063 E3.95422
G1 X105.520 Y68.136 E4.00578
G1 X106.288 Y68.253 E4.05712
G1 X107.048 Y68.415 E4.10849
G1 X107.801 Y68.620 E4.16004
G1 X108.535 Y68.867 E4.21126
G1 X109.256 Y69.156 E4.26254
G1 X109.960 Y69.488 E4.31401
G1 X110.643 Y69.858 E4.36536
G1 X111.305 Y70.268 E4.41676
G1 X111.776 Y70.594 E4.45466
G1 X112.550 Y71.197 E4.51946
G1 X113.052 Y71.639 E4.56372
G1 X131.838 Y89.022 E6.25512
G1 X132.529 Y89.689 E6.31860
G1 X133.195 Y90.382 E6.38208
G1 X133.752 Y91.005 E6.43734
G1 X149.068 Y108.201 E7.95912
G1 X149.461 Y108.738 E8.00307
G1 X149.806 Y109.307 E8.04704
G1 X150.100 Y109.903 E8.09100
G1 X150.340 Y110.524 E8.13495
G1 X150.524 Y111.163 E8.17891
G1 X150.652 Y111.816 E8.22287
G1 X150.722 Y112.477 E8.26683
G1 X150.733 Y113.142 E8.31079
G1 X150.686 Y113.806 E8.35475
G1 X150.581 Y114.462 E8.39869
G1 X150.419 Y115.108 E8.44267
G1 X150.107 Y115.954 E8.50228
G1 X149.927 Y116.343 E8.53056
G1 X149.602 Y116.923 E8.57452
G1 X149.227 Y117.472 E8.61848
G1 X148.806 Y117.987 E8.66243
G1 X148.341 Y118.462 E8.70640
G1 X147.835 Y118.895 E8.75035
G1 X147.415 Y119.204 E8.78482
G1 X110.551 Y144.016 E11.72138
G1 X104.414 Y146.689 E12.16380
G1 X102.776 Y146.972 E12.27359
G1 X100.541 Y145.955 E12.43588
G1 X66.163 Y111.577 E15.64879
G1 X65.210 Y109.808 E15.78156
G1 X65.037 Y108.819 E15.84793
G1 X64.954 Y108.044 E15.89946
G1 X64.914 Y107.166 E15.95753
G1 X64.923 Y106.465 E16.00386
G1 X64.968 Y105.769 E16.04993
G1 X64.991 Y105.540 E16.06517
G1 X65.177 Y104.698 E16.12217
G1 X66.990 Y99.797 E16.46746
G1 X67.427 Y99.144 E16.51940
G1 X67.897 Y98.525 E16.57074
G1 X68.401 Y97.934 E16.62207
G1 X68.866 Y97.444 E16.66675
G1 X94.314 Y71.997 E19.04504
G1 F3600.000 E15.84504
G92 E0
G1 X112.587 Y83.666 F15000.000
G1 E3.20000 F3600.000
G1 X112.812 Y83.406 E3.22269 F780
G1 X113.072 Y83.182 E3.24538
G1 X113.361 Y82.998 E3.26808
G1 X113.675 Y82.857 E3.29077
G1 X114.005 Y82.765 E3.31346
G1 X114.346 Y82.721 E3.33615
G1 X114.689 Y82.727 E3.35884
G1 X115.028 Y82.783 E3.38154
G1 X115.355 Y82.888 E3.40423
G1 X115.663 Y83.040 E3.42692
G1 X115.946 Y83.234 E3.44961
G1 X116.198 Y83.468 E3.47230
G1 X116.412 Y83.736 E3.49499
G1 X116.586 Y84.032 E3.51769
G1 X116.714 Y84.351 E3.54038
G1 X116.795 Y84.684 E3.56307
G1 X116.826 Y85.026 E3.58576
G1 X116.808 Y85.369 E3.60845
G1 X116.739 Y85.706 E3.63114
G1 X116.622 Y86.029 E3.65384
G1 X116.460 Y86.331 E3.67653
G1 X116.263 Y86.596 E3.69831
G1 X116.001 Y86.858 E3.72280
G1 X115.736 Y87.054 E3.74458
G1 X115.434 Y87.217 E3.76727
G1 X115.111 Y87.334 E3.78997
G1 X114.775 Y87.402 E3.81266
G1 X114.432 Y87.421 E3.83535
G1 X114.090 Y87.390 E3.85804
G1 X113.756 Y87.309 E3.88073
G1 X113.438 Y87.180 E3.90342
G1 X113.141 Y87.007 E3.92611
G1 X112.873 Y86.792 E3.94881
G1 X112.640 Y86.540 E3.97150
G1 X112.445 Y86.258 E3.99419
G1 X112.294 Y85.950 E4.01688
G1 X112.189 Y85.622 E4.03958
G1 X112.133 Y85.284 E4.06227
G1 X112.126 Y84.940 E4.08496
G1 X112.170 Y84.600 E4.10765
G1 X112.263 Y84.269 E4.13034
G1 X112.403 Y83.956 E4.15303
G1 X112.547 Y83.729 E4.17077
G1 X112.990 Y83.965 F15000.000
G1 X113.166 Y83.761 E4.18862 F780
G1 X113.371 Y83.584 E4.20648
G1 X113.599 Y83.439 E4.22433
G1 X113.845 Y83.329 E4.24219
G1 X114.105 Y83.256 E4.26004
G1 X114.373 Y83.221 E4.27790
G1 X114.644 Y83.226 E4.29575
G1 X114.910 Y83.271 E4.31361
G1 X115.167 Y83.353 E4.33146
G1 X115.410 Y83.472 E4.34932
G1 X115.632 Y83.625 E4.36717
G1 X115.830 Y83.809 E4.38503
G1 X115.999 Y84.020 E4.40288
G1 X116.136 Y84.253 E4.42074
G1 X116.237 Y84.504 E4.43859
G1 X116.301 Y84.766 E4.45645
G1 X116.325 Y85.035 E4.47430
G1 X116.310 Y85.305 E4.49216
G1 X116.256 Y85.570 E4.51001
G1 X116.165 Y85.824 E4.52787
G1 X116.037 Y86.062 E4.54572
G1 X115.878 Y86.275 E4.56327
G1 X115.681 Y86.473 E4.58173
G1 X115.468 Y86.631 E4.59928
G1 X115.230 Y86.759 E4.61713
G1 X114.976 Y86.851 E4.63499
G1 X114.711 Y86.905 E4.65284
G1 X114.441 Y86.920 E4.67070
G1 X114.172 Y86.895 E4.68855
G1 X113.909 Y86.831 E4.70641
G1 X113.659 Y86.730 E4.72426
G1 X113.426 Y86.594 E4.74212
G1 X113.215 Y86.425 E4.75997
G1 X113.031 Y86.227 E4.77783
G1 X112.878 Y86.004 E4.79568
G1 X112.759 Y85.762 E4.81354
G1 X112.676 Y85.505 E4.83139
G1 X112.632 Y85.238 E4.84925
G1 X112.627 Y84.968 E4.86710
G1 X112.661 Y84.700 E4.88496
G1 X112.734 Y84.440 E4.90281
G1 X112.845 Y84.193 E4.92067
G1 X112.949 Y84.028 E4.93356
G1 X112.888 Y83.715 F15000.000
G1 F3600.000 E1.73356
G92 E0
G1 X107.990 Y81.859 F15000.000
G1 E3.20000 F3600.000
G1 X107.816 Y82.295 E3.23102 F1200
G1 X107.610 Y82.717 E3.26204
G1 X107.373 Y83.122 E3.29306
G1 X107.106 Y83.508 E3.32409
G1 X106.812 Y83.873 E3.35508
G1 X106.523 Y84.182 E3.38303
G1 X90.530 Y100.175 E4.87768
G1 X90.270 Y100.380 E4.89958
G1 X89.879 Y100.646 E4.93081
G1 X89.470 Y100.882 E4.96205
G1 X89.043 Y101.086 E4.99328
G1 X88.603 Y101.258 E5.02451
G1 X88.151 Y101.396 E5.05574
G1 X87.690 Y101.499 E5.08698
G1 X87.222 Y101.568 E5.11821
G1 X86.514 Y101.604 E5.16505
G1 X86.042 Y101.584 E5.19628
G1 X85.573 Y101.529 E5.22751
G1 X85.109 Y101.438 E5.25874
G1 X84.653 Y101.313 E5.28998
G1 X83.991 Y101.062 E5.33681
G1 X83.566 Y100.854 E5.36804
G1 X83.159 Y100.614 E5.39928
G1 X82.771 Y100.345 E5.43051
G1 X82.404 Y100.047 E5.46174
G1 X82.060 Y99.722 E5.49298
G1 X81.742 Y99.373 E5.52421
G1 X81.451 Y99.000 E5.55544
G1 X81.189 Y98.607 E5.58667
G1 X80.957 Y98.195 E5.61791
G1 X80.757 Y97.767 E5.64914
G1 X80.590 Y97.325 E5.68037
G1 X80.456 Y96.872 E5.71160
G1 X80.320 Y96.176 E5.75844
G1 X80.274 Y95.706 E5.78967
G1 X80.263 Y95.234 E5.82090
G1 X80.287 Y94.762 E5.85214
G1 X80.347 Y94.293 E5.88337
G1 X80.442 Y93.830 E5.91460
G1 X80.571 Y93.375 E5.94584
G1 X80.735 Y92.932 E5.97707
G1 X81.041 Y92.293 E6.02390
G1 X81.416 Y91.693 E6.07067
G1 X81.693 Y91.334 E6.10062
G1 X97.684 Y75.344 E7.59507
G1 X97.993 Y75.055 E7.62303
G1 X98.358 Y74.760 E7.65402
G1 X98.744 Y74.493 E7.68504
G1 X99.149 Y74.256 E7.71607
G1 X99.571 Y74.050 E7.74709
G1 X100.007 Y73.877 E7.77811
G1 X100.455 Y73.736 E7.80913
G1 X100.912 Y73.630 E7.84016
G1 X101.376 Y73.558 E7.87117
G1 X101.844 Y73.521 E7.90220
G1 X102.314 Y73.519 E7.93323
G1 X102.782 Y73.553 E7.96425
G1 X103.233 Y73.620 E7.99440
G1 X103.704 Y73.725 E8.02629
G1 X104.153 Y73.863 E8.05732
G1 X104.590 Y74.033 E8.08833
G1 X105.014 Y74.236 E8.11936
G1 X105.421 Y74.471 E8.15038
G1 X105.809 Y74.735 E8.18141
G1 X106.176 Y75.027 E8.21242
G1 X106.520 Y75.346 E8.24345
G1 X106.839 Y75.691 E8.27447
G1 X107.132 Y76.058 E8.30549
G1 X107.396 Y76.446 E8.33651
G1 X107.630 Y76.853 E8.36754
G1 X107.833 Y77.276 E8.39856
G1 X108.004 Y77.713 E8.42958
G1 X108.141 Y78.162 E8.46061
G1 X108.245 Y78.620 E8.49163
G1 X108.313 Y79.084 E8.52265
G1 X108.347 Y79.553 E8.55368
G1 X108.345 Y80.022 E8.58470
G1 X108.309 Y80.490 E8.61572
G1 X108.237 Y80.954 E8.64674
G1 X108.130 Y81.411 E8.67776
G1 X108.012 Y81.788 E8.70383
G1 X108.290 Y82.220 F15000.000
G1 F3600.000 E5.50383
G92 E0
G1 X93.036 Y105.667 F15000.000
G1 E3.20000 F3600.000
G1 X93.319 Y105.862 E3.22269 F780
G1 X93.570 Y106.095 E3.24538
G1 X93.785 Y106.363 E3.26808
G1 X93.958 Y106.660 E3.29077
G1 X94.087 Y106.978 E3.31346
G1 X94.168 Y107.312 E3.33615
G1 X94.199 Y107.654 E3.35884
G1 X94.180 Y107.997 E3.38154
G1 X94.112 Y108.333 E3.40423
G1 X93.995 Y108.656 E3.42692
G1 X93.832 Y108.958 E3.44961
G1 X93.636 Y109.223 E3.47139
G1 X93.374 Y109.485 E3.49588
G1 X93.109 Y109.682 E3.51766
G1 X92.807 Y109.844 E3.54036
G1 X92.484 Y109.961 E3.56305
G1 X92.147 Y110.030 E3.58574
G1 X91.804 Y110.048 E3.60843
G1 X91.530 Y110.023 E3.62664
G1 X91.129 Y109.936 E3.65377
G1 X90.810 Y109.808 E3.67647
G1 X90.514 Y109.634 E3.69916
G1 X90.246 Y109.419 E3.72185
G1 X90.012 Y109.168 E3.74455
G1 X89.818 Y108.885 E3.76723
G1 X89.666 Y108.577 E3.78993
G1 X89.561 Y108.250 E3.81262
G1 X89.533 Y108.078 E3.82412
G1 X89.505 Y107.911 E3.83531
G1 X89.499 Y107.568 E3.85800
G1 X89.543 Y107.227 E3.88069
G1 X89.636 Y106.897 E3.90338
G1 X89.776 Y106.583 E3.92608
G1 X89.960 Y106.293 E3.94877
G1 X90.184 Y106.034 E3.97146
G1 X90.444 Y105.809 E3.99415
G1 X90.734 Y105.625 E4.01684
G1 X91.047 Y105.485 E4.03953
G1 X91.378 Y105.392 E4.06223
G1 X91.719 Y105.348 E4.08492
G1 X92.062 Y105.354 E4.10761
G1 X92.401 Y105.411 E4.13030
G1 X92.728 Y105.516 E4.15299
G1 X92.968 Y105.634 E4.17073
G1 X92.782 Y106.100 F15000.000
G1 X93.005 Y106.253 E4.18858 F780
G1 X93.222 Y106.460 E4.20843
G1 X93.372 Y106.648 E4.22427
G1 X93.508 Y106.881 E4.24213
G1 X93.610 Y107.131 E4.25998
G1 X93.673 Y107.394 E4.27784
G1 X93.698 Y107.663 E4.29569
G1 X93.683 Y107.933 E4.31355
G1 X93.629 Y108.197 E4.33140
G1 X93.537 Y108.451 E4.34926
G1 X93.409 Y108.689 E4.36711
G1 X93.156 Y109.005 E4.39386
G1 X92.840 Y109.259 E4.42061
G1 X92.602 Y109.386 E4.43847
G1 X92.348 Y109.478 E4.45632
G1 X92.083 Y109.532 E4.47417
G1 X91.814 Y109.547 E4.49203
G1 X91.576 Y109.525 E4.50778
G1 X91.282 Y109.459 E4.52772
G1 X91.031 Y109.358 E4.54557
G1 X90.798 Y109.221 E4.56343
G1 X90.587 Y109.052 E4.58128
G1 X90.403 Y108.854 E4.59914
G1 X90.250 Y108.632 E4.61699
G1 X90.131 Y108.389 E4.63485
G1 X90.049 Y108.132 E4.65270
G1 X90.026 Y107.996 E4.66179
G1 X90.004 Y107.865 E4.67056
G1 X89.999 Y107.595 E4.68841
G1 X90.034 Y107.327 E4.70627
G1 X90.107 Y107.067 E4.72412
G1 X90.217 Y106.821 E4.74198
G1 X90.362 Y106.593 E4.75983
G1 X90.539 Y106.388 E4.77769
G1 X90.743 Y106.211 E4.79554
G1 X90.971 Y106.067 E4.81340
G1 X91.218 Y105.956 E4.83125
G1 X91.478 Y105.883 E4.84911
G1 X91.746 Y105.849 E4.86696
G1 X92.016 Y105.854 E4.88482
G1 X92.283 Y105.898 E4.90267
G1 X92.540 Y105.981 E4.92053
G1 X92.715 Y106.067 E4.93343
G1 X93.020 Y105.972 F15000.000
G1 F3600.000 E1.73343
G92 E0
G1 X134.754 Y107.568 F15000.000
G1 E3.20000 F3600.000
G1 X134.797 Y107.227 E3.22269 F780
G1 X134.890 Y106.897 E3.24539
G1 X135.030 Y106.583 E3.26807
G1 X135.215 Y106.293 E3.29077
G1 X135.439 Y106.034 E3.31346
G1 X135.755 Y105.773 E3.34054
G1 X135.989 Y105.625 E3.35880
G1 X136.302 Y105.485 E3.38150
G1 X136.633 Y105.392 E3.40419
G1 X137.040 Y105.349 E3.43126
G1 X137.317 Y105.354 E3.44953
G1 X137.655 Y105.411 E3.47222
G1 X137.982 Y105.516 E3.49491
G1 X138.291 Y105.667 E3.51761
G1 X138.573 Y105.862 E3.54030
G1 X138.825 Y106.095 E3.56299
G1 X139.040 Y106.363 E3.58568
G1 X139.213 Y106.660 E3.60838
G1 X139.342 Y106.978 E3.63106
G1 X139.423 Y107.312 E3.65376
G1 X139.454 Y107.654 E3.67645
G1 X139.435 Y107.997 E3.69914
G1 X139.366 Y108.333 E3.72183
G1 X139.250 Y108.656 E3.74452
G1 X139.087 Y108.958 E3.76721
G1 X138.890 Y109.223 E3.78900
G1 X138.764 Y109.359 E3.80125
G1 X138.628 Y109.485 E3.81350
G1 X138.364 Y109.682 E3.83529
G1 X138.061 Y109.844 E3.85798
G1 X137.739 Y109.961 E3.88067
G1 X137.402 Y110.030 E3.90336
G1 X137.059 Y110.048 E3.92605
G1 X136.717 Y110.017 E3.94875
G1 X136.384 Y109.936 E3.97144
G1 X136.065 Y109.808 E3.99413
G1 X135.769 Y109.634 E4.01682
G1 X135.501 Y109.419 E4.03952
G1 X135.267 Y109.168 E4.06221
G1 X135.073 Y108.885 E4.08489
G1 X134.921 Y108.577 E4.10759
G1 X134.816 Y108.250 E4.13028
G1 X134.760 Y107.911 E4.15297
G1 X134.755 Y107.643 E4.17070
G1 X135.254 Y107.595 F15000.000
G1 X135.289 Y107.327 E4.18856 F780
G1 X135.362 Y107.067 E4.20642
G1 X135.472 Y106.821 E4.22427
G1 X135.617 Y106.593 E4.24212
G1 X135.794 Y106.388 E4.25998
G1 X136.024 Y106.195 E4.27982
G1 X136.226 Y106.067 E4.29567
G1 X136.473 Y105.956 E4.31353
G1 X136.733 Y105.883 E4.33138
G1 X137.031 Y105.849 E4.35122
G1 X137.271 Y105.854 E4.36707
G1 X137.538 Y105.898 E4.38493
G1 X137.795 Y105.981 E4.40278
G1 X138.037 Y106.100 E4.42064
G1 X138.260 Y106.253 E4.43849
G1 X138.458 Y106.437 E4.45635
G1 X138.627 Y106.648 E4.47420
G1 X138.763 Y106.881 E4.49206
G1 X138.864 Y107.131 E4.50991
G1 X138.928 Y107.394 E4.52777
G1 X138.953 Y107.663 E4.54562
G1 X138.938 Y107.933 E4.56347
G1 X138.884 Y108.197 E4.58133
G1 X138.792 Y108.451 E4.59918
G1 X138.664 Y108.689 E4.61704
G1 X138.410 Y109.005 E4.64379
G1 X138.095 Y109.259 E4.67054
G1 X137.857 Y109.386 E4.68839
G1 X137.603 Y109.478 E4.70625
G1 X137.338 Y109.532 E4.72410
G1 X137.068 Y109.547 E4.74196
G1 X136.799 Y109.522 E4.75981
G1 X136.537 Y109.459 E4.77767
G1 X136.286 Y109.358 E4.79552
G1 X136.053 Y109.221 E4.81338
G1 X135.842 Y109.052 E4.83123
G1 X135.658 Y108.854 E4.84909
G1 X135.505 Y108.632 E4.86694
G1 X135.386 Y108.389 E4.88480
G1 X135.303 Y108.132 E4.90265
G1 X135.259 Y107.865 E4.92051
G1 X135.256 Y107.670 E4.93340
G1 X135.032 Y107.442 F15000.000
G1 F3600.000 E1.73340
G92 E0
G1 X141.285 Y111.537 F15000.000
G1 E3.20000 F3600.000
G1 X141.510 Y111.277 E3.22269 F780
G1 X141.826 Y111.017 E3.24977
G1 X142.059 Y110.868 E3.26804
G1 X142.373 Y110.728 E3.29073
G1 X142.703 Y110.635 E3.31342
G1 X143.111 Y110.593 E3.34050
G1 X143.387 Y110.598 E3.35877
G1 X143.726 Y110.654 E3.38145
G1 X144.053 Y110.759 E3.40415
G1 X144.361 Y110.910 E3.42684
G1 X144.644 Y111.105 E3.44954
G1 X144.895 Y111.339 E3.47222
G1 X145.110 Y111.607 E3.49492
G1 X145.284 Y111.903 E3.51761
G1 X145.412 Y112.221 E3.54030
G1 X145.477 Y112.490 E3.55857
G1 X145.524 Y112.897 E3.58564
G1 X145.505 Y113.240 E3.60833
G1 X145.437 Y113.576 E3.63103
G1 X145.320 Y113.899 E3.65372
G1 X145.158 Y114.202 E3.67641
G1 X144.961 Y114.466 E3.69819
G1 X144.835 Y114.602 E3.71043
G1 X144.699 Y114.728 E3.72269
G1 X144.434 Y114.925 E3.74448
G1 X144.132 Y115.087 E3.76717
G1 X143.809 Y115.204 E3.78986
G1 X143.473 Y115.273 E3.81256
G1 X143.130 Y115.292 E3.83525
G1 X142.788 Y115.260 E3.85794
G1 X142.454 Y115.180 E3.88063
G1 X142.136 Y115.051 E3.90332
G1 X141.839 Y114.878 E3.92601
G1 X141.571 Y114.663 E3.94871
G1 X141.338 Y114.411 E3.97140
G1 X141.143 Y114.128 E3.99409
G1 X140.992 Y113.820 E4.01678
G1 X140.887 Y113.493 E4.03948
G1 X140.830 Y113.154 E4.06217
G1 X140.824 Y112.811 E4.08485
G1 X140.868 Y112.471 E4.10755
G1 X140.961 Y112.140 E4.13024
G1 X141.101 Y111.827 E4.15293
G1 X141.245 Y111.600 E4.17067
G1 X141.687 Y111.836 F15000.000
G1 X141.864 Y111.631 E4.18852 F780
G1 X142.094 Y111.438 E4.20836
G1 X142.297 Y111.310 E4.22421
G1 X142.543 Y111.200 E4.24207
G1 X142.803 Y111.127 E4.25992
G1 X143.102 Y111.093 E4.27976
G1 X143.341 Y111.097 E4.29561
G1 X143.608 Y111.141 E4.31347
G1 X143.865 Y111.224 E4.33132
G1 X144.108 Y111.343 E4.34918
G1 X144.330 Y111.496 E4.36703
G1 X144.528 Y111.680 E4.38489
G1 X144.697 Y111.891 E4.40274
G1 X144.834 Y112.124 E4.42060
G1 X144.935 Y112.375 E4.43845
G1 X144.991 Y112.608 E4.45430
G1 X145.023 Y112.906 E4.47414
G1 X145.008 Y113.176 E4.49200
G1 X144.954 Y113.441 E4.50985
G1 X144.862 Y113.695 E4.52771
G1 X144.734 Y113.933 E4.54556
G1 X144.481 Y114.248 E4.57231
G1 X144.165 Y114.502 E4.59906
G1 X143.927 Y114.630 E4.61692
G1 X143.673 Y114.722 E4.63477
G1 X143.409 Y114.776 E4.65262
G1 X143.139 Y114.790 E4.67048
G1 X142.870 Y114.766 E4.68833
G1 X142.607 Y114.702 E4.70619
G1 X142.357 Y114.601 E4.72404
G1 X142.123 Y114.465 E4.74190
G1 X141.913 Y114.296 E4.75975
G1 X141.729 Y114.098 E4.77761
G1 X141.576 Y113.875 E4.79546
G1 X141.456 Y113.633 E4.81332
G1 X141.374 Y113.375 E4.83117
G1 X141.330 Y113.109 E4.84903
G1 X141.325 Y112.839 E4.86688
G1 X141.359 Y112.571 E4.88474
G1 X141.432 Y112.311 E4.90259
G1 X141.542 Y112.064 E4.92045
G1 X141.647 Y111.899 E4.93335
G1 X141.586 Y111.585 F15000.000
G1 F3600.000 E1.73335
G92 E0
G1 X134.007 Y110.621 F15000.000
G1 E3.20000 F3600.000
