; generated by Slic3r 0.9.9-dev on 2013-12-17 at 20:36:47

; M-PLA-05-03-1

; layer_height = 0.3
; perimeters = 2
; top_solid_layers = 3
; bottom_solid_layers = 2
; fill_density = 0.2
; perimeter_speed = 40
; infill_speed = 40
; travel_speed = 250
; scale = 1
; nozzle_diameter = 0.5
; filament_diameter = 1.70
; extrusion_multiplier = 1.0
; perimeters extrusion width = 0.50mm
; infill extrusion width = 0.50mm
; first layer extrusion width = 0.50mm

M107
M190 S57 ; wait for bed temperature to be reached
M104 S200 ; set temperature
G28 X0 Y0
G1 X75 Y75 F12000
G28 Z0
G1 Z0.3 F200
G1 X15 Y20 F12000
M109 S200 ; wait for temperature to be reached
G90 ; use absolute coordinates
G21 ; set units to millimeters
G92 E0
M82 ; use absolute distances for extrusion
G1 F3600.000 E-2.40000
G92 E0
G1 Z0.300 F15000.000
G1 X59.237 Y58.597
G1 X59.557 Y58.307 F3600.000 E2.40000
G1 X59.557 Y58.307 F2400.000
G1 X60.287 Y57.737 E2.46121
G1 X60.607 Y57.517 E2.48687
G1 X61.407 Y57.027 E2.54887
G1 X61.827 Y56.807 E2.58020
G1 X62.687 Y56.427 E2.64233
G1 X63.047 Y56.287 E2.66786
G1 X63.937 Y56.007 E2.72952
G1 X64.347 Y55.907 E2.75741
G1 X65.267 Y55.737 E2.81923
G1 X65.687 Y55.687 E2.84719
G1 X66.847 Y55.617 E2.92398
G1 X86.617 Y55.617 E4.23049
G1 X87.917 Y55.867 E4.31797
G1 X89.027 Y56.577 E4.40505
G1 X93.307 Y60.637 E4.79491
G1 X93.897 Y61.377 E4.85745
G1 X94.267 Y62.237 E4.91932
G1 X94.397 Y63.177 E4.98203
G1 X94.397 Y83.107 E6.29911
G1 X94.327 Y84.267 E6.37590
G1 X94.287 Y84.647 E6.40116
G1 X94.127 Y85.567 E6.46287
G1 X94.017 Y86.007 E6.49284
G1 X93.737 Y86.907 E6.55513
G1 X93.577 Y87.327 E6.58483
G1 X93.187 Y88.177 E6.64663
G1 X93.007 Y88.517 E6.67205
G1 X92.527 Y89.317 E6.73371
G1 X92.277 Y89.677 E6.76267
G1 X91.697 Y90.417 E6.82481
G1 X91.417 Y90.727 E6.85241
G1 X90.757 Y91.387 E6.91410
G1 X90.447 Y91.667 E6.94170
G1 X89.707 Y92.247 E7.00384
G1 X89.347 Y92.497 E7.03280
G1 X88.547 Y92.977 E7.09445
G1 X88.207 Y93.157 E7.11988
G1 X87.357 Y93.547 E7.18168
G1 X86.917 Y93.717 E7.21285
G1 X86.027 Y93.987 E7.27432
G1 X85.647 Y94.077 E7.30012
G1 X84.727 Y94.247 E7.36195
G1 X84.307 Y94.297 E7.38990
G1 X83.137 Y94.367 E7.46736
G1 X63.377 Y94.367 E8.77320
G1 X62.087 Y94.117 E8.86004
G1 X60.977 Y93.417 E8.94676
G1 X56.687 Y89.367 E9.33664
G1 X56.087 Y88.627 E9.39960
G1 X55.717 Y87.757 E9.46208
G1 X55.587 Y86.817 E9.52479
G1 X55.587 Y66.877 E10.84253
G1 X55.657 Y65.717 E10.91933
G1 X55.707 Y65.297 E10.94728
G1 X55.877 Y64.377 E11.00910
G1 X55.977 Y63.967 E11.03699
G1 X56.257 Y63.077 E11.09865
G1 X56.397 Y62.717 E11.12418
G1 X56.777 Y61.857 E11.18631
G1 X56.997 Y61.437 E11.21764
G1 X57.487 Y60.637 E11.27964
G1 X57.707 Y60.317 E11.30530
G1 X58.277 Y59.587 E11.36651
G1 X58.567 Y59.267 E11.39505
G1 X59.184 Y58.651 E11.45271
G1 X59.237 Y58.597 E11.45767
G1 F3600.000 E9.05767
G92 E0
G1 X61.767 Y61.031 F15000.000
G1 X62.239 Y60.661 F3600.000 E2.40000
G1 X62.444 Y60.500 F1200.000 E2.41724
G1 X63.245 Y60.016 E2.47908
G1 X63.892 Y59.724 E2.52596
G1 X64.099 Y59.632 E2.54092
G1 X64.992 Y59.353 E2.60277
G1 X65.912 Y59.184 E2.66461
G1 X66.854 Y59.127 E2.72695
G1 X86.618 Y59.127 E4.03306
G1 X90.903 Y63.178 E4.42275
G1 X90.903 Y83.115 E5.74027
G1 X90.846 Y84.057 E5.80261
G1 X90.678 Y84.977 E5.86445
G1 X90.399 Y85.871 E5.92630
G1 X90.015 Y86.724 E5.98814
G1 X89.531 Y87.525 E6.04998
G1 X88.954 Y88.261 E6.11183
G1 X88.292 Y88.923 E6.17367
G1 X87.556 Y89.500 E6.23551
G1 X86.755 Y89.984 E6.29736
G1 X86.108 Y90.276 E6.34424
G1 X85.901 Y90.368 E6.35920
G1 X85.008 Y90.647 E6.42104
G1 X84.088 Y90.816 E6.48289
G1 X83.146 Y90.873 E6.54523
G1 X63.382 Y90.873 E7.85133
G1 X59.097 Y86.822 E8.24103
G1 X59.097 Y66.885 E9.55855
G1 X59.154 Y65.943 E9.62089
G1 X59.322 Y65.023 E9.68273
G1 X59.601 Y64.129 E9.74458
G1 X59.985 Y63.276 E9.80642
G1 X60.469 Y62.475 E9.86826
G1 X61.046 Y61.739 E9.93010
G1 X61.372 Y61.413 E9.96056
G1 X61.767 Y61.031
G1 X62.099 Y61.406 F15000.000
G1 X62.729 Y60.912 F1200.000 E10.01345
G1 X63.478 Y60.459 E10.07129
G1 X64.097 Y60.180 E10.11618
G1 X64.276 Y60.100 E10.12914
G1 X65.112 Y59.839 E10.18698
G1 X65.973 Y59.682 E10.24483
G1 X66.869 Y59.627 E10.30418
G1 X86.419 Y59.627 E11.59614
G1 X90.403 Y63.394 E11.95845
G1 X90.403 Y83.100 E13.26074
G1 X90.349 Y83.996 E13.32008
G1 X90.191 Y84.857 E13.37793
G1 X89.931 Y85.693 E13.43577
G1 X89.572 Y86.491 E13.49362
G1 X89.119 Y87.240 E13.55147
G1 X88.700 Y87.775 E13.59635
G1 X88.579 Y87.929 E13.60931
G1 X87.960 Y88.548 E13.66716
G1 X87.271 Y89.088 E13.72500
G1 X86.522 Y89.541 E13.78285
G1 X85.903 Y89.820 E13.82773
G1 X85.724 Y89.900 E13.84069
G1 X84.888 Y90.160 E13.89854
G1 X84.027 Y90.318 E13.95639
G1 X83.131 Y90.373 E14.01573
G1 X63.581 Y90.373 E15.30769
G1 X59.597 Y86.606 E15.67001
G1 X59.597 Y66.900 E16.97229
G1 X59.651 Y66.004 E17.03164
G1 X59.809 Y65.143 E17.08948
G1 X60.069 Y64.307 E17.14733
G1 X60.428 Y63.509 E17.20518
G1 X60.881 Y62.760 E17.26302
G1 X61.421 Y62.071 E17.32087
G1 X61.722 Y61.770 E17.34897
G1 X62.099 Y61.406
G1 F3600.000 E14.94897
G92 E0
G1 X60.258 Y86.553 F15000.000
G1 X59.937 Y86.232 F3600.000 E2.40000
G1 X59.937 Y86.232 F2400.000
G1 X59.937 Y85.521 E2.44720
G1 X64.448 Y90.032 E2.87087
G1 X65.159 Y90.032 E2.91807
G1 X59.937 Y84.810 E3.40850
G1 X59.937 Y84.100 E3.45570
G1 X65.869 Y90.032 E4.01287
G1 X66.580 Y90.032 E4.06007
G1 X59.937 Y83.389 E4.68400
G1 X59.937 Y82.678 E4.73120
G1 X67.291 Y90.032 E5.42187
G1 X68.001 Y90.032 E5.46907
G1 X59.937 Y81.968 E6.22650
G1 X59.937 Y81.257 E6.27370
G1 X68.712 Y90.032 E7.09788
G1 X69.423 Y90.032 E7.14508
G1 X59.937 Y80.546 E8.03601
G1 X59.937 Y79.836 E8.08321
G1 X70.133 Y90.032 E9.04088
G1 X70.844 Y90.032 E9.08808
G1 X59.937 Y79.125 E10.11252
G1 X59.937 Y78.415 E10.15972
G1 X71.555 Y90.032 E11.25090
G1 X72.265 Y90.032 E11.29810
G1 X59.937 Y77.704 E12.45603
G1 X59.937 Y76.993 E12.50323
G1 X72.976 Y90.032 E13.72791
G1 X73.687 Y90.032 E13.77511
G1 X59.937 Y76.283 E15.06654
G1 X59.937 Y75.572 E15.11374
G1 X74.397 Y90.032 E16.47193
G1 X75.108 Y90.032 E16.51913
G1 X59.937 Y74.861 E17.94406
G1 X59.937 Y74.151 E17.99126
G1 X75.819 Y90.032 E19.48295
G1 X76.529 Y90.032 E19.53015
G1 X59.937 Y73.440 E21.08859
G1 X59.937 Y72.729 E21.13579
G1 X77.240 Y90.032 E22.76098
G1 X77.950 Y90.032 E22.80818
G1 X59.937 Y72.019 E24.50011
G1 X59.937 Y71.308 E24.54731
G1 X78.661 Y90.032 E26.30600
G1 X79.372 Y90.032 E26.35320
G1 X59.937 Y70.597 E28.17865
G1 X59.937 Y69.887 E28.22585
G1 X80.082 Y90.032 E30.11804
G1 X80.793 Y90.032 E30.16524
G1 X59.937 Y69.176 E32.12418
G1 X59.937 Y68.465 E32.17138
G1 X81.504 Y90.032 E34.19707
G1 X82.214 Y90.032 E34.24427
G1 X59.937 Y67.755 E36.33672
G1 X59.937 Y67.044 E36.38392
G1 X82.925 Y90.032 E38.54311
G1 X83.615 Y90.011 E38.58896
G1 X59.961 Y66.357 E40.81071
G1 X60.025 Y65.710 E40.85392
G1 X84.269 Y89.954 E43.13113
G1 X84.869 Y89.844 E43.17168
G1 X60.135 Y65.109 E45.49496
G1 X60.303 Y64.567 E45.53268
G1 X85.417 Y89.681 E47.89158
G1 X85.934 Y89.488 E47.92827
G1 X60.500 Y64.054 E50.31724
G1 X60.723 Y63.565 E50.35287
G1 X86.425 Y89.267 E52.76698
G1 X86.870 Y89.002 E52.80141
G1 X60.991 Y63.123 E55.23219
G1 X61.279 Y62.700 E55.26615
G1 X87.296 Y88.717 E57.70988
G1 X87.694 Y88.405 E57.74350
G1 X61.591 Y62.302 E60.19532
G1 X61.940 Y61.940 E60.22870
G1 X88.060 Y88.060 E62.68205
G1 X88.409 Y87.698 E62.71543
G1 X62.306 Y61.595 E65.16726
G1 X62.704 Y61.283 E65.20088
G1 X88.721 Y87.300 E67.64460
G1 X89.009 Y86.877 E67.67856
G1 X63.130 Y60.998 E70.10934
G1 X63.575 Y60.733 E70.14377
G1 X89.277 Y86.434 E72.55788
G1 X89.500 Y85.946 E72.59352
G1 X64.066 Y60.512 E74.98248
G1 X64.583 Y60.319 E75.01918
G1 X89.697 Y85.433 E77.37808
G1 X89.865 Y84.891 E77.41579
G1 X65.131 Y60.156 E79.73908
G1 X65.731 Y60.046 E79.77963
G1 X89.975 Y84.290 E82.05684
G1 X90.039 Y83.643 E82.10005
G1 X66.385 Y59.989 E84.32179
G1 X67.075 Y59.968 E84.36764
G1 X90.063 Y82.956 E86.52684
G1 X90.063 Y82.245 E86.57404
G1 X67.786 Y59.968 E88.66648
G1 X68.496 Y59.968 E88.71368
G1 X90.063 Y81.535 E90.73937
G1 X90.063 Y80.824 E90.78657
G1 X69.207 Y59.968 E92.74552
G1 X69.918 Y59.968 E92.79272
G1 X90.063 Y80.113 E94.68491
G1 X90.063 Y79.403 E94.73211
G1 X70.628 Y59.968 E96.55755
G1 X71.339 Y59.968 E96.60475
G1 X90.063 Y78.692 E98.36344
G1 X90.063 Y77.981 E98.41064
G1 X72.049 Y59.968 E100.10257
G1 X72.760 Y59.968 E100.14977
G1 X90.063 Y77.271 E101.77496
G1 X90.063 Y76.560 E101.82216
G1 X73.471 Y59.968 E103.38060
G1 X74.181 Y59.968 E103.42780
G1 X90.063 Y75.849 E104.91948
G1 X90.063 Y75.139 E104.96668
G1 X74.892 Y59.968 E106.39162
G1 X75.603 Y59.968 E106.43882
G1 X90.063 Y74.428 E107.79700
G1 X90.063 Y73.717 E107.84420
G1 X76.313 Y59.968 E109.13564
G1 X77.024 Y59.968 E109.18284
G1 X90.063 Y73.007 E110.40752
G1 X90.063 Y72.296 E110.45472
G1 X77.735 Y59.968 E111.61265
G1 X78.445 Y59.968 E111.65985
G1 X90.063 Y71.585 E112.75103
G1 X90.063 Y70.875 E112.79823
G1 X79.156 Y59.968 E113.82266
G1 X79.867 Y59.968 E113.86986
G1 X90.063 Y70.164 E114.82754
G1 X90.063 Y69.454 E114.87474
G1 X80.577 Y59.968 E115.76567
G1 X81.288 Y59.968 E115.81287
G1 X90.063 Y68.743 E116.63705
G1 X90.063 Y68.032 E116.68425
G1 X81.999 Y59.968 E117.44167
G1 X82.709 Y59.968 E117.48887
G1 X90.063 Y67.322 E118.17955
G1 X90.063 Y66.611 E118.22675
G1 X83.420 Y59.968 E118.85067
G1 X84.131 Y59.968 E118.89787
G1 X90.063 Y65.900 E119.45505
G1 X90.063 Y65.190 E119.50225
G1 X84.841 Y59.968 E119.99267
G1 X85.552 Y59.968 E120.03987
G1 X90.063 Y64.479 E120.46354
G1 X90.063 Y63.768 E120.51074
G1 X89.742 Y63.447 E120.54088
M104 S185 ; set temperature
G1 F3600.000 E118.14088
G92 E0
G1 Z0.600 F15000.000
G1 X90.903 Y63.253
G1 X90.903 Y63.853 F3600.000 E2.40000
G1 X90.903 Y83.115 F2400.000 E3.67291
G1 X90.846 Y84.057 E3.73525
G1 X90.678 Y84.977 E3.79710
G1 X90.399 Y85.871 E3.85894
G1 X90.015 Y86.724 E3.92078
G1 X89.898 Y86.918 E3.93575
G1 X89.531 Y87.525 E3.98263
G1 X88.954 Y88.261 E4.04447
G1 X88.292 Y88.923 E4.10631
G1 X87.556 Y89.500 E4.16816
G1 X86.755 Y89.984 E4.23000
G1 X85.901 Y90.368 E4.29184
G1 X85.008 Y90.647 E4.35369
G1 X84.088 Y90.816 E4.41553
G1 X83.146 Y90.873 E4.47787
G1 X63.382 Y90.873 E5.78398
G1 X59.097 Y86.822 E6.17367
G1 X59.097 Y66.885 E7.49119
G1 X59.154 Y65.943 E7.55353
G1 X59.322 Y65.023 E7.61538
G1 X59.601 Y64.129 E7.67722
G1 X59.985 Y63.276 E7.73906
G1 X60.469 Y62.475 E7.80090
G1 X61.046 Y61.739 E7.86275
G1 X61.206 Y61.579 E7.87771
G1 X61.708 Y61.077 E7.92459
G1 X62.444 Y60.500 E7.98643
G1 X63.245 Y60.016 E8.04828
G1 X63.452 Y59.923 E8.06324
G1 X64.099 Y59.632 E8.11012
G1 X64.992 Y59.353 E8.17196
G1 X65.912 Y59.184 E8.23381
G1 X66.854 Y59.127 E8.29615
G1 X86.618 Y59.127 E9.60226
G1 X90.558 Y62.852 E9.96056
G1 X90.903 Y63.253
G1 X90.403 Y63.469 F15000.000
G1 X90.403 Y83.100 F2400.000 E11.25789
G1 X90.349 Y83.996 E11.31723
G1 X90.191 Y84.857 E11.37508
G1 X89.931 Y85.693 E11.43292
G1 X89.572 Y86.491 E11.49077
G1 X89.470 Y86.659 E11.50373
G1 X89.119 Y87.240 E11.54862
G1 X88.579 Y87.929 E11.60646
G1 X87.960 Y88.548 E11.66431
G1 X87.271 Y89.088 E11.72215
G1 X86.522 Y89.541 E11.78000
G1 X85.724 Y89.900 E11.83785
G1 X84.888 Y90.160 E11.89569
G1 X84.027 Y90.318 E11.95354
G1 X83.131 Y90.373 E12.01288
G1 X63.581 Y90.373 E13.30484
G1 X59.597 Y86.606 E13.66716
G1 X59.597 Y66.900 E14.96944
G1 X59.651 Y66.004 E15.02879
G1 X59.809 Y65.143 E15.08663
G1 X60.069 Y64.307 E15.14448
G1 X60.428 Y63.509 E15.20233
G1 X60.530 Y63.341 E15.21529
G1 X60.881 Y62.760 E15.26017
G1 X61.421 Y62.071 E15.31802
G1 X62.040 Y61.452 E15.37586
G1 X62.729 Y60.912 E15.43371
G1 X63.478 Y60.459 E15.49156
G1 X63.657 Y60.379 E15.50452
G1 X64.276 Y60.100 E15.54940
G1 X65.112 Y59.839 E15.60725
G1 X65.973 Y59.682 E15.66509
G1 X66.869 Y59.627 E15.72444
G1 X86.419 Y59.627 E17.01640
G1 X90.076 Y63.085 E17.34897
G1 X90.403 Y63.469
G1 F3600.000 E14.94897
G92 E0
G1 X88.364 Y87.437 F15000.000
G1 X87.940 Y87.862 F3600.000 E2.40000
G1 X87.468 Y88.333 F2400.000 E2.44464
G1 X85.581 Y89.504 E2.59342
G1 X89.535 Y85.550 E2.96797
G1 X89.881 Y84.487 E3.04285
G1 X84.518 Y89.850 E3.55090
G1 X83.662 Y89.989 E3.60896
G1 X90.020 Y83.631 E4.21122
G1 X90.063 Y82.872 E4.26216
G1 X82.903 Y90.032 E4.94040
G1 X82.186 Y90.032 E4.98840
G1 X90.063 Y82.155 E5.73453
G1 X90.063 Y81.438 E5.78253
G1 X81.469 Y90.032 E6.59655
G1 X80.753 Y90.032 E6.64456
G1 X90.063 Y80.722 E7.52646
G1 X90.063 Y80.005 E7.57447
G1 X80.036 Y90.032 E8.52426
G1 X79.319 Y90.032 E8.57227
G1 X90.063 Y79.288 E9.58996
G1 X90.063 Y78.572 E9.63796
G1 X78.603 Y90.032 E10.72354
G1 X77.886 Y90.032 E10.77155
G1 X90.063 Y77.855 E11.92502
G1 X90.063 Y77.138 E11.97302
G1 X77.169 Y90.032 E13.19438
G1 X76.452 Y90.032 E13.24239
G1 X90.063 Y76.421 E14.53164
G1 X90.063 Y75.705 E14.57964
G1 X75.736 Y90.032 E15.93678
G1 X75.019 Y90.032 E15.98479
G1 X90.063 Y74.988 E17.40982
G1 X90.063 Y74.271 E17.45783
G1 X74.302 Y90.032 E18.95075
G1 X73.586 Y90.032 E18.99875
G1 X90.063 Y73.555 E20.55957
G1 X90.063 Y72.838 E20.60757
G1 X72.869 Y90.032 E22.23627
G1 X72.152 Y90.032 E22.28428
G1 X90.063 Y72.121 E23.98087
G1 X90.063 Y71.405 E24.02888
G1 X71.436 Y90.032 E25.79336
G1 X70.719 Y90.032 E25.84137
G1 X90.063 Y70.688 E27.67374
G1 X90.063 Y69.971 E27.72175
G1 X70.002 Y90.032 E29.62202
G1 X69.285 Y90.032 E29.67002
G1 X90.063 Y69.254 E31.63818
G1 X90.063 Y68.538 E31.68618
G1 X68.569 Y90.032 E33.72223
G1 X67.852 Y90.032 E33.77024
G1 X90.063 Y67.821 E35.87417
G1 X90.063 Y67.104 E35.92218
G1 X67.135 Y90.032 E38.09401
G1 X66.419 Y90.032 E38.14201
G1 X90.063 Y66.388 E40.38173
G1 X90.063 Y65.671 E40.42974
G1 X65.702 Y90.032 E42.73735
G1 X64.985 Y90.032 E42.78535
G1 X90.063 Y64.954 E45.16085
G1 X90.063 Y64.238 E45.20886
G1 X64.268 Y90.032 E47.65225
G1 X63.585 Y89.998 E47.69807
G1 X90.063 Y63.521 E50.20619
G1 X89.731 Y63.136 E50.24023
G1 X63.217 Y89.650 E52.75180
G1 X62.848 Y89.302 E52.78576
G1 X89.362 Y62.788 E55.29733
G1 X88.994 Y62.440 E55.33129
G1 X62.480 Y88.953 E57.84286
G1 X62.111 Y88.605 E57.87682
G1 X88.625 Y62.091 E60.38839
G1 X88.257 Y61.743 E60.42235
G1 X61.743 Y88.257 E62.93392
G1 X61.375 Y87.909 E62.96788
G1 X87.889 Y61.395 E65.47945
G1 X87.520 Y61.047 E65.51341
G1 X61.006 Y87.560 E68.02498
G1 X60.638 Y87.212 E68.05894
G1 X87.152 Y60.698 E70.57051
G1 X86.783 Y60.350 E70.60447
G1 X60.269 Y86.864 E73.11604
G1 X59.937 Y86.479 E73.15007
G1 X86.415 Y60.002 E75.65819
G1 X85.732 Y59.968 E75.70401
G1 X59.937 Y85.762 E78.14740
G1 X59.937 Y85.046 E78.19541
G1 X85.015 Y59.968 E80.57091
G1 X84.298 Y59.968 E80.61891
G1 X59.937 Y84.329 E82.92652
G1 X59.937 Y83.612 E82.97453
G1 X83.581 Y59.968 E85.21425
G1 X82.865 Y59.968 E85.26225
G1 X59.937 Y82.896 E87.43408
G1 X59.937 Y82.179 E87.48209
G1 X82.148 Y59.968 E89.58602
G1 X81.431 Y59.968 E89.63403
G1 X59.937 Y81.462 E91.67007
G1 X59.937 Y80.746 E91.71808
G1 X80.715 Y59.968 E93.68624
G1 X79.998 Y59.968 E93.73424
G1 X59.937 Y80.029 E95.63451
G1 X59.937 Y79.312 E95.68251
G1 X79.281 Y59.968 E97.51489
G1 X78.564 Y59.968 E97.56289
G1 X59.937 Y78.595 E99.32738
G1 X59.937 Y77.879 E99.37538
G1 X77.848 Y59.968 E101.07198
G1 X77.131 Y59.968 E101.11998
G1 X59.937 Y77.162 E102.74868
G1 X59.937 Y76.445 E102.79669
G1 X76.414 Y59.968 E104.35750
G1 X75.698 Y59.968 E104.40551
G1 X59.937 Y75.729 E105.89843
G1 X59.937 Y75.012 E105.94643
G1 X74.981 Y59.968 E107.37147
G1 X74.264 Y59.968 E107.41947
G1 X59.937 Y74.295 E108.77661
G1 X59.937 Y73.579 E108.82462
G1 X73.548 Y59.968 E110.11387
G1 X72.831 Y59.968 E110.16187
G1 X59.937 Y72.862 E111.38323
G1 X59.937 Y72.145 E111.43124
G1 X72.114 Y59.968 E112.58470
G1 X71.397 Y59.968 E112.63271
G1 X59.937 Y71.428 E113.71829
G1 X59.937 Y70.712 E113.76629
G1 X70.681 Y59.968 E114.78398
G1 X69.964 Y59.968 E114.83199
G1 X59.937 Y69.995 E115.78178
G1 X59.937 Y69.278 E115.82979
G1 X69.247 Y59.968 E116.71169
G1 X68.531 Y59.968 E116.75970
G1 X59.937 Y68.562 E117.57371
G1 X59.937 Y67.845 E117.62172
G1 X67.814 Y59.968 E118.36784
G1 X67.097 Y59.968 E118.41585
G1 X59.937 Y67.128 E119.09408
G1 X59.980 Y66.369 E119.14503
G1 X66.338 Y60.011 E119.74729
G1 X65.482 Y60.150 E119.80535
G1 X60.119 Y65.513 E120.31339
G1 X60.465 Y64.450 E120.38828
G1 X64.419 Y60.496 E120.76282
G1 X62.532 Y61.667 E120.91161
G1 X61.636 Y62.563 E120.99644
M106 S255
G1 F3600.000 E118.59644
G92 E0
G1 Z0.900 F15000.000
G1 X67.643 Y86.373
