; generated by Slic3r 0.9.9-dev on 2014-02-05 at 15:53:31

; M-PLA-05-03-1

; layer_height = 0.3
; perimeters = 2
; top_solid_layers = 3
; bottom_solid_layers = 2
; fill_density = 0.2
; perimeter_speed = 40
; infill_speed = 40
; travel_speed = 250
; scale = 1
; nozzle_diameter = 0.5
; filament_diameter = 1.75
; extrusion_multiplier = 1.0
; perimeters extrusion width = 0.50mm
; infill extrusion width = 0.50mm
; first layer extrusion width = 0.50mm

M190 S57 ; wait for bed temperature to be reached
M104 S200 ; set temperature
G28 X0 Y0
G1 X75 Y75 F12000
G28 Z0
G1 Z0.3 F200
G1 X15 Y20 F12000
M109 S200 ; wait for temperature to be reached
G90 ; use absolute coordinates
G21 ; set units to millimeters
G92 E0
M82 ; use absolute distances for extrusion
M106 S76
G1 F3600.000 E-2.40000
G92 E0
G1 Z0.300 F15000.000
G1 X11.050 Y10.760
G1 X11.193 Y10.620 F3600.000 E2.40000
G1 X11.470 Y10.350 F1200.000 E2.42413
G1 X11.720 Y10.160 E2.44371
G1 X11.950 Y10.000 E2.46119
G1 X12.440 Y9.710 E2.49669
G1 X12.690 Y9.590 E2.51399
G1 X13.000 Y9.460 E2.53495
G1 X13.590 Y9.290 E2.57324
G1 X14.110 Y9.200 E2.60615
G1 X14.760 Y9.150 E2.64681
G1 X55.770 Y9.150 E5.20431
G1 X135.270 Y10.150 E10.16254
G1 X135.880 Y10.200 E10.20071
G1 X136.400 Y10.290 E10.23362
G1 X136.990 Y10.460 E10.27191
G1 X137.300 Y10.590 E10.29287
G1 X137.550 Y10.710 E10.31016
G1 X138.030 Y10.990 E10.34482
G1 X138.280 Y11.160 E10.36367
G1 X138.520 Y11.350 E10.38276
G1 X138.940 Y11.760 E10.41937
G1 X139.150 Y11.980 E10.43833
G1 X139.500 Y12.460 E10.47538
G1 X139.790 Y12.950 E10.51089
G1 X140.040 Y13.510 E10.54913
G1 X140.210 Y14.100 E10.58742
G1 X140.270 Y14.420 E10.60773
G1 X140.310 Y14.740 E10.62784
G1 X140.340 Y15.270 E10.66094
G1 X140.370 Y62.660 E13.61632
G1 X140.340 Y135.730 E18.17316
G1 X140.310 Y136.260 E18.20627
G1 X140.210 Y136.900 E18.24666
G1 X140.040 Y137.490 E18.28495
G1 X139.910 Y137.800 E18.30592
G1 X139.790 Y138.050 E18.32321
G1 X139.500 Y138.540 E18.35872
G1 X139.340 Y138.770 E18.37619
G1 X139.150 Y139.020 E18.39578
G1 X138.740 Y139.440 E18.43238
G1 X138.520 Y139.650 E18.45135
G1 X138.040 Y140.000 E18.48839
G1 X137.550 Y140.290 E18.52390
G1 X136.990 Y140.540 E18.56215
G1 X136.400 Y140.710 E18.60044
G1 X136.080 Y140.770 E18.62074
G1 X135.760 Y140.810 E18.64085
G1 X135.230 Y140.840 E18.67396
G1 X94.220 Y140.840 E21.23145
G1 X15.220 Y139.840 E26.15851
G1 X14.730 Y139.810 E26.18912
G1 X14.090 Y139.710 E26.22952
G1 X13.500 Y139.540 E26.26781
G1 X13.190 Y139.410 E26.28877
G1 X12.940 Y139.290 E26.30607
G1 X12.450 Y139.000 E26.34157
G1 X12.220 Y138.840 E26.35905
G1 X11.970 Y138.650 E26.37863
G1 X11.550 Y138.240 E26.41523
G1 X11.340 Y138.020 E26.43420
G1 X10.990 Y137.540 E26.47125
G1 X10.700 Y137.050 E26.50675
G1 X10.450 Y136.490 E26.54500
G1 X10.280 Y135.900 E26.58329
G1 X10.190 Y135.380 E26.61620
G1 X10.140 Y134.770 E26.65437
G1 X9.650 Y87.270 E29.61676
G1 X9.650 Y14.270 E34.16924
G1 X9.700 Y13.620 E34.20990
G1 X9.790 Y13.100 E34.24281
G1 X9.860 Y12.830 E34.26020
G1 X10.050 Y12.300 E34.29531
G1 X10.310 Y11.750 E34.33325
G1 X10.490 Y11.460 E34.35454
G1 X10.840 Y10.980 E34.39158
G1 X10.998 Y10.814 E34.40587
G1 X11.050 Y10.760 E34.41055
G1 F3600.000 E32.01055
G92 E0
G1 X20.825 Y121.616 F15000.000
G1 X21.208 Y121.650 F3600.000 E2.40000
G1 X21.208 Y121.650 F2400.000
G1 X21.653 Y121.769 E2.42870
G1 X22.070 Y121.963 E2.45740
G1 X22.447 Y122.227 E2.48611
G1 X22.773 Y122.553 E2.51481
G1 X22.912 Y122.752 E2.52997
G1 X23.037 Y122.930 E2.54351
G1 X23.231 Y123.347 E2.57221
G1 X23.350 Y123.792 E2.60091
G1 X23.390 Y124.250 E2.62962
G1 X23.350 Y124.708 E2.65832
G1 X23.231 Y125.153 E2.68702
G1 X23.037 Y125.570 E2.71572
G1 X22.773 Y125.947 E2.74442
G1 X22.447 Y126.273 E2.77313
G1 X22.070 Y126.537 E2.80183
G1 X21.653 Y126.731 E2.83053
G1 X21.208 Y126.850 E2.85923
G1 X20.750 Y126.890 E2.88793
G1 X20.292 Y126.850 E2.91664
G1 X19.847 Y126.731 E2.94534
G1 X19.430 Y126.537 E2.97404
G1 X19.053 Y126.273 E3.00274
G1 X18.727 Y125.947 E3.03144
G1 X18.463 Y125.570 E3.06015
G1 X18.269 Y125.153 E3.08885
G1 X18.206 Y124.918 E3.10401
G1 X18.150 Y124.708 E3.11755
G1 X18.110 Y124.250 E3.14625
G1 X18.150 Y123.792 E3.17495
G1 X18.269 Y123.347 E3.20366
G1 X18.463 Y122.930 E3.23236
G1 X18.727 Y122.553 E3.26106
G1 X19.053 Y122.227 E3.28976
G1 X19.430 Y121.963 E3.31846
G1 X19.847 Y121.769 E3.34717
G1 X20.292 Y121.650 E3.37587
G1 X20.426 Y121.638 E3.38430
G1 X20.825 Y121.616
G1 X20.825 Y121.114 F15000.000
G1 X21.296 Y121.155 F780.000 E3.41378
G1 X21.825 Y121.297 E3.44794
G1 X22.321 Y121.529 E3.48210
G1 X22.770 Y121.843 E3.51626
G1 X23.157 Y122.230 E3.55041
G1 X23.471 Y122.679 E3.58457
G1 X23.593 Y122.939 E3.60247
G1 X23.703 Y123.175 E3.61873
G1 X23.845 Y123.704 E3.65289
G1 X23.892 Y124.250 E3.68705
G1 X23.845 Y124.796 E3.72120
G1 X23.703 Y125.325 E3.75536
G1 X23.471 Y125.821 E3.78952
G1 X23.157 Y126.270 E3.82368
G1 X22.770 Y126.657 E3.85784
G1 X22.321 Y126.971 E3.89199
G1 X21.825 Y127.203 E3.92615
G1 X21.296 Y127.345 E3.96031
G1 X20.750 Y127.392 E3.99447
G1 X20.204 Y127.345 E4.02863
G1 X19.675 Y127.203 E4.06279
G1 X19.179 Y126.971 E4.09694
G1 X18.730 Y126.657 E4.13110
G1 X18.343 Y126.270 E4.16526
G1 X18.029 Y125.821 E4.19942
G1 X17.797 Y125.325 E4.23357
G1 X17.655 Y124.796 E4.26773
G1 X17.591 Y124.057 E4.31400
G1 X17.561 Y124.057 E4.31585
G1 X17.797 Y123.175 E4.37275
G1 X18.029 Y122.679 E4.40691
G1 X18.343 Y122.230 E4.44107
G1 X18.730 Y121.843 E4.47523
G1 X19.179 Y121.529 E4.50938
G1 X19.675 Y121.297 E4.54354
G1 X20.204 Y121.155 E4.57770
G1 X20.302 Y121.147 E4.58379
G1 X20.825 Y121.114
G1 F3600.000 E2.18379
G92 E0
G1 X80.249 Y105.081 F15000.000
G1 X80.150 Y104.708 F3600.000 E2.40000
G1 X80.150 Y104.708 F2400.000
G1 X80.110 Y104.250 E2.42870
G1 X80.150 Y103.792 E2.45740
G1 X80.269 Y103.347 E2.48611
G1 X80.372 Y103.127 E2.50127
G1 X80.463 Y102.930 E2.51481
G1 X80.727 Y102.553 E2.54351
G1 X81.053 Y102.227 E2.57221
G1 X81.430 Y101.963 E2.60091
G1 X81.847 Y101.769 E2.62962
G1 X82.292 Y101.650 E2.65832
G1 X82.750 Y101.610 E2.68702
G1 X83.208 Y101.650 E2.71572
G1 X83.653 Y101.769 E2.74442
G1 X84.070 Y101.963 E2.77313
G1 X84.447 Y102.227 E2.80183
G1 X84.773 Y102.553 E2.83053
G1 X85.037 Y102.930 E2.85923
G1 X85.231 Y103.347 E2.88793
G1 X85.350 Y103.792 E2.91664
G1 X85.390 Y104.250 E2.94534
G1 X85.350 Y104.708 E2.97404
G1 X85.231 Y105.153 E3.00274
G1 X85.037 Y105.570 E3.03144
G1 X84.773 Y105.947 E3.06015
G1 X84.447 Y106.273 E3.08885
G1 X84.070 Y106.537 E3.11755
G1 X83.653 Y106.731 E3.14625
G1 X83.208 Y106.850 E3.17495
G1 X82.750 Y106.890 E3.20365
G1 X82.292 Y106.850 E3.23236
G1 X81.847 Y106.731 E3.26106
G1 X81.430 Y106.537 E3.28976
G1 X81.053 Y106.273 E3.31846
G1 X80.727 Y105.947 E3.34717
G1 X80.463 Y105.570 E3.37587
G1 X80.406 Y105.448 E3.38430
G1 X80.249 Y105.081
G1 X79.778 Y105.252 F15000.000
G1 X79.655 Y104.796 F780.000 E3.41378
G1 X79.608 Y104.250 E3.44794
G1 X79.655 Y103.704 E3.48210
G1 X79.797 Y103.175 E3.51626
G1 X79.919 Y102.915 E3.53415
G1 X80.029 Y102.679 E3.55041
G1 X80.343 Y102.230 E3.58457
G1 X80.730 Y101.843 E3.61873
G1 X81.179 Y101.529 E3.65289
G1 X81.675 Y101.297 E3.68705
G1 X82.204 Y101.155 E3.72120
G1 X82.750 Y101.108 E3.75537
G1 X83.296 Y101.155 E3.78952
G1 X83.825 Y101.297 E3.82368
G1 X84.085 Y101.419 E3.84157
G1 X84.321 Y101.529 E3.85784
G1 X84.770 Y101.843 E3.89199
G1 X85.157 Y102.230 E3.92615
G1 X85.471 Y102.679 E3.96031
G1 X85.703 Y103.175 E3.99447
G1 X85.845 Y103.704 E4.02863
G1 X85.892 Y104.250 E4.06278
G1 X85.845 Y104.796 E4.09694
G1 X85.703 Y105.325 E4.13110
G1 X85.471 Y105.821 E4.16526
G1 X85.157 Y106.270 E4.19942
G1 X84.770 Y106.657 E4.23357
G1 X84.321 Y106.971 E4.26773
G1 X83.825 Y107.203 E4.30189
G1 X83.296 Y107.345 E4.33605
G1 X82.750 Y107.392 E4.37021
G1 X82.204 Y107.345 E4.40436
G1 X81.675 Y107.203 E4.43852
G1 X81.179 Y106.971 E4.47268
G1 X80.730 Y106.657 E4.50684
G1 X80.343 Y106.270 E4.54100
G1 X80.029 Y105.821 E4.57515
G1 X79.987 Y105.733 E4.58125
G1 X79.778 Y105.252
G1 F3600.000 E2.18125
G92 E0
G1 X89.850 Y93.836 F15000.000
G1 X89.850 Y94.036 F3600.000 E2.40000
G1 X89.850 Y134.739 F1200.000 E4.93836
G1 X89.825 Y135.028 E4.95643
G1 X89.753 Y135.297 E4.97381
G1 X89.635 Y135.550 E4.99119
G1 X89.475 Y135.778 E5.00857
G1 X89.367 Y135.886 E5.01808
G1 X89.278 Y135.975 E5.02596
G1 X89.050 Y136.135 E5.04334
G1 X88.797 Y136.253 E5.06072
G1 X88.528 Y136.325 E5.07810
G1 X88.239 Y136.350 E5.09617
G1 X15.261 Y136.350 E9.64729
G1 X14.972 Y136.325 E9.66536
G1 X14.703 Y136.253 E9.68274
G1 X14.450 Y136.135 E9.70012
G1 X14.222 Y135.975 E9.71750
G1 X14.114 Y135.867 E9.72701
G1 X14.025 Y135.778 E9.73489
G1 X13.865 Y135.550 E9.75227
G1 X13.747 Y135.297 E9.76965
G1 X13.675 Y135.028 E9.78703
G1 X13.650 Y134.739 E9.80510
G1 X13.650 Y93.761 E12.36061
G1 X13.675 Y93.472 E12.37868
G1 X13.747 Y93.203 E12.39606
G1 X13.865 Y92.950 E12.41344
G1 X14.025 Y92.722 E12.43082
G1 X14.133 Y92.614 E12.44033
G1 X14.222 Y92.525 E12.44821
G1 X14.450 Y92.365 E12.46559
G1 X14.703 Y92.247 E12.48297
G1 X14.972 Y92.175 E12.50035
G1 X15.261 Y92.150 E12.51842
G1 X88.239 Y92.150 E17.06954
G1 X88.528 Y92.175 E17.08761
G1 X88.797 Y92.247 E17.10499
G1 X89.050 Y92.365 E17.12237
G1 X89.278 Y92.525 E17.13975
G1 X89.475 Y92.722 E17.15714
G1 X89.635 Y92.950 E17.17452
G1 X89.753 Y93.203 E17.19190
G1 X89.816 Y93.438 E17.20708
G1 X89.850 Y93.836
G1 X89.350 Y93.858 F15000.000
G1 X89.350 Y134.717 F1200.000 E19.75519
G1 X89.330 Y134.940 E19.76917
G1 X89.281 Y135.125 E19.78109
G1 X89.200 Y135.299 E19.79302
G1 X89.090 Y135.455 E19.80495
G1 X89.014 Y135.532 E19.81173
G1 X88.955 Y135.590 E19.81687
G1 X88.799 Y135.700 E19.82880
G1 X88.625 Y135.781 E19.84073
G1 X88.441 Y135.830 E19.85265
G1 X88.217 Y135.850 E19.86663
G1 X15.283 Y135.850 E24.41503
G1 X15.059 Y135.830 E24.42900
G1 X14.875 Y135.781 E24.44093
G1 X14.701 Y135.700 E24.45286
G1 X14.545 Y135.590 E24.46478
G1 X14.468 Y135.514 E24.47156
G1 X14.410 Y135.455 E24.47671
G1 X14.300 Y135.299 E24.48864
G1 X14.219 Y135.125 E24.50056
G1 X14.170 Y134.941 E24.51249
G1 X14.150 Y134.717 E24.52646
G1 X14.150 Y93.783 E27.07925
G1 X14.170 Y93.559 E27.09323
G1 X14.219 Y93.375 E27.10516
G1 X14.300 Y93.201 E27.11708
G1 X14.410 Y93.045 E27.12901
G1 X14.486 Y92.968 E27.13579
G1 X14.545 Y92.910 E27.14094
G1 X14.701 Y92.800 E27.15286
G1 X14.875 Y92.719 E27.16479
G1 X15.059 Y92.670 E27.17671
G1 X15.283 Y92.650 E27.19069
G1 X88.217 Y92.650 E31.73909
G1 X88.441 Y92.670 E31.75306
G1 X88.625 Y92.719 E31.76499
G1 X88.799 Y92.800 E31.77692
G1 X88.955 Y92.910 E31.78884
G1 X89.090 Y93.045 E31.80077
G1 X89.200 Y93.201 E31.81270
G1 X89.266 Y93.343 E31.82246
G1 X89.350 Y93.858
G1 X88.838 Y93.500 F15000.000
G1 X88.519 Y93.180 F1200.000 E31.85074
G1 X87.620 Y92.991 E31.90824
G1 X89.009 Y94.380 E32.03124
G1 X89.009 Y95.090 E32.07565
G1 X86.910 Y92.991 E32.26146
G1 X86.200 Y92.991 E32.30588
G1 X89.009 Y95.800 E32.55451
G1 X89.009 Y96.509 E32.59892
G1 X85.491 Y92.991 E32.91037
G1 X84.781 Y92.991 E32.95479
G1 X89.009 Y97.219 E33.32904
G1 X89.009 Y97.929 E33.37346
G1 X84.071 Y92.991 E33.81054
G1 X83.362 Y92.991 E33.85496
G1 X89.009 Y98.638 E34.35485
G1 X89.009 Y99.348 E34.39927
G1 X82.652 Y92.991 E34.96198
G1 X81.942 Y92.991 E35.00639
G1 X89.009 Y100.058 E35.63192
G1 X89.009 Y100.767 E35.67634
G1 X81.233 Y92.991 E36.36468
G1 X80.523 Y92.991 E36.40910
G1 X89.009 Y101.477 E37.16026
G1 X89.009 Y102.187 E37.20468
G1 X79.813 Y92.991 E38.01865
G1 X79.104 Y92.991 E38.06307
G1 X89.009 Y102.896 E38.93986
G1 X89.009 Y103.606 E38.98428
G1 X78.394 Y92.991 E39.92389
G1 X77.684 Y92.991 E39.96831
G1 X89.009 Y104.316 E40.97074
G1 F3600.000 E38.57074
G92 E0
G1 X89.009 Y114.961 F15000.000
G1 X88.868 Y114.819 F3600.000 E2.40000
G1 X81.644 Y107.595 F1200.000 E3.03944
G1 X82.484 Y107.726 E3.09264
G1 X89.009 Y114.251 E3.67026
G1 X89.009 Y113.542 E3.71468
G1 X83.153 Y107.686 E4.23300
G1 X83.723 Y107.546 E4.26972
G1 X89.009 Y112.832 E4.73762
G1 X89.009 Y112.122 E4.78203
G1 X84.223 Y107.336 E5.20572
G1 X84.666 Y107.069 E5.23810
G1 X89.009 Y111.413 E5.62253
G1 X89.009 Y110.703 E5.66694
G1 X85.061 Y106.755 E6.01642
G1 X85.410 Y106.394 E6.04783
G1 X89.009 Y109.993 E6.36642
G1 X89.009 Y109.283 E6.41084
G1 X85.702 Y105.977 E6.70355
G1 X85.938 Y105.503 E6.73668
G1 X89.009 Y108.574 E7.00852
G1 X89.009 Y107.864 E7.05294
G1 X86.114 Y104.969 E7.30922
G1 X86.212 Y104.357 E7.34800
G1 X89.009 Y107.154 E7.59563
G1 X89.009 Y106.445 E7.64004
G1 X86.195 Y103.630 E7.88917
G1 X85.925 Y102.651 E7.95277
G1 X89.009 Y105.735 E8.22578
G1 X89.009 Y105.025 E8.27020
G1 X76.975 Y92.991 E9.33545
G1 X76.265 Y92.991 E9.37986
G1 X84.349 Y101.075 E10.09545
G1 X83.370 Y100.805 E10.15905
G1 X75.555 Y92.991 E10.85075
G1 X74.846 Y92.991 E10.89517
G1 X82.643 Y100.788 E11.58536
G1 X82.031 Y100.886 E11.62415
G1 X74.136 Y92.991 E12.32300
G1 X73.426 Y92.991 E12.36742
G1 X81.497 Y101.062 E13.08183
G1 X81.023 Y101.298 E13.11496
G1 X72.717 Y92.991 E13.85025
G1 X72.007 Y92.991 E13.89467
G1 X80.606 Y101.590 E14.65583
G1 X80.245 Y101.939 E14.68724
G1 X71.297 Y92.991 E15.47929
G1 X70.587 Y92.991 E15.52371
G1 X79.931 Y102.334 E16.35071
G1 X79.664 Y102.777 E16.38308
G1 X69.878 Y92.991 E17.24935
G1 X69.168 Y92.991 E17.29376
G1 X79.454 Y103.277 E18.20424
G1 X79.314 Y103.847 E18.24095
G1 X68.458 Y92.991 E19.20185
G1 X67.749 Y92.991 E19.24627
G1 X79.274 Y104.516 E20.26646
G1 X79.405 Y105.356 E20.31966
G1 X67.039 Y92.991 E21.41419
G1 X66.329 Y92.991 E21.45861
G1 X89.009 Y115.671 E23.46611
G1 X89.009 Y116.380 E23.51052
G1 X65.620 Y92.991 E25.58083
G1 X64.910 Y92.991 E25.62525
G1 X89.009 Y117.090 E27.75838
G1 X89.009 Y117.800 E27.80280
G1 X64.200 Y92.991 E29.99874
G1 X63.491 Y92.991 E30.04316
G1 X89.009 Y118.509 E32.30192
G1 X89.009 Y119.219 E32.34634
G1 X62.781 Y92.991 E34.66792
G1 X62.071 Y92.991 E34.71234
G1 X89.009 Y119.929 E37.09673
G1 X89.009 Y120.638 E37.14115
G1 X61.362 Y92.991 E39.58836
G1 X60.652 Y92.991 E39.63278
G1 X89.009 Y121.348 E42.14281
G1 X89.009 Y122.058 E42.18722
G1 X59.942 Y92.991 E44.76007
G1 X59.233 Y92.991 E44.80449
G1 X89.009 Y122.767 E47.44015
G1 X89.009 Y123.477 E47.48457
G1 X58.523 Y92.991 E50.18305
G1 X57.813 Y92.991 E50.22746
G1 X89.009 Y124.187 E52.98876
G1 X89.009 Y124.896 E53.03318
G1 X57.104 Y92.991 E55.85729
G1 X56.394 Y92.991 E55.90171
G1 X89.009 Y125.606 E58.78864
G1 X89.009 Y126.316 E58.83305
G1 X55.684 Y92.991 E61.78280
G1 X54.975 Y92.991 E61.82722
G1 X89.009 Y127.025 E64.83978
G1 X89.009 Y127.735 E64.88420
G1 X54.265 Y92.991 E67.95958
G1 X53.555 Y92.991 E68.00399
G1 X89.009 Y128.445 E71.14219
G1 X89.009 Y129.154 E71.18661
G1 X52.846 Y92.991 E74.38762
G1 X52.136 Y92.991 E74.43204
G1 X89.009 Y129.864 E77.69587
G1 X89.009 Y130.574 E77.74029
G1 X51.426 Y92.991 E81.06693
G1 X50.717 Y92.991 E81.11135
G1 X89.009 Y131.283 E84.50081
G1 X89.009 Y131.993 E84.54523
G1 X50.007 Y92.991 E87.99751
G1 X49.297 Y92.991 E88.04193
G1 X89.009 Y132.703 E91.55702
G1 X89.009 Y133.412 E91.60144
G1 X48.588 Y92.991 E95.17936
G1 X47.878 Y92.991 E95.22377
G1 X89.009 Y134.122 E98.86450
G1 X89.009 Y134.832 E98.90892
G1 X47.168 Y92.991 E102.61247
G1 X46.458 Y92.991 E102.65689
G1 X88.811 Y135.344 E106.40574
G1 X88.267 Y135.509 E106.44134
G1 X45.749 Y92.991 E110.20485
G1 X45.039 Y92.991 E110.24927
G1 X87.558 Y135.509 E114.01277
G1 X86.848 Y135.509 E114.05719
G1 X44.329 Y92.991 E117.82069
G1 X43.620 Y92.991 E117.86511
G1 X86.138 Y135.509 E121.62862
G1 X85.429 Y135.509 E121.67303
G1 X42.910 Y92.991 E125.43654
G1 X42.200 Y92.991 E125.48096
G1 X84.719 Y135.509 E129.24446
G1 X84.009 Y135.509 E129.28888
G1 X41.491 Y92.991 E133.05239
G1 X40.781 Y92.991 E133.09680
G1 X83.300 Y135.509 E136.86031
G1 X82.590 Y135.509 E136.90473
G1 X40.071 Y92.991 E140.66823
G1 X39.362 Y92.991 E140.71265
G1 X81.880 Y135.509 E144.47615
G1 X81.170 Y135.509 E144.52057
G1 X38.652 Y92.991 E148.28408
G1 X37.942 Y92.991 E148.32849
G1 X80.461 Y135.509 E152.09200
G1 X79.751 Y135.509 E152.13642
G1 X37.233 Y92.991 E155.89992
G1 X36.523 Y92.991 E155.94434
G1 X79.041 Y135.509 E159.70785
G1 X78.332 Y135.509 E159.75226
G1 X35.813 Y92.991 E163.51577
G1 X35.104 Y92.991 E163.56019
G1 X77.622 Y135.509 E167.32369
G1 X76.912 Y135.509 E167.36811
G1 X34.394 Y92.991 E171.13161
G1 X33.684 Y92.991 E171.17603
G1 X76.203 Y135.509 E174.93954
