; generated by Slic3r 0.9.9-dev on 2014-01-29 at 08:53:43

; M-PLA-05-03-1

; layer_height = 0.3
; perimeters = 2
; top_solid_layers = 3
; bottom_solid_layers = 2
; fill_density = 0.2
; perimeter_speed = 40
; infill_speed = 40
; travel_speed = 250
; scale = 1
; nozzle_diameter = 0.5
; filament_diameter = 1.75
; extrusion_multiplier = 1.0
; perimeters extrusion width = 0.50mm
; infill extrusion width = 0.50mm
; first layer extrusion width = 0.50mm

M190 S57 ; wait for bed temperature to be reached
M104 S200 ; set temperature
G28 X0 Y0
G1 X75 Y75 F12000
G28 Z0
G1 Z0.3 F200
G1 X15 Y20 F12000
M109 S200 ; wait for temperature to be reached
G90 ; use absolute coordinates
G21 ; set units to millimeters
G92 E0
M82 ; use absolute distances for extrusion
M106 S76
G1 F3600.000 E-2.40000
G92 E0
G1 Z0.300 F15000.000
G1 X34.590 Y27.720
G1 X34.731 Y27.579 F3600.000 E2.40000
G1 X35.220 Y27.090 F1200.000 E2.44309
G1 X35.470 Y26.900 E2.46267
G1 X35.700 Y26.740 E2.48014
G1 X36.190 Y26.450 E2.51565
G1 X36.440 Y26.330 E2.53295
G1 X36.750 Y26.200 E2.55391
G1 X37.340 Y26.030 E2.59220
G1 X37.860 Y25.940 E2.62511
G1 X38.510 Y25.890 E2.66577
G1 X111.480 Y25.890 E7.21638
G1 X112.130 Y25.940 E7.25703
G1 X112.650 Y26.030 E7.28994
G1 X113.240 Y26.200 E7.32824
G1 X113.550 Y26.330 E7.34920
G1 X113.800 Y26.450 E7.36649
G1 X114.280 Y26.730 E7.40115
G1 X114.530 Y26.900 E7.42000
G1 X114.770 Y27.090 E7.43909
G1 X115.400 Y27.720 E7.49465
G1 X115.750 Y28.200 E7.53170
G1 X116.040 Y28.690 E7.56721
G1 X116.290 Y29.250 E7.60545
G1 X116.460 Y29.840 E7.64374
G1 X116.520 Y30.160 E7.66405
G1 X116.560 Y30.480 E7.68416
G1 X116.590 Y31.010 E7.71726
G1 X116.590 Y118.980 E13.20332
G1 X116.560 Y119.510 E13.23642
G1 X116.460 Y120.150 E13.27682
G1 X116.290 Y120.740 E13.31511
G1 X116.160 Y121.050 E13.33607
G1 X116.040 Y121.300 E13.35337
G1 X115.750 Y121.790 E13.38887
G1 X115.590 Y122.020 E13.40635
G1 X115.400 Y122.270 E13.42593
G1 X114.770 Y122.900 E13.48149
G1 X114.290 Y123.250 E13.51854
G1 X113.800 Y123.540 E13.55405
G1 X113.240 Y123.790 E13.59229
G1 X112.650 Y123.960 E13.63058
G1 X112.330 Y124.020 E13.65089
G1 X112.010 Y124.060 E13.67100
G1 X111.480 Y124.090 E13.70410
G1 X38.510 Y124.090 E18.25471
G1 X37.980 Y124.060 E18.28782
G1 X37.340 Y123.960 E18.32822
G1 X36.750 Y123.790 E18.36651
G1 X36.440 Y123.660 E18.38747
G1 X36.190 Y123.540 E18.40476
G1 X35.700 Y123.250 E18.44027
G1 X35.470 Y123.090 E18.45774
G1 X35.220 Y122.900 E18.47733
G1 X34.590 Y122.270 E18.53289
G1 X34.240 Y121.790 E18.56994
G1 X33.950 Y121.300 E18.60544
G1 X33.700 Y120.740 E18.64369
G1 X33.530 Y120.150 E18.68198
G1 X33.440 Y119.630 E18.71489
G1 X33.390 Y118.980 E18.75555
G1 X33.390 Y31.010 E24.24160
G1 X33.440 Y30.360 E24.28225
G1 X33.530 Y29.840 E24.31516
G1 X33.700 Y29.250 E24.35346
G1 X33.950 Y28.690 E24.39170
G1 X34.240 Y28.200 E24.42721
G1 X34.545 Y27.780 E24.45958
G1 X34.590 Y27.720 E24.46426
G1 F3600.000 E22.06426
G92 E0
G1 X43.169 Y58.999 F15000.000
G1 X43.542 Y58.900 F3600.000 E2.40000
G1 X43.542 Y58.900 F2400.000
G1 X44.000 Y58.860 E2.42870
G1 X44.458 Y58.900 E2.45740
G1 X44.693 Y58.963 E2.47257
G1 X44.903 Y59.019 E2.48611
G1 X45.320 Y59.213 E2.51481
G1 X45.697 Y59.477 E2.54351
G1 X46.023 Y59.803 E2.57221
G1 X46.287 Y60.180 E2.60091
G1 X46.481 Y60.597 E2.62962
G1 X46.600 Y61.042 E2.65832
G1 X46.640 Y61.500 E2.68702
G1 X46.600 Y61.958 E2.71572
G1 X46.481 Y62.403 E2.74442
G1 X46.378 Y62.623 E2.75959
G1 X46.287 Y62.820 E2.77313
G1 X46.023 Y63.197 E2.80183
G1 X45.697 Y63.523 E2.83053
G1 X45.320 Y63.787 E2.85923
G1 X44.903 Y63.981 E2.88793
G1 X44.458 Y64.100 E2.91664
G1 X44.000 Y64.140 E2.94534
G1 X43.758 Y64.119 E2.96050
G1 X43.542 Y64.100 E2.97404
G1 X43.097 Y63.981 E3.00274
G1 X42.680 Y63.787 E3.03144
G1 X42.303 Y63.523 E3.06015
G1 X41.977 Y63.197 E3.08885
G1 X41.713 Y62.820 E3.11755
G1 X41.519 Y62.403 E3.14625
G1 X41.400 Y61.958 E3.17495
G1 X41.360 Y61.500 E3.20366
G1 X41.400 Y61.042 E3.23236
G1 X41.519 Y60.597 E3.26106
G1 X41.713 Y60.180 E3.28976
G1 X41.977 Y59.803 E3.31846
G1 X42.303 Y59.477 E3.34717
G1 X42.680 Y59.213 E3.37587
G1 X42.802 Y59.156 E3.38430
G1 X43.169 Y58.999
G1 X42.998 Y58.528 F15000.000
G1 X43.454 Y58.405 F780.000 E3.41378
G1 X44.000 Y58.358 E3.44794
G1 X44.546 Y58.405 E3.48210
G1 X44.823 Y58.480 E3.49999
G1 X45.075 Y58.547 E3.51626
G1 X45.571 Y58.779 E3.55041
G1 X46.020 Y59.093 E3.58457
G1 X46.407 Y59.480 E3.61873
G1 X46.721 Y59.929 E3.65289
G1 X46.953 Y60.425 E3.68705
G1 X47.095 Y60.954 E3.72121
G1 X47.142 Y61.500 E3.75536
G1 X47.095 Y62.046 E3.78952
G1 X46.953 Y62.575 E3.82368
G1 X46.831 Y62.835 E3.84157
G1 X46.721 Y63.071 E3.85784
G1 X46.407 Y63.520 E3.89199
G1 X46.020 Y63.907 E3.92615
G1 X45.571 Y64.221 E3.96031
G1 X45.075 Y64.453 E3.99447
G1 X44.546 Y64.595 E4.02863
G1 X44.000 Y64.642 E4.06278
G1 X43.714 Y64.617 E4.08068
G1 X43.454 Y64.595 E4.09694
G1 X42.925 Y64.453 E4.13110
G1 X42.429 Y64.221 E4.16526
G1 X41.980 Y63.907 E4.19942
G1 X41.593 Y63.520 E4.23357
G1 X41.279 Y63.071 E4.26773
G1 X41.047 Y62.575 E4.30189
G1 X40.905 Y62.046 E4.33605
G1 X40.841 Y61.307 E4.38231
G1 X40.811 Y61.307 E4.38417
G1 X41.047 Y60.425 E4.44107
G1 X41.279 Y59.929 E4.47523
G1 X41.593 Y59.480 E4.50938
G1 X41.980 Y59.093 E4.54354
G1 X42.429 Y58.779 E4.57770
G1 X42.517 Y58.737 E4.58380
G1 X42.998 Y58.528
G1 F3600.000 E2.18380
G92 E0
G1 X103.499 Y42.331 F15000.000
G1 X103.400 Y41.958 F3600.000 E2.40000
G1 X103.400 Y41.958 F2400.000
G1 X103.360 Y41.500 E2.42870
G1 X103.400 Y41.042 E2.45740
G1 X103.519 Y40.597 E2.48611
G1 X103.622 Y40.377 E2.50127
G1 X103.713 Y40.180 E2.51481
G1 X103.977 Y39.803 E2.54351
G1 X104.303 Y39.477 E2.57221
G1 X104.680 Y39.213 E2.60091
G1 X105.097 Y39.019 E2.62962
G1 X105.542 Y38.900 E2.65832
G1 X106.000 Y38.860 E2.68702
G1 X106.458 Y38.900 E2.71572
G1 X106.903 Y39.019 E2.74442
G1 X107.320 Y39.213 E2.77313
G1 X107.697 Y39.477 E2.80183
G1 X108.023 Y39.803 E2.83053
G1 X108.287 Y40.180 E2.85923
G1 X108.481 Y40.597 E2.88793
G1 X108.600 Y41.042 E2.91664
G1 X108.640 Y41.500 E2.94534
G1 X108.600 Y41.958 E2.97404
G1 X108.481 Y42.403 E3.00274
G1 X108.287 Y42.820 E3.03144
G1 X108.023 Y43.197 E3.06015
G1 X107.697 Y43.523 E3.08885
G1 X107.320 Y43.787 E3.11755
G1 X106.903 Y43.981 E3.14625
G1 X106.458 Y44.100 E3.17495
G1 X106.000 Y44.140 E3.20365
G1 X105.542 Y44.100 E3.23236
G1 X105.097 Y43.981 E3.26106
G1 X104.680 Y43.787 E3.28976
G1 X104.303 Y43.523 E3.31846
G1 X103.977 Y43.197 E3.34717
G1 X103.713 Y42.820 E3.37587
G1 X103.656 Y42.698 E3.38430
G1 X103.499 Y42.331
G1 X103.028 Y42.502 F15000.000
G1 X102.905 Y42.046 F780.000 E3.41378
G1 X102.858 Y41.500 E3.44794
G1 X102.905 Y40.954 E3.48210
G1 X103.047 Y40.425 E3.51626
G1 X103.169 Y40.165 E3.53415
G1 X103.279 Y39.929 E3.55041
G1 X103.593 Y39.480 E3.58457
G1 X103.980 Y39.093 E3.61873
G1 X104.429 Y38.779 E3.65289
G1 X104.925 Y38.547 E3.68705
G1 X105.454 Y38.405 E3.72120
G1 X106.000 Y38.358 E3.75537
G1 X106.546 Y38.405 E3.78952
G1 X107.075 Y38.547 E3.82368
G1 X107.335 Y38.669 E3.84157
G1 X107.571 Y38.779 E3.85784
G1 X108.020 Y39.093 E3.89199
G1 X108.407 Y39.480 E3.92615
G1 X108.721 Y39.929 E3.96031
G1 X108.953 Y40.425 E3.99447
G1 X109.095 Y40.954 E4.02863
G1 X109.142 Y41.500 E4.06278
G1 X109.095 Y42.046 E4.09694
G1 X108.953 Y42.575 E4.13110
G1 X108.721 Y43.071 E4.16526
G1 X108.407 Y43.520 E4.19942
G1 X108.020 Y43.907 E4.23357
G1 X107.571 Y44.221 E4.26773
G1 X107.075 Y44.453 E4.30189
G1 X106.546 Y44.595 E4.33605
G1 X106.000 Y44.642 E4.37021
G1 X105.454 Y44.595 E4.40436
G1 X104.925 Y44.453 E4.43852
G1 X104.429 Y44.221 E4.47268
G1 X103.980 Y43.907 E4.50684
G1 X103.593 Y43.520 E4.54100
G1 X103.279 Y43.071 E4.57515
G1 X103.237 Y42.983 E4.58125
G1 X103.028 Y42.502
G1 F3600.000 E2.18125
G92 E0
G1 X113.100 Y31.086 F15000.000
G1 X113.100 Y31.286 F3600.000 E2.40000
G1 X113.100 Y71.989 F1200.000 E4.93836
G1 X113.075 Y72.278 E4.95643
G1 X113.003 Y72.547 E4.97381
G1 X112.885 Y72.800 E4.99119
G1 X112.725 Y73.028 E5.00857
G1 X112.617 Y73.136 E5.01808
G1 X112.528 Y73.225 E5.02596
G1 X112.300 Y73.385 E5.04334
G1 X112.047 Y73.503 E5.06072
G1 X111.778 Y73.575 E5.07810
G1 X111.489 Y73.600 E5.09617
G1 X38.511 Y73.600 E9.64729
G1 X38.222 Y73.575 E9.66536
G1 X37.953 Y73.503 E9.68274
G1 X37.700 Y73.385 E9.70012
G1 X37.472 Y73.225 E9.71750
G1 X37.364 Y73.117 E9.72701
G1 X37.275 Y73.028 E9.73489
G1 X37.115 Y72.800 E9.75227
G1 X36.997 Y72.547 E9.76965
G1 X36.925 Y72.278 E9.78703
G1 X36.900 Y71.989 E9.80510
G1 X36.900 Y31.011 E12.36061
G1 X36.925 Y30.722 E12.37868
G1 X36.997 Y30.453 E12.39606
G1 X37.115 Y30.200 E12.41344
G1 X37.275 Y29.972 E12.43082
G1 X37.383 Y29.864 E12.44033
G1 X37.472 Y29.775 E12.44821
G1 X37.700 Y29.615 E12.46559
G1 X37.953 Y29.497 E12.48297
G1 X38.222 Y29.425 E12.50035
G1 X38.511 Y29.400 E12.51842
G1 X111.489 Y29.400 E17.06954
G1 X111.778 Y29.425 E17.08761
G1 X112.047 Y29.497 E17.10499
G1 X112.300 Y29.615 E17.12237
G1 X112.528 Y29.775 E17.13975
G1 X112.725 Y29.972 E17.15714
G1 X112.885 Y30.200 E17.17452
G1 X113.003 Y30.453 E17.19190
G1 X113.066 Y30.688 E17.20708
G1 X113.100 Y31.086
G1 X112.600 Y31.108 F15000.000
G1 X112.600 Y71.967 F1200.000 E19.75519
G1 X112.580 Y72.190 E19.76917
G1 X112.531 Y72.375 E19.78109
G1 X112.450 Y72.549 E19.79302
G1 X112.340 Y72.705 E19.80495
G1 X112.264 Y72.782 E19.81173
G1 X112.205 Y72.840 E19.81687
G1 X112.049 Y72.950 E19.82880
G1 X111.875 Y73.031 E19.84073
G1 X111.691 Y73.080 E19.85265
G1 X111.467 Y73.100 E19.86663
G1 X38.533 Y73.100 E24.41503
G1 X38.309 Y73.080 E24.42900
G1 X38.125 Y73.031 E24.44093
G1 X37.951 Y72.950 E24.45286
G1 X37.795 Y72.840 E24.46478
G1 X37.718 Y72.764 E24.47156
G1 X37.660 Y72.705 E24.47671
G1 X37.550 Y72.549 E24.48864
G1 X37.469 Y72.375 E24.50056
G1 X37.420 Y72.191 E24.51249
G1 X37.400 Y71.967 E24.52646
G1 X37.400 Y31.033 E27.07925
G1 X37.420 Y30.809 E27.09323
G1 X37.469 Y30.625 E27.10516
G1 X37.550 Y30.451 E27.11708
G1 X37.660 Y30.295 E27.12901
G1 X37.736 Y30.218 E27.13579
G1 X37.795 Y30.160 E27.14094
G1 X37.951 Y30.050 E27.15286
G1 X38.125 Y29.969 E27.16479
G1 X38.309 Y29.920 E27.17671
G1 X38.533 Y29.900 E27.19069
G1 X111.467 Y29.900 E31.73909
G1 X111.691 Y29.920 E31.75306
G1 X111.875 Y29.969 E31.76499
G1 X112.049 Y30.050 E31.77692
G1 X112.205 Y30.160 E31.78884
G1 X112.340 Y30.295 E31.80077
G1 X112.450 Y30.451 E31.81270
G1 X112.516 Y30.593 E31.82246
G1 X112.600 Y31.108
G1 X112.088 Y30.750 F15000.000
G1 X111.769 Y30.430 F1200.000 E31.85074
G1 X110.870 Y30.241 E31.90824
G1 X112.259 Y31.630 E32.03124
G1 X112.259 Y32.340 E32.07565
G1 X110.160 Y30.241 E32.26146
G1 X109.450 Y30.241 E32.30588
G1 X112.259 Y33.050 E32.55451
G1 X112.259 Y33.759 E32.59892
G1 X108.741 Y30.241 E32.91037
G1 X108.031 Y30.241 E32.95479
G1 X112.259 Y34.469 E33.32904
G1 X112.259 Y35.179 E33.37346
G1 X107.321 Y30.241 E33.81054
G1 X106.612 Y30.241 E33.85496
G1 X112.259 Y35.888 E34.35485
G1 X112.259 Y36.598 E34.39927
G1 X105.902 Y30.241 E34.96198
G1 X105.192 Y30.241 E35.00639
G1 X112.259 Y37.308 E35.63192
G1 X112.259 Y38.017 E35.67634
G1 X104.483 Y30.241 E36.36468
G1 X103.773 Y30.241 E36.40910
G1 X112.259 Y38.727 E37.16026
G1 X112.259 Y39.437 E37.20468
G1 X103.063 Y30.241 E38.01865
G1 X102.354 Y30.241 E38.06307
G1 X112.259 Y40.146 E38.93986
G1 X112.259 Y40.856 E38.98428
G1 X101.644 Y30.241 E39.92389
G1 X100.934 Y30.241 E39.96831
G1 X112.259 Y41.566 E40.97074
G1 F3600.000 E38.57074
G92 E0
G1 X112.259 Y52.211 F15000.000
G1 X112.118 Y52.069 F3600.000 E2.40000
G1 X104.894 Y44.845 F1200.000 E3.03944
G1 X105.734 Y44.976 E3.09264
G1 X112.259 Y51.501 E3.67026
G1 X112.259 Y50.792 E3.71468
G1 X106.403 Y44.936 E4.23300
G1 X106.973 Y44.796 E4.26972
G1 X112.259 Y50.082 E4.73762
G1 X112.259 Y49.372 E4.78203
G1 X107.473 Y44.586 E5.20572
G1 X107.916 Y44.319 E5.23810
G1 X112.259 Y48.663 E5.62253
G1 X112.259 Y47.953 E5.66694
G1 X108.311 Y44.005 E6.01642
G1 X108.660 Y43.644 E6.04783
G1 X112.259 Y47.243 E6.36642
G1 X112.259 Y46.533 E6.41084
G1 X108.952 Y43.227 E6.70355
G1 X109.188 Y42.753 E6.73668
G1 X112.259 Y45.824 E7.00852
G1 X112.259 Y45.114 E7.05294
G1 X109.364 Y42.219 E7.30922
G1 X109.462 Y41.607 E7.34800
G1 X112.259 Y44.404 E7.59563
G1 X112.259 Y43.695 E7.64004
G1 X109.445 Y40.880 E7.88917
G1 X109.175 Y39.901 E7.95277
G1 X112.259 Y42.985 E8.22578
G1 X112.259 Y42.275 E8.27020
G1 X100.225 Y30.241 E9.33545
G1 X99.515 Y30.241 E9.37986
G1 X107.599 Y38.325 E10.09545
G1 X106.620 Y38.055 E10.15905
G1 X98.805 Y30.241 E10.85075
G1 X98.096 Y30.241 E10.89517
G1 X105.893 Y38.038 E11.58536
G1 X105.281 Y38.136 E11.62415
G1 X97.386 Y30.241 E12.32300
G1 X96.676 Y30.241 E12.36742
G1 X104.747 Y38.312 E13.08183
G1 X104.273 Y38.548 E13.11496
G1 X95.967 Y30.241 E13.85025
G1 X95.257 Y30.241 E13.89467
G1 X103.856 Y38.840 E14.65583
G1 X103.495 Y39.189 E14.68724
G1 X94.547 Y30.241 E15.47929
G1 X93.837 Y30.241 E15.52371
G1 X103.181 Y39.584 E16.35071
G1 X102.914 Y40.027 E16.38308
G1 X93.128 Y30.241 E17.24935
G1 X92.418 Y30.241 E17.29376
G1 X102.704 Y40.527 E18.20424
G1 X102.564 Y41.097 E18.24095
G1 X91.708 Y30.241 E19.20185
G1 X90.999 Y30.241 E19.24627
G1 X102.524 Y41.766 E20.26646
G1 X102.655 Y42.606 E20.31966
G1 X90.289 Y30.241 E21.41419
G1 X89.579 Y30.241 E21.45861
G1 X112.259 Y52.921 E23.46611
G1 X112.259 Y53.630 E23.51052
G1 X88.870 Y30.241 E25.58083
G1 X88.160 Y30.241 E25.62525
G1 X112.259 Y54.340 E27.75838
G1 X112.259 Y55.050 E27.80280
G1 X87.450 Y30.241 E29.99874
G1 X86.741 Y30.241 E30.04316
G1 X112.259 Y55.759 E32.30192
G1 X112.259 Y56.469 E32.34634
G1 X86.031 Y30.241 E34.66792
G1 X85.321 Y30.241 E34.71234
G1 X112.259 Y57.179 E37.09673
G1 X112.259 Y57.888 E37.14115
G1 X84.612 Y30.241 E39.58836
G1 X83.902 Y30.241 E39.63278
G1 X112.259 Y58.598 E42.14281
G1 X112.259 Y59.308 E42.18722
G1 X83.192 Y30.241 E44.76007
G1 X82.483 Y30.241 E44.80449
G1 X112.259 Y60.017 E47.44015
G1 X112.259 Y60.727 E47.48457
G1 X81.773 Y30.241 E50.18305
G1 X81.063 Y30.241 E50.22746
G1 X112.259 Y61.437 E52.98876
G1 X112.259 Y62.146 E53.03318
G1 X80.354 Y30.241 E55.85729
G1 X79.644 Y30.241 E55.90171
G1 X112.259 Y62.856 E58.78864
G1 X112.259 Y63.566 E58.83305
G1 X78.934 Y30.241 E61.78280
G1 X78.225 Y30.241 E61.82722
G1 X112.259 Y64.275 E64.83978
G1 X112.259 Y64.985 E64.88420
G1 X77.515 Y30.241 E67.95958
G1 X76.805 Y30.241 E68.00399
G1 X112.259 Y65.695 E71.14219
G1 X112.259 Y66.404 E71.18661
G1 X76.096 Y30.241 E74.38762
G1 X75.386 Y30.241 E74.43204
G1 X112.259 Y67.114 E77.69587
G1 X112.259 Y67.824 E77.74029
G1 X74.676 Y30.241 E81.06693
G1 X73.967 Y30.241 E81.11135
G1 X112.259 Y68.533 E84.50081
G1 X112.259 Y69.243 E84.54523
G1 X73.257 Y30.241 E87.99751
G1 X72.547 Y30.241 E88.04193
G1 X112.259 Y69.953 E91.55702
G1 X112.259 Y70.662 E91.60144
G1 X71.838 Y30.241 E95.17936
G1 X71.128 Y30.241 E95.22377
G1 X112.259 Y71.372 E98.86450
G1 X112.259 Y72.082 E98.90892
G1 X70.418 Y30.241 E102.61247
G1 X69.708 Y30.241 E102.65689
G1 X112.061 Y72.594 E106.40574
G1 X111.517 Y72.759 E106.44134
G1 X68.999 Y30.241 E110.20485
G1 X68.289 Y30.241 E110.24927
G1 X110.808 Y72.759 E114.01277
G1 X110.098 Y72.759 E114.05719
G1 X67.579 Y30.241 E117.82069
G1 X66.870 Y30.241 E117.86511
G1 X109.388 Y72.759 E121.62862
G1 X108.679 Y72.759 E121.67303
G1 X66.160 Y30.241 E125.43654
G1 X65.450 Y30.241 E125.48096
G1 X107.969 Y72.759 E129.24446
G1 X107.259 Y72.759 E129.28888
G1 X64.741 Y30.241 E133.05239
G1 X64.031 Y30.241 E133.09680
G1 X106.550 Y72.759 E136.86031
G1 X105.840 Y72.759 E136.90473
G1 X63.321 Y30.241 E140.66823
G1 X62.612 Y30.241 E140.71265
G1 X105.130 Y72.759 E144.47615
G1 X104.420 Y72.759 E144.52057
G1 X61.902 Y30.241 E148.28408
G1 X61.192 Y30.241 E148.32849
G1 X103.711 Y72.759 E152.09200
G1 X103.001 Y72.759 E152.13642
G1 X60.483 Y30.241 E155.89992
G1 X59.773 Y30.241 E155.94434
G1 X102.291 Y72.759 E159.70785
G1 X101.582 Y72.759 E159.75226
G1 X59.063 Y30.241 E163.51577
G1 X58.354 Y30.241 E163.56019
G1 X100.872 Y72.759 E167.32369
G1 X100.162 Y72.759 E167.36811
G1 X57.644 Y30.241 E171.13161
G1 X56.934 Y30.241 E171.17603
G1 X99.453 Y72.759 E174.93954
G1 X98.743 Y72.759 E174.98396
G1 X56.225 Y30.241 E178.74746
G1 X55.515 Y30.241 E178.79188
G1 X98.033 Y72.759 E182.55538
G1 X97.324 Y72.759 E182.59980
G1 X54.805 Y30.241 E186.36331
G1 X54.096 Y30.241 E186.40772
G1 X96.614 Y72.759 E190.17123
