; generated by Slic3r 0.9.9-dev on 2014-01-10 at 15:10:56

; M-PLA-05-03-1

; layer_height = 0.3
; perimeters = 2
; top_solid_layers = 3
; bottom_solid_layers = 2
; fill_density = 0.2
; perimeter_speed = 40
; infill_speed = 40
; travel_speed = 250
; scale = 1
; nozzle_diameter = 0.5
; filament_diameter = 1.75
; extrusion_multiplier = 1.0
; perimeters extrusion width = 0.50mm
; infill extrusion width = 0.50mm
; first layer extrusion width = 0.50mm

M190 S57 ; wait for bed temperature to be reached
M104 S200 ; set temperature
G28 X0 Y0
G1 X75 Y75 F12000
G28 Z0
G1 Z0.3 F200
G1 X15 Y20 F12000
M109 S200 ; wait for temperature to be reached
G90 ; use absolute coordinates
G21 ; set units to millimeters
G92 E0
M82 ; use absolute distances for extrusion
M106 S76
G1 F3600.000 E-2.40000
G92 E0
G1 Z0.300 F15000.000
G1 X47.860 Y19.910
G1 X47.958 Y19.736 F3600.000 E2.40000
G1 X48.380 Y18.990 F1200.000 E2.45343
G1 X49.150 Y18.260 E2.51960
G1 X50.100 Y17.800 E2.58543
G1 X51.140 Y17.640 E2.65105
G1 X81.340 Y17.640 E4.53440
G1 X82.500 Y17.840 E4.60781
G1 X83.530 Y18.410 E4.68122
G1 X84.320 Y19.300 E4.75544
G1 X107.820 Y57.220 E7.53753
G1 X108.210 Y58.100 E7.59755
G1 X108.340 Y59.060 E7.65797
G1 X108.340 Y69.430 E8.30467
G1 X108.280 Y70.090 E8.34600
G1 X108.090 Y70.720 E8.38704
G1 X84.590 Y130.130 E12.37133
G1 X84.070 Y131.030 E12.43615
G1 X83.310 Y131.730 E12.50058
G1 X82.370 Y132.190 E12.56585
G1 X81.340 Y132.340 E12.63076
G1 X51.140 Y132.340 E14.51411
G1 X50.080 Y132.180 E14.58097
G1 X49.130 Y131.700 E14.64734
G1 X48.360 Y130.960 E14.71394
G1 X47.850 Y130.020 E14.78064
G1 X47.640 Y128.970 E14.84742
G1 X45.220 Y64.370 E18.87887
G1 X45.230 Y64.000 E18.90196
G1 X47.650 Y20.940 E21.59153
G1 X47.845 Y19.983 E21.65241
G1 X47.860 Y19.910 E21.65709
G1 F3600.000 E19.25709
G92 E0
G1 X77.629 Y103.771 F15000.000
G1 X77.881 Y103.698 F3600.000 E2.40000
G1 X77.881 Y103.698 F2400.000
G1 X78.216 Y103.657 E2.42102
G1 X78.553 Y103.671 E2.44205
G1 X78.883 Y103.738 E2.46307
G1 X79.198 Y103.858 E2.48409
G1 X79.490 Y104.026 E2.50511
G1 X79.751 Y104.239 E2.52613
G1 X79.926 Y104.437 E2.54258
G1 X80.155 Y104.777 E2.56812
G1 X80.287 Y105.087 E2.58915
G1 X80.367 Y105.414 E2.61017
G1 X80.395 Y105.750 E2.63119
G1 X80.367 Y106.086 E2.65222
G1 X80.287 Y106.413 E2.67324
G1 X80.155 Y106.723 E2.69426
G1 X79.974 Y107.008 E2.71528
G1 X79.751 Y107.261 E2.73630
G1 X79.490 Y107.474 E2.75732
G1 X79.198 Y107.642 E2.77834
G1 X78.883 Y107.762 E2.79936
G1 X78.552 Y107.829 E2.82039
G1 X78.216 Y107.843 E2.84141
G1 X77.881 Y107.802 E2.86243
G1 X77.557 Y107.708 E2.88346
G1 X77.253 Y107.564 E2.90447
G1 X76.975 Y107.372 E2.92550
G1 X76.732 Y107.139 E2.94651
G1 X76.530 Y106.869 E2.96754
G1 X76.373 Y106.571 E2.98856
G1 X76.266 Y106.251 E3.00958
G1 X76.213 Y105.926 E3.03011
G1 X76.206 Y105.750 E3.04112
G1 X76.213 Y105.574 E3.05213
G1 X76.266 Y105.249 E3.07265
G1 X76.373 Y104.929 E3.09367
G1 X76.530 Y104.631 E3.11469
G1 X76.732 Y104.361 E3.13572
G1 X76.975 Y104.128 E3.15673
G1 X77.253 Y103.936 E3.17776
G1 X77.264 Y103.931 E3.17851
G1 X77.629 Y103.771
G1 X77.264 Y103.931 F3600.000 E0.77851
G92 E0
G1 X84.641 Y93.571 F15000.000
G1 X84.425 Y93.423 F3600.000 E2.40000
G1 X84.425 Y93.423 F2400.000
G1 X84.182 Y93.189 E2.42103
G1 X83.980 Y92.919 E2.44205
G1 X83.823 Y92.621 E2.46307
G1 X83.716 Y92.301 E2.48409
G1 X83.663 Y91.976 E2.50462
G1 X83.663 Y91.624 E2.52662
G1 X83.716 Y91.299 E2.54714
G1 X83.823 Y90.979 E2.56817
G1 X83.980 Y90.681 E2.58919
G1 X84.182 Y90.411 E2.61021
G1 X84.425 Y90.178 E2.63123
G1 X84.703 Y89.986 E2.65225
G1 X85.007 Y89.842 E2.67328
G1 X85.331 Y89.748 E2.69429
G1 X85.531 Y89.723 E2.70685
G1 X85.666 Y89.707 E2.71532
G1 X86.002 Y89.721 E2.73634
G1 X86.333 Y89.788 E2.75736
G1 X86.648 Y89.908 E2.77838
G1 X86.940 Y90.076 E2.79940
G1 X87.201 Y90.289 E2.82043
G1 X87.424 Y90.542 E2.84145
G1 X87.571 Y90.773 E2.85855
G1 X87.737 Y91.137 E2.88345
G1 X87.817 Y91.464 E2.90447
G1 X87.845 Y91.800 E2.92549
G1 X87.830 Y91.980 E2.93676
G1 X87.817 Y92.136 E2.94652
G1 X87.737 Y92.463 E2.96754
G1 X87.605 Y92.773 E2.98856
G1 X87.424 Y93.058 E3.00958
G1 X87.201 Y93.311 E3.03060
G1 X87.021 Y93.458 E3.04510
G1 X86.940 Y93.524 E3.05162
G1 X86.648 Y93.692 E3.07264
G1 X86.333 Y93.812 E3.09366
G1 X86.002 Y93.879 E3.11469
G1 X85.666 Y93.893 E3.13571
G1 X85.331 Y93.852 E3.15673
G1 X85.007 Y93.758 E3.17775
G1 X84.996 Y93.753 E3.17851
G1 X84.641 Y93.571
G1 X84.996 Y93.753 F3600.000 E0.77851
G92 E0
G1 X63.339 Y91.875 F15000.000
G1 X63.317 Y92.136 F3600.000 E2.40000
G1 X63.317 Y92.136 F2400.000
G1 X63.237 Y92.463 E2.42102
G1 X63.105 Y92.773 E2.44204
G1 X62.924 Y93.058 E2.46306
G1 X62.701 Y93.311 E2.48408
G1 X62.440 Y93.524 E2.50510
G1 X62.148 Y93.692 E2.52613
G1 X61.833 Y93.812 E2.54715
G1 X61.502 Y93.879 E2.56817
G1 X61.166 Y93.893 E2.58919
G1 X60.831 Y93.852 E2.61021
G1 X60.507 Y93.758 E2.63124
G1 X60.203 Y93.614 E2.65226
G1 X59.925 Y93.422 E2.67328
G1 X59.682 Y93.189 E2.69430
G1 X59.480 Y92.919 E2.71532
G1 X59.323 Y92.621 E2.73634
G1 X59.216 Y92.301 E2.75737
G1 X59.163 Y91.976 E2.77789
G1 X59.156 Y91.800 E2.78890
G1 X59.163 Y91.624 E2.79991
G1 X59.216 Y91.299 E2.82043
G1 X59.323 Y90.979 E2.84146
G1 X59.480 Y90.681 E2.86248
G1 X59.682 Y90.411 E2.88350
G1 X59.925 Y90.178 E2.90452
G1 X60.203 Y89.986 E2.92554
G1 X60.366 Y89.909 E2.93681
G1 X60.507 Y89.842 E2.94656
G1 X60.831 Y89.748 E2.96759
G1 X61.166 Y89.707 E2.98861
G1 X61.502 Y89.721 E3.00963
G1 X61.833 Y89.788 E3.03065
G1 X61.911 Y89.818 E3.03587
G1 X62.148 Y89.908 E3.05167
G1 X62.440 Y90.076 E3.07270
G1 X62.701 Y90.289 E3.09372
G1 X62.924 Y90.542 E3.11474
G1 X63.105 Y90.827 E3.13576
G1 X63.237 Y91.137 E3.15678
G1 X63.317 Y91.464 E3.17780
G1 X63.318 Y91.476 E3.17856
G1 X63.339 Y91.875
G1 X63.822 Y92.095 F15000.000
G1 X63.813 Y92.217 F780.000 E3.18616
G1 X63.713 Y92.622 E3.21221
G1 X63.549 Y93.007 E3.23827
G1 X63.326 Y93.360 E3.26433
G1 X63.048 Y93.672 E3.29038
G1 X62.725 Y93.937 E3.31644
G1 X62.479 Y94.078 E3.33411
G1 X62.363 Y94.146 E3.34249
G1 X61.972 Y94.294 E3.36855
G1 X61.563 Y94.377 E3.39461
G1 X61.145 Y94.394 E3.42066
G1 X60.731 Y94.344 E3.44672
G1 X60.329 Y94.227 E3.47278
G1 X59.952 Y94.048 E3.49883
G1 X59.608 Y93.811 E3.52488
G1 X59.307 Y93.522 E3.55094
G1 X59.056 Y93.188 E3.57700
G1 X58.862 Y92.818 E3.60305
G1 X58.729 Y92.421 E3.62911
G1 X58.665 Y92.027 E3.65404
G1 X58.665 Y91.573 E3.68232
G1 X58.729 Y91.179 E3.70725
G1 X58.862 Y90.782 E3.73330
G1 X59.056 Y90.412 E3.75936
G1 X59.307 Y90.078 E3.78542
G1 X59.608 Y89.789 E3.81146
G1 X59.952 Y89.552 E3.83753
G1 X60.329 Y89.373 E3.86358
G1 X60.409 Y89.350 E3.86873
G1 X60.731 Y89.256 E3.88964
G1 X61.145 Y89.206 E3.91570
G1 X61.563 Y89.223 E3.94175
G1 X61.972 Y89.306 E3.96781
G1 X62.363 Y89.454 E3.99387
G1 X62.479 Y89.522 E4.00225
G1 X62.725 Y89.663 E4.01992
G1 X63.048 Y89.928 E4.04598
G1 X63.326 Y90.240 E4.07203
G1 X63.549 Y90.593 E4.09809
G1 X63.713 Y90.978 E4.12415
G1 X63.813 Y91.384 E4.15020
G1 X63.828 Y91.572 E4.16197
G1 X63.822 Y92.095
G1 F3600.000 E1.76197
G92 E0
G1 X57.150 Y96.183 F15000.000
G1 X57.150 Y95.983 F3600.000 E2.40000
G1 X57.150 Y87.607 F1200.000 E2.92231
G1 X88.850 Y87.607 E4.89921
G1 X88.850 Y95.850 E5.41326
G1 X81.350 Y95.850 E5.88098
G1 X81.350 Y128.850 E7.93895
G1 X51.150 Y128.850 E9.82231
G1 X51.150 Y123.467 E10.15799
G1 X51.275 Y123.425 E10.16623
G1 X51.740 Y124.044 E10.21445
G1 X51.966 Y124.261 E10.23403
G1 X52.225 Y124.439 E10.25360
G1 X52.508 Y124.574 E10.27318
G1 X52.810 Y124.661 E10.29276
G1 X53.121 Y124.699 E10.31234
G1 X53.435 Y124.687 E10.33192
G1 X53.743 Y124.624 E10.35150
G1 X53.949 Y124.545 E10.36528
G1 X54.036 Y124.512 E10.37108
G1 X54.308 Y124.356 E10.39066
G1 X54.551 Y124.157 E10.41024
G1 X54.760 Y123.922 E10.42981
G1 X54.927 Y123.657 E10.44939
G1 X55.050 Y123.368 E10.46897
G1 X55.126 Y123.063 E10.48855
G1 X55.151 Y122.750 E10.50813
G1 X55.126 Y122.437 E10.52771
G1 X55.050 Y122.132 E10.54729
G1 X54.927 Y121.843 E10.56687
G1 X54.760 Y121.578 E10.58645
G1 X54.551 Y121.343 E10.60602
G1 X54.308 Y121.145 E10.62560
G1 X54.036 Y120.988 E10.64518
G1 X53.743 Y120.876 E10.66476
G1 X53.435 Y120.813 E10.68434
G1 X53.121 Y120.801 E10.70392
G1 X52.810 Y120.839 E10.72350
G1 X52.508 Y120.926 E10.74308
G1 X52.225 Y121.061 E10.76265
G1 X51.966 Y121.239 E10.78223
G1 X51.740 Y121.456 E10.80181
G1 X51.275 Y122.075 E10.85003
G1 X51.150 Y122.033 E10.85827
G1 X51.150 Y105.000 E11.92047
G1 X50.925 Y105.000 E11.93450
G1 X50.925 Y99.650 E12.26814
G1 X53.758 Y99.650 E12.44479
G1 X54.160 Y99.626 E12.46993
G1 X54.564 Y99.552 E12.49553
G1 X54.751 Y99.493 E12.50777
G1 X54.956 Y99.429 E12.52114
G1 X55.330 Y99.261 E12.54675
G1 X55.682 Y99.049 E12.57236
G1 X56.005 Y98.795 E12.59797
G1 X56.295 Y98.505 E12.62357
G1 X56.549 Y98.182 E12.64918
G1 X56.761 Y97.830 E12.67479
G1 X56.929 Y97.456 E12.70040
G1 X57.052 Y97.064 E12.72601
G1 X57.126 Y96.660 E12.75161
G1 X57.130 Y96.582 E12.75648
G1 X57.150 Y96.183
G1 X57.650 Y96.198 F15000.000
G1 X57.650 Y88.107 F1200.000 E13.26103
G1 X88.350 Y88.107 E15.17557
G1 X88.350 Y90.770 E15.34164
G1 X88.190 Y90.817 E15.35204
G1 X87.826 Y90.240 E15.39456
G1 X87.548 Y89.928 E15.42061
G1 X87.225 Y89.663 E15.44667
G1 X86.863 Y89.454 E15.47273
G1 X86.472 Y89.306 E15.49878
G1 X86.063 Y89.223 E15.52484
G1 X85.645 Y89.206 E15.55089
G1 X85.231 Y89.256 E15.57695
G1 X84.829 Y89.372 E15.60300
G1 X84.452 Y89.552 E15.62906
G1 X84.108 Y89.789 E15.65512
G1 X83.807 Y90.078 E15.68118
G1 X83.556 Y90.412 E15.70724
G1 X83.362 Y90.782 E15.73329
G1 X83.229 Y91.179 E15.75934
G1 X83.165 Y91.573 E15.78427
G1 X83.156 Y91.800 E15.79842
G1 X83.165 Y92.027 E15.81258
G1 X83.229 Y92.421 E15.83751
G1 X83.362 Y92.818 E15.86356
G1 X83.556 Y93.188 E15.88961
G1 X83.807 Y93.522 E15.91567
G1 X84.108 Y93.811 E15.94174
G1 X84.452 Y94.048 E15.96778
G1 X84.829 Y94.228 E15.99385
G1 X85.231 Y94.344 E16.01990
G1 X85.645 Y94.394 E16.04596
G1 X86.063 Y94.377 E16.07201
G1 X86.472 Y94.294 E16.09807
G1 X86.863 Y94.146 E16.12412
G1 X87.225 Y93.937 E16.15018
G1 X87.548 Y93.672 E16.17623
G1 X87.826 Y93.360 E16.20229
G1 X88.190 Y92.783 E16.24481
G1 X88.350 Y92.830 E16.25520
G1 X88.350 Y95.350 E16.41237
G1 X80.850 Y95.350 E16.88009
G1 X80.850 Y104.641 E17.45952
G1 X80.690 Y104.688 E17.46991
G1 X80.376 Y104.190 E17.50659
G1 X80.098 Y103.878 E17.53265
G1 X79.775 Y103.613 E17.55871
G1 X79.413 Y103.404 E17.58476
G1 X79.022 Y103.256 E17.61082
G1 X78.613 Y103.173 E17.63687
G1 X78.195 Y103.156 E17.66294
G1 X77.781 Y103.206 E17.68899
G1 X77.379 Y103.323 E17.71504
G1 X77.002 Y103.502 E17.74110
G1 X76.658 Y103.739 E17.76716
G1 X76.357 Y104.028 E17.79321
G1 X76.106 Y104.362 E17.81927
G1 X75.912 Y104.732 E17.84533
G1 X75.779 Y105.129 E17.87138
G1 X75.715 Y105.523 E17.89631
G1 X75.715 Y105.977 E17.92459
G1 X75.779 Y106.371 E17.94952
G1 X75.912 Y106.768 E17.97557
G1 X76.106 Y107.138 E18.00163
G1 X76.357 Y107.472 E18.02770
G1 X76.658 Y107.761 E18.05374
G1 X77.002 Y107.998 E18.07980
G1 X77.379 Y108.177 E18.10583
G1 X77.781 Y108.294 E18.13191
G1 X78.195 Y108.344 E18.15797
G1 X78.613 Y108.327 E18.18403
G1 X79.022 Y108.244 E18.21008
G1 X79.413 Y108.096 E18.23613
G1 X79.775 Y107.887 E18.26219
G1 X80.098 Y107.622 E18.28825
G1 X80.376 Y107.310 E18.31431
G1 X80.690 Y106.812 E18.35099
G1 X80.850 Y106.859 E18.36139
G1 X80.850 Y128.350 E19.70164
G1 X51.650 Y128.350 E21.52263
G1 X51.650 Y124.720 E21.74899
G1 X52.330 Y125.043 E21.79593
G1 X52.710 Y125.153 E21.82057
G1 X53.101 Y125.200 E21.84517
G1 X53.496 Y125.185 E21.86979
G1 X53.882 Y125.106 E21.89440
G1 X54.251 Y124.966 E21.91902
G1 X54.593 Y124.768 E21.94363
G1 X54.899 Y124.519 E21.96825
G1 X55.161 Y124.223 E21.99286
G1 X55.323 Y123.967 E22.01175
G1 X55.372 Y123.890 E22.01747
G1 X55.526 Y123.527 E22.04208
G1 X55.621 Y123.143 E22.06670
G1 X55.652 Y122.750 E22.09131
G1 X55.621 Y122.357 E22.11593
G1 X55.526 Y121.973 E22.14054
G1 X55.372 Y121.610 E22.16515
G1 X55.161 Y121.277 E22.18977
G1 X54.899 Y120.981 E22.21438
G1 X54.593 Y120.732 E22.23899
G1 X54.251 Y120.534 E22.26360
G1 X53.882 Y120.394 E22.28822
G1 X53.741 Y120.366 E22.29718
G1 X53.496 Y120.315 E22.31283
G1 X53.101 Y120.300 E22.33745
G1 X52.709 Y120.347 E22.36206
G1 X52.330 Y120.457 E22.38669
G1 X51.650 Y120.780 E22.43363
G1 X51.650 Y104.500 E23.44889
G1 X51.425 Y104.500 E23.46292
G1 X51.425 Y100.150 E23.73420
G1 X53.773 Y100.150 E23.88060
G1 X54.220 Y100.123 E23.90857
G1 X54.684 Y100.038 E23.93795
G1 X55.133 Y99.898 E23.96733
G1 X55.563 Y99.704 E23.99671
G1 X55.966 Y99.461 E24.02609
G1 X56.337 Y99.170 E24.05547
G1 X56.670 Y98.837 E24.08485
G1 X56.961 Y98.466 E24.11423
G1 X57.204 Y98.063 E24.14361
G1 X57.398 Y97.633 E24.17299
G1 X57.538 Y97.184 E24.20237
G1 X57.623 Y96.722 E24.23165
G1 X57.650 Y96.198
G1 F3600.000 E21.83165
G92 E0
G1 X58.270 Y66.334 F15000.000
G1 X58.070 Y66.334 F3600.000 E2.40000
G1 X53.315 Y66.334 F1200.000 E2.69655
G1 X53.003 Y66.310 E2.71601
G1 X52.685 Y66.234 E2.73642
G1 X52.383 Y66.108 E2.75683
G1 X52.104 Y65.937 E2.77724
G1 X51.855 Y65.725 E2.79765
G1 X51.642 Y65.476 E2.81806
G1 X51.471 Y65.197 E2.83847
G1 X51.346 Y64.894 E2.85889
G1 X51.270 Y64.576 E2.87930
G1 X51.244 Y64.250 E2.89970
G1 X51.270 Y63.924 E2.92011
G1 X51.346 Y63.606 E2.94052
G1 X51.471 Y63.303 E2.96093
G1 X51.642 Y63.024 E2.98134
G1 X51.697 Y62.960 E2.98660
G1 X51.855 Y62.775 E3.00175
G1 X52.104 Y62.563 E3.02216
G1 X52.383 Y62.392 E3.04257
G1 X52.685 Y62.266 E3.06298
G1 X53.003 Y62.190 E3.08340
G1 X53.315 Y62.166 E3.10286
G1 X58.345 Y62.166 E3.41656
G1 X58.656 Y62.190 E3.43602
G1 X58.974 Y62.266 E3.45643
G1 X59.277 Y62.392 E3.47684
G1 X59.556 Y62.563 E3.49725
G1 X59.804 Y62.775 E3.51766
G1 X60.017 Y63.024 E3.53807
G1 X60.188 Y63.303 E3.55848
G1 X60.313 Y63.606 E3.57890
G1 X60.390 Y63.924 E3.59930
G1 X60.415 Y64.250 E3.61971
G1 X60.390 Y64.576 E3.64012
G1 X60.313 Y64.894 E3.66053
G1 X60.188 Y65.197 E3.68094
G1 X60.017 Y65.476 E3.70135
G1 X59.804 Y65.725 E3.72176
G1 X59.556 Y65.937 E3.74217
G1 X59.277 Y66.108 E3.76258
G1 X58.974 Y66.234 E3.78299
G1 X58.668 Y66.307 E3.80260
G1 X58.270 Y66.334
G1 X58.668 Y66.307 F3600.000 E1.40260
G92 E0
G1 X61.410 Y66.950 F15000.000
G1 X61.210 Y66.950 F3600.000 E2.40000
G1 X49.607 Y66.950 F1200.000 E3.12355
G1 X49.483 Y66.772 E3.13713
G1 X49.257 Y66.388 E3.16488
G1 X49.070 Y65.985 E3.19260
G1 X48.922 Y65.566 E3.22033
G1 X48.816 Y65.134 E3.24805
G1 X48.751 Y64.694 E3.27577
G1 X48.730 Y64.250 E3.30349
G1 X48.741 Y64.021 E3.31781
G1 X48.751 Y63.806 E3.33122
G1 X48.816 Y63.366 E3.35894
G1 X48.922 Y62.934 E3.38666
G1 X49.070 Y62.515 E3.41438
G1 X49.257 Y62.112 E3.44211
G1 X49.483 Y61.728 E3.46986
G1 X49.607 Y61.550 E3.48344
G1 X67.296 Y61.550 E4.58656
G1 X67.124 Y62.121 E4.62375
G1 X66.990 Y62.721 E4.66209
G1 X66.900 Y63.329 E4.70044
G1 X66.855 Y63.943 E4.73879
G1 X66.855 Y64.557 E4.77714
G1 X66.900 Y65.171 E4.81548
G1 X66.990 Y65.779 E4.85383
G1 X67.124 Y66.379 E4.89217
G1 X67.296 Y66.950 E4.92936
G1 X61.810 Y66.950 E5.27152
G1 X61.410 Y66.950
G1 X61.410 Y66.450 F15000.000
G1 X59.843 Y66.450 F780.000 E5.36924
G1 X60.423 Y65.771 E5.42495
G1 X60.635 Y65.425 E5.45027
G1 X60.790 Y65.049 E5.47559
G1 X60.885 Y64.655 E5.50090
G1 X60.917 Y64.250 E5.52622
G1 X60.885 Y63.845 E5.55154
G1 X60.790 Y63.451 E5.57685
G1 X60.635 Y63.075 E5.60218
G1 X60.423 Y62.729 E5.62749
G1 X59.843 Y62.050 E5.68320
G1 X66.628 Y62.050 E6.10633
G1 X66.498 Y62.630 E6.14339
G1 X66.403 Y63.274 E6.18402
G1 X66.355 Y63.924 E6.22465
G1 X66.355 Y64.576 E6.26528
G1 X66.403 Y65.226 E6.30591
G1 X66.498 Y65.870 E6.34654
G1 X66.628 Y66.450 E6.38360
G1 X61.935 Y66.450 E6.67626
G1 X61.410 Y66.450
G1 F3600.000 E4.27626
G92 E0
G1 X51.742 Y66.450 F15000.000
G1 X51.542 Y66.450 F3600.000 E2.40000
G1 X49.874 Y66.450 F780.000 E2.50402
G1 X49.700 Y66.155 E2.52535
G1 X49.533 Y65.796 E2.55005
G1 X49.402 Y65.422 E2.57476
G1 X49.307 Y65.038 E2.59946
G1 X49.278 Y64.838 E2.61204
G1 X49.250 Y64.646 E2.62417
G1 X49.231 Y64.250 E2.64888
G1 X49.250 Y63.854 E2.67358
G1 X49.307 Y63.462 E2.69829
G1 X49.402 Y63.078 E2.72299
G1 X49.533 Y62.704 E2.74770
G1 X49.700 Y62.345 E2.77240
G1 X49.874 Y62.050 E2.79373
G1 X51.817 Y62.050 E2.91490
G1 X51.237 Y62.729 E2.97061
G1 X51.024 Y63.075 E2.99593
G1 X50.869 Y63.451 E3.02125
G1 X50.794 Y63.765 E3.04139
