; generated by Slic3r 1.0.0RC2 on 2014-02-10 at 14:42:01

; layer_height = 0.2
; perimeters = 2
; top_solid_layers = 3
; bottom_solid_layers = 2
; fill_density = 0.2
; perimeter_speed = 40
; infill_speed = 40
; travel_speed = 250
; nozzle_diameter = 0.3
; filament_diameter = 1.75
; extrusion_multiplier = 1
; perimeters extrusion width = 0.30mm
; infill extrusion width = 0.37mm
; solid infill extrusion width = 0.37mm
; top infill extrusion width = 0.37mm

G21 ; set units to millimeters
M107
M104 S200 ; set temperature
G28 Z0
M109 S200 ; wait for temperature to be reached
G90 ; use absolute coordinates
M83 ; use relative distances for extrusion
G1 F3600.000 E-2.40000
G1 Z0.300 F15000.000
G1 X83.120 Y105.317 F15000.000
G1 E2.40000 F3600.000
G1 X82.330 Y105.127 E0.03040 F1200.000
G1 X81.710 Y104.917 E0.02449
G1 X81.390 Y104.787 E0.01292
G1 X80.800 Y104.507 E0.02444
G1 X79.980 Y104.047 E0.03518
G1 X79.330 Y103.587 E0.02980
G1 X78.830 Y103.167 E0.02443
G1 X77.890 Y102.217 E0.05001
G1 X77.490 Y101.707 E0.02425
G1 X77.100 Y101.137 E0.02584
G1 X76.620 Y100.247 E0.03784
G1 X76.250 Y99.357 E0.03606
G1 X76.120 Y98.987 E0.01467
G1 X75.950 Y98.357 E0.02442
G1 X75.780 Y97.457 E0.03427
G1 X75.710 Y96.647 E0.03042
G1 X75.710 Y95.727 E0.03442
G1 X75.780 Y94.967 E0.02856
G1 X75.960 Y94.047 E0.03508
G1 X76.030 Y93.737 E0.01189
G1 X76.220 Y93.117 E0.02426
G1 X76.340 Y92.797 E0.01279
G1 X76.630 Y92.147 E0.02663
G1 X76.930 Y91.577 E0.02410
G1 X77.130 Y91.247 E0.01444
G1 X77.710 Y90.427 E0.03758
G1 X78.130 Y89.937 E0.02415
G1 X78.830 Y89.257 E0.03652
G1 X79.130 Y88.997 E0.01485
G1 X79.910 Y88.427 E0.03615
G1 X80.690 Y87.967 E0.03388
G1 X81.410 Y87.627 E0.02979
G1 X82.020 Y87.397 E0.02439
G1 X82.390 Y87.287 E0.01444
G1 X83.210 Y87.087 E0.03158
G1 X83.660 Y87.007 E0.01710
G1 X84.890 Y86.917 E0.04615
G1 X111.140 Y86.917 E0.98221
G1 X112.010 Y86.957 E0.03259
G1 X112.950 Y87.077 E0.03546
G1 X114.120 Y87.357 E0.04501
G1 X115.010 Y87.657 E0.03514
G1 X115.790 Y87.987 E0.03169
G1 X116.060 Y88.117 E0.01121
G1 X117.110 Y88.707 E0.04507
G1 X117.610 Y89.047 E0.02262
G1 X118.540 Y89.807 E0.04494
G1 X119.380 Y90.637 E0.04419
G1 X119.940 Y91.317 E0.03296
G1 X120.630 Y92.307 E0.04515
G1 X123.860 Y97.887 E0.24125
G1 X124.190 Y98.687 E0.03238
G1 X124.300 Y99.537 E0.03207
G1 X124.290 Y107.927 E0.31393
G1 X124.280 Y108.227 E0.01123
G1 X124.240 Y108.517 E0.01095
G1 X124.160 Y108.957 E0.01673
G1 X124.080 Y109.267 E0.01198
G1 X123.870 Y109.857 E0.02343
G1 X123.660 Y110.297 E0.01824
G1 X123.510 Y110.557 E0.01123
G1 X123.350 Y110.807 E0.01111
G1 X123.160 Y111.047 E0.01145
G1 X122.620 Y111.657 E0.03048
G1 X122.100 Y112.067 E0.02478
G1 X121.770 Y112.287 E0.01484
G1 X121.250 Y112.577 E0.02228
G1 X120.550 Y112.837 E0.02794
G1 X120.000 Y112.977 E0.02124
G1 X119.710 Y113.027 E0.01101
G1 X119.150 Y113.077 E0.02104
G1 X118.850 Y113.077 E0.01123
G1 X118.520 Y113.057 E0.01237
G1 X117.700 Y112.907 E0.03119
G1 X83.164 Y105.326 E1.32302
G1 F3600.000 E-2.40000
G1 X118.600 Y109.589 F15000.000
G1 E2.40000 F3600.000
G1 X118.324 Y109.506 E0.01079 F1200.000
G1 X108.145 Y105.529 E0.40892
G1 X107.605 Y105.294 E0.02203
G1 X107.085 Y105.021 E0.02198
G1 X106.587 Y104.709 E0.02198
G1 X105.888 Y104.174 E0.03296
G1 X105.457 Y103.775 E0.02198
G1 X105.057 Y103.345 E0.02198
G1 X104.520 Y102.647 E0.03296
G1 X104.064 Y101.893 E0.03295
G1 X103.809 Y101.364 E0.02198
G1 X103.510 Y100.565 E0.03194
G1 X103.349 Y99.972 E0.02299
G1 X103.200 Y99.103 E0.03295
G1 X103.150 Y98.224 E0.03296
G1 X103.196 Y97.372 E0.03194
G1 X103.286 Y96.764 E0.02299
G1 X103.497 Y95.909 E0.03295
G1 X103.792 Y95.108 E0.03194
G1 X104.057 Y94.554 E0.02299
G1 X104.511 Y93.799 E0.03295
G1 X105.047 Y93.100 E0.03296
G1 X105.446 Y92.669 E0.02198
G1 X105.876 Y92.269 E0.02198
G1 X106.575 Y91.733 E0.03295
G1 X107.072 Y91.420 E0.02198
G1 X107.858 Y91.023 E0.03295
G1 X108.684 Y90.716 E0.03296
G1 X109.512 Y90.509 E0.03194
G1 X110.119 Y90.416 E0.02299
G1 X110.998 Y90.367 E0.03295
G1 X111.851 Y90.413 E0.03194
G1 X112.459 Y90.503 E0.02299
G1 X113.313 Y90.715 E0.03295
G1 X114.114 Y91.011 E0.03194
G1 X114.668 Y91.276 E0.02299
G1 X115.423 Y91.731 E0.03295
G1 X116.121 Y92.267 E0.03295
G1 X116.552 Y92.667 E0.02198
G1 X117.138 Y93.324 E0.03296
G1 X117.487 Y93.796 E0.02198
G1 X117.800 Y94.295 E0.02203
G1 X120.850 Y99.581 E0.22835
G1 X120.850 Y107.781 E0.30681
G1 X120.804 Y108.195 E0.01559
G1 X120.722 Y108.459 E0.01034
G1 X120.529 Y108.825 E0.01549
G1 X120.259 Y109.139 E0.01549
G1 X120.043 Y109.311 E0.01034
G1 X119.804 Y109.449 E0.01034
G1 X119.414 Y109.587 E0.01549
G1 X119.002 Y109.633 E0.01549
G1 X118.644 Y109.598 E0.01346
G1 X118.517 Y109.313 F15000.000
G1 X118.545 Y109.265 F15000.000
G1 X108.257 Y105.250 E0.41325 F1200.000
G1 X107.735 Y105.024 E0.02129
G1 X107.235 Y104.761 E0.02114
G1 X106.756 Y104.461 E0.02114
G1 X106.083 Y103.946 E0.03170
G1 X105.669 Y103.562 E0.02114
G1 X105.284 Y103.149 E0.02114
G1 X104.767 Y102.477 E0.03170
G1 X104.329 Y101.752 E0.03170
G1 X104.084 Y101.244 E0.02114
G1 X103.795 Y100.470 E0.03089
G1 X103.641 Y99.905 E0.02194
G1 X103.498 Y99.070 E0.03170
G1 X103.451 Y98.245 E0.03089
G1 X103.471 Y97.659 E0.02194
G1 X103.580 Y96.819 E0.03170
G1 X103.784 Y95.997 E0.03170
G1 X104.069 Y95.223 E0.03089
G1 X104.322 Y94.694 E0.02194
G1 X104.759 Y93.968 E0.03170
G1 X105.274 Y93.295 E0.03170
G1 X105.658 Y92.881 E0.02114
G1 X106.072 Y92.497 E0.02114
G1 X106.744 Y91.981 E0.03170
G1 X107.222 Y91.680 E0.02114
G1 X107.978 Y91.298 E0.03170
G1 X108.772 Y91.003 E0.03170
G1 X109.573 Y90.803 E0.03089
G1 X110.153 Y90.714 E0.02194
G1 X110.998 Y90.667 E0.03170
G1 X111.823 Y90.712 E0.03089
G1 X112.403 Y90.798 E0.02194
G1 X113.204 Y90.996 E0.03089
G1 X113.758 Y91.188 E0.02194
G1 X114.276 Y91.414 E0.02114
G1 X115.017 Y91.824 E0.03170
G1 X115.708 Y92.314 E0.03170
G1 X116.340 Y92.879 E0.03170
G1 X116.904 Y93.511 E0.03170
G1 X117.239 Y93.965 E0.02114
G1 X117.542 Y94.447 E0.02129
G1 X120.550 Y99.661 E0.22524
G1 X120.550 Y107.775 E0.30360
G1 X120.511 Y108.128 E0.01329
G1 X120.396 Y108.455 E0.01297
G1 X120.212 Y108.749 E0.01297
G1 X120.055 Y108.919 E0.00866
G1 X119.776 Y109.125 E0.01297
G1 X119.568 Y109.225 E0.00866
G1 X119.233 Y109.316 E0.01297
G1 X118.886 Y109.329 E0.01297
G1 X118.589 Y109.277 E0.01130
G1 F3600.000 E-2.40000
G1 X110.319 Y100.367 F15000.000
G1 E2.40000 F3600.000
G1 X109.999 Y100.654 E0.01607 F960.000
G1 X109.745 Y100.800 E0.01096
G1 X109.471 Y100.902 E0.01096
G1 X109.037 Y100.966 E0.01641
G1 X108.744 Y100.948 E0.01096
G1 X108.322 Y100.830 E0.01641
G1 X108.062 Y100.694 E0.01096
G1 X107.829 Y100.517 E0.01096
G1 X107.628 Y100.304 E0.01096
G1 X107.466 Y100.060 E0.01096
G1 X107.347 Y99.792 E0.01096
G1 X107.256 Y99.363 E0.01641
G1 X107.257 Y99.061 E0.01130
G1 X107.347 Y98.641 E0.01608
G1 X107.466 Y98.373 E0.01096
G1 X107.628 Y98.129 E0.01096
G1 X107.942 Y97.822 E0.01642
G1 X108.189 Y97.666 E0.01096
G1 X108.459 Y97.552 E0.01096
G1 X108.753 Y97.484 E0.01130
G1 X109.183 Y97.476 E0.01607
G1 X109.471 Y97.531 E0.01096
G1 X109.753 Y97.637 E0.01130
G1 X110.116 Y97.868 E0.01607
G1 X110.416 Y98.188 E0.01642
G1 X110.568 Y98.438 E0.01096
G1 X110.675 Y98.711 E0.01096
G1 X110.736 Y98.997 E0.01096
G1 X110.748 Y99.299 E0.01130
G1 X110.675 Y99.722 E0.01607
G1 X110.568 Y99.995 E0.01096
G1 X110.347 Y100.332 E0.01508
G1 X110.405 Y100.654 F15000.000
G1 X110.537 Y100.572 F15000.000
G1 X110.307 Y100.796 E0.01202 F960.000
G1 X110.170 Y100.900 E0.00643
G1 X109.873 Y101.072 E0.01284
G1 X109.551 Y101.191 E0.01284
G1 X109.214 Y101.256 E0.01284
G1 X109.043 Y101.266 E0.00643
G1 X108.700 Y101.245 E0.01284
G1 X108.532 Y101.213 E0.00643
G1 X108.205 Y101.107 E0.01284
G1 X107.901 Y100.948 E0.01284
G1 X107.628 Y100.740 E0.01284
G1 X107.393 Y100.490 E0.01284
G1 X107.203 Y100.204 E0.01284
G1 X107.064 Y99.891 E0.01284
G1 X106.978 Y99.558 E0.01284
G1 X106.957 Y99.388 E0.00643
G1 X106.957 Y99.045 E0.01283
G1 X107.014 Y98.707 E0.01285
G1 X107.137 Y98.363 E0.01364
G1 X107.292 Y98.082 E0.01203
G1 X107.393 Y97.943 E0.00643
G1 X107.521 Y97.798 E0.00723
G1 X107.760 Y97.583 E0.01203
G1 X108.050 Y97.399 E0.01284
G1 X108.366 Y97.267 E0.01283
G1 X108.722 Y97.186 E0.01365
G1 X109.043 Y97.167 E0.01203
G1 X109.214 Y97.177 E0.00642
G1 X109.551 Y97.242 E0.01284
G1 X109.892 Y97.371 E0.01364
G1 X110.170 Y97.533 E0.01203
G1 X110.307 Y97.637 E0.00642
G1 X110.552 Y97.877 E0.01284
G1 X110.754 Y98.154 E0.01284
G1 X110.906 Y98.462 E0.01284
G1 X111.006 Y98.790 E0.01284
G1 X111.034 Y98.960 E0.00642
G1 X111.047 Y99.324 E0.01364
G1 X111.006 Y99.643 E0.01203
G1 X110.963 Y99.809 E0.00642
G1 X110.837 Y100.128 E0.01284
G1 X110.754 Y100.279 E0.00642
G1 X110.567 Y100.538 E0.01197
G1 X111.187 Y98.659 F15000.000
G1 X120.334 Y107.806 E0.57593 F1200.000
G1 X120.256 Y108.233 E0.01933
G1 X111.257 Y99.234 E0.56661
G1 X111.211 Y99.693 E0.02053
G1 X120.081 Y108.563 E0.55849
G1 X119.830 Y108.817 E0.01589
G1 X111.086 Y100.073 E0.55057
G1 X110.915 Y100.407 E0.01670
G1 X119.518 Y109.009 E0.54165
G1 X119.118 Y109.115 E0.01840
G1 X110.706 Y100.702 E0.52967
G1 X110.451 Y100.952 E0.01589
G1 X118.531 Y109.032 E0.50875
G1 X117.703 Y108.709 F15000.000
G1 X110.154 Y101.160 E0.47529 F1200.000
G1 X109.814 Y101.325 E0.01682
G1 X116.875 Y108.386 E0.44457
G1 X116.047 Y108.063 F15000.000
G1 X109.417 Y101.433 E0.41748 F1200.000
G1 X108.952 Y101.473 E0.02076
G1 X115.219 Y107.740 E0.39460
G1 X114.392 Y107.417 F15000.000
G1 X108.351 Y101.377 E0.38033 F1200.000
G1 F3600.000 E-2.40000
G1 X106.049 Y103.618 F15000.000
G1 E2.40000 F3600.000
G1 X105.479 Y103.048 E0.03587 F1200.000
G1 X104.447 Y101.511 F15000.000
G1 X107.705 Y104.769 E0.20516 F1200.000
G1 X108.597 Y105.156 F15000.000
G1 X104.078 Y100.637 E0.28454 F1200.000
G1 X103.878 Y99.932 E0.03262
G1 X109.425 Y105.479 E0.34925
G1 X110.252 Y105.802 F15000.000
G1 X103.754 Y99.303 E0.40919 F1200.000
G1 X103.681 Y98.726 E0.02590
G1 X111.080 Y106.125 E0.46588
G1 X111.908 Y106.448 F15000.000
G1 X103.663 Y98.203 E0.51917 F1200.000
G1 X103.680 Y97.715 E0.02171
G1 X112.736 Y106.771 E0.57019
G1 X113.564 Y107.094 F15000.000
G1 X103.736 Y97.267 E0.61878 F1200.000
G1 X103.798 Y96.823 E0.01993
G1 X106.838 Y99.864 E0.19144
G1 X106.745 Y99.266 E0.02694
G1 X103.898 Y96.418 E0.17929
G1 X104.001 Y96.017 E0.01846
G1 X106.784 Y98.799 E0.17521
G1 X106.896 Y98.407 E0.01817
G1 X104.132 Y95.643 E0.17407
G1 X104.279 Y95.285 E0.01722
G1 X107.059 Y98.066 E0.17509
G1 X107.267 Y97.768 E0.01614
G1 X104.440 Y94.941 E0.17801
G1 X104.619 Y94.616 E0.01654
G1 X107.516 Y97.512 E0.18238
G1 X107.805 Y97.297 E0.01606
G1 X104.801 Y94.292 E0.18918
G1 X105.005 Y93.992 E0.01618
G1 X108.139 Y97.126 E0.19731
G1 X108.524 Y97.006 E0.01797
G1 X105.221 Y93.703 E0.20801
G1 X105.447 Y93.424 E0.01598
G1 X108.981 Y96.958 E0.22252
G1 X109.552 Y97.024 E0.02558
G1 X105.699 Y93.172 E0.24256
G1 X105.952 Y92.920 E0.01589
G1 X120.334 Y107.302 E0.90555
G1 X120.334 Y106.797 E0.02246
G1 X106.209 Y92.672 E0.88938
G1 X106.485 Y92.443 E0.01596
G1 X120.335 Y106.293 E0.87203
G1 X120.335 Y105.788 E0.02246
G1 X106.774 Y92.227 E0.85387
G1 X107.079 Y92.027 E0.01623
G1 X120.335 Y105.284 E0.83469
G1 X120.335 Y104.779 E0.02246
G1 X107.388 Y91.831 E0.81522
G1 X107.718 Y91.657 E0.01663
G1 X120.336 Y104.274 E0.79445
G1 X120.336 Y103.770 E0.02246
G1 X108.063 Y91.497 E0.77273
G1 X108.423 Y91.352 E0.01726
G1 X120.336 Y103.265 E0.75012
G1 X120.337 Y102.761 E0.02246
G1 X108.802 Y91.227 E0.72623
G1 X109.191 Y91.110 E0.01804
G1 X120.337 Y102.256 E0.70181
G1 X120.337 Y101.752 E0.02246
G1 X109.608 Y91.023 E0.67554
G1 X110.036 Y90.946 E0.01936
G1 X120.337 Y101.247 E0.64862
G1 X120.338 Y100.743 E0.02246
G1 X110.492 Y90.897 E0.61990
G1 X110.979 Y90.879 E0.02166
G1 X120.338 Y100.238 E0.58931
G1 X120.338 Y99.734 E0.02246
G1 X111.511 Y90.907 E0.55577
G1 X112.072 Y90.963 E0.02510
G1 X119.668 Y98.559 E0.47825
G1 X118.976 Y97.362 F15000.000
G1 X112.705 Y91.091 E0.39488 F1200.000
G1 X113.411 Y91.292 E0.03268
G1 X118.285 Y96.166 E0.30688
G1 X117.593 Y94.969 F15000.000
G1 X114.285 Y91.661 E0.20828 F1200.000
G1 X115.846 Y92.717 F15000.000
G1 X116.535 Y93.406 E0.04335 F1200.000
G1 F3600.000 E-2.40000
G1 X90.836 Y96.619 F15000.000
G1 E2.40000 F3600.000
G1 X90.789 Y97.058 E0.01651 F960.000
G1 X90.664 Y97.679 E0.02370
G1 X90.544 Y98.083 E0.01581
G1 X90.309 Y98.672 E0.02370
G1 X90.013 Y99.232 E0.02370
G1 X89.657 Y99.756 E0.02370
G1 X89.390 Y100.083 E0.01581
G1 X88.946 Y100.535 E0.02370
G1 X88.456 Y100.936 E0.02370
G1 X87.925 Y101.282 E0.02370
G1 X87.552 Y101.480 E0.01581
G1 X86.968 Y101.725 E0.02370
G1 X86.361 Y101.905 E0.02370
G1 X85.737 Y102.019 E0.02370
G1 X85.317 Y102.057 E0.01581
G1 X84.683 Y102.057 E0.02370
G1 X84.072 Y101.991 E0.02299
G1 X83.639 Y101.905 E0.01651
G1 X83.032 Y101.725 E0.02370
G1 X82.448 Y101.480 E0.02370
G1 X81.894 Y101.173 E0.02370
G1 X81.391 Y100.819 E0.02299
G1 X81.054 Y100.535 E0.01651
G1 X80.610 Y100.083 E0.02370
G1 X80.218 Y99.585 E0.02370
G1 X79.987 Y99.232 E0.01581
G1 X79.691 Y98.672 E0.02370
G1 X79.456 Y98.083 E0.02370
G1 X79.287 Y97.473 E0.02370
G1 X79.187 Y96.867 E0.02299
G1 X79.154 Y96.427 E0.01651
G1 X79.165 Y95.793 E0.02370
G1 X79.245 Y95.165 E0.02370
G1 X79.392 Y94.549 E0.02370
G1 X79.527 Y94.149 E0.01581
G1 X79.783 Y93.569 E0.02370
G1 X80.100 Y93.021 E0.02370
G1 X80.343 Y92.675 E0.01581
G1 X80.753 Y92.193 E0.02370
G1 X81.199 Y91.769 E0.02299
G1 X81.544 Y91.495 E0.01651
G1 X82.075 Y91.149 E0.02370
G1 X82.448 Y90.951 E0.01581
G1 X83.032 Y90.706 E0.02370
G1 X83.639 Y90.526 E0.02370
G1 X84.244 Y90.415 E0.02299
G1 X84.683 Y90.374 E0.01651
G1 X85.317 Y90.374 E0.02370
G1 X85.946 Y90.443 E0.02370
G1 X86.565 Y90.579 E0.02370
G1 X87.165 Y90.781 E0.02370
G1 X87.552 Y90.951 E0.01581
G1 X88.106 Y91.258 E0.02370
G1 X88.609 Y91.612 E0.02299
G1 X88.946 Y91.897 E0.01651
G1 X89.390 Y92.348 E0.02370
G1 X89.657 Y92.675 E0.01581
G1 X90.013 Y93.200 E0.02370
G1 X90.309 Y93.759 E0.02370
G1 X90.544 Y94.348 E0.02370
G1 X90.664 Y94.753 E0.01580
G1 X90.789 Y95.374 E0.02370
G1 X90.846 Y96.004 E0.02370
G1 X90.838 Y96.574 E0.02131
G1 X90.565 Y96.748 F15000.000
G1 X90.423 Y97.395 F15000.000
G1 X90.320 Y97.797 E0.01550 F960.000
G1 X90.118 Y98.363 E0.02249
G1 X89.856 Y98.903 E0.02249
G1 X89.649 Y99.247 E0.01500
G1 X89.303 Y99.721 E0.02198
G1 X89.029 Y100.032 E0.01550
G1 X88.593 Y100.445 E0.02249
G1 X88.115 Y100.809 E0.02249
G1 X87.600 Y101.119 E0.02249
G1 X87.054 Y101.371 E0.02249
G1 X86.677 Y101.506 E0.01499
G1 X86.095 Y101.656 E0.02248
G1 X85.500 Y101.743 E0.02249
G1 X85.100 Y101.765 E0.01499
G1 X84.500 Y101.743 E0.02249
G1 X83.905 Y101.656 E0.02248
G1 X83.323 Y101.506 E0.02249
G1 X82.946 Y101.371 E0.01499
G1 X82.400 Y101.119 E0.02249
G1 X81.885 Y100.809 E0.02249
G1 X81.407 Y100.445 E0.02249
G1 X80.971 Y100.032 E0.02249
G1 X80.582 Y99.574 E0.02249
G1 X80.351 Y99.247 E0.01499
G1 X80.050 Y98.726 E0.02249
G1 X79.808 Y98.176 E0.02249
G1 X79.680 Y97.797 E0.01499
G1 X79.540 Y97.212 E0.02249
G1 X79.465 Y96.616 E0.02248
G1 X79.454 Y96.015 E0.02249
G1 X79.483 Y95.615 E0.01500
G1 X79.580 Y95.022 E0.02249
G1 X79.680 Y94.634 E0.01499
G1 X79.882 Y94.069 E0.02249
G1 X80.138 Y93.540 E0.02198
G1 X80.351 Y93.184 E0.01550
G1 X80.706 Y92.700 E0.02249
G1 X81.102 Y92.266 E0.02198
G1 X81.407 Y91.986 E0.01550
G1 X81.885 Y91.622 E0.02249
G1 X82.400 Y91.312 E0.02249
G1 X82.946 Y91.060 E0.02249
G1 X83.323 Y90.925 E0.01499
G1 X83.905 Y90.775 E0.02248
G1 X84.500 Y90.688 E0.02249
G1 X84.900 Y90.667 E0.01499
G1 X85.500 Y90.688 E0.02249
G1 X86.095 Y90.775 E0.02249
G1 X86.664 Y90.921 E0.02198
G1 X87.054 Y91.060 E0.01550
G1 X87.600 Y91.312 E0.02249
G1 X88.115 Y91.622 E0.02249
G1 X88.582 Y91.977 E0.02198
G1 X88.889 Y92.256 E0.01550
G1 X89.294 Y92.700 E0.02249
G1 X89.649 Y93.184 E0.02249
G1 X89.950 Y93.705 E0.02249
G1 X90.192 Y94.255 E0.02249
G1 X90.320 Y94.634 E0.01499
G1 X90.460 Y95.219 E0.02249
G1 X90.535 Y95.815 E0.02248
G1 X90.550 Y96.216 E0.01500
G1 X90.517 Y96.816 E0.02249
G1 X90.432 Y97.351 E0.02030
G1 F3600.000 E-2.40000
G1 X86.710 Y96.587 F15000.000
G1 E2.40000 F3600.000
G1 X86.599 Y96.927 E0.01341 F960.000
G1 X86.416 Y97.244 E0.01369
G1 X86.171 Y97.516 E0.01369
G1 X85.875 Y97.731 E0.01369
G1 X85.541 Y97.880 E0.01369
G1 X85.183 Y97.956 E0.01369
G1 X84.817 Y97.956 E0.01369
G1 X84.577 Y97.914 E0.00914
