; generated by Slic3r 1.0.0RC2 on 2014-02-06 at 13:52:29

; layer_height = 0.2
; perimeters = 2
; top_solid_layers = 3
; bottom_solid_layers = 2
; fill_density = 0.2
; perimeter_speed = 40
; infill_speed = 40
; travel_speed = 250
; nozzle_diameter = 0.3
; filament_diameter = 1.75
; extrusion_multiplier = 1
; perimeters extrusion width = 0.30mm
; infill extrusion width = 0.37mm
; solid infill extrusion width = 0.37mm
; top infill extrusion width = 0.37mm

G21 ; set units to millimeters
M107
M104 S200 ; set temperature

M109 S200 ; wait for temperature to be reached
G90 ; use absolute coordinates
M83 ; use relative distances for extrusion
G1 F3600.000 E-2.40000
G1 Z0.300 F15000.000
G1 X79.693 Y87.250 F15000.000
G1 E2.40000 F3600.000
G1 X80.453 Y86.750 E0.03404 F1200.000
G1 X81.253 Y86.270 E0.03491
G1 X81.933 Y85.900 E0.02897
G1 X82.863 Y85.440 E0.03882
G1 X83.563 Y85.130 E0.02865
G1 X84.483 Y84.760 E0.03710
G1 X85.193 Y84.500 E0.02829
G1 X86.163 Y84.190 E0.03810
G1 X87.843 Y83.750 E0.06498
G1 X88.893 Y83.530 E0.04014
G1 X89.843 Y83.380 E0.03599
G1 X90.743 Y83.260 E0.03397
G1 X91.813 Y83.170 E0.04018
G1 X93.513 Y83.110 E0.06365
G1 X103.363 Y83.110 E0.36856
G1 X104.103 Y83.130 E0.02770
G1 X105.753 Y83.240 E0.06188
G1 X106.763 Y83.360 E0.03806
G1 X107.903 Y83.540 E0.04318
G1 X109.073 Y83.780 E0.04469
G1 X110.773 Y84.220 E0.06571
G1 X112.113 Y84.660 E0.05277
G1 X113.803 Y85.350 E0.06830
G1 X114.783 Y85.810 E0.04051
G1 X115.603 Y86.250 E0.03482
G1 X116.313 Y86.660 E0.03068
G1 X117.753 Y87.610 E0.06455
G1 X118.903 Y88.480 E0.05396
G1 X119.493 Y88.970 E0.02870
G1 X120.173 Y89.590 E0.03443
G1 X120.933 Y90.350 E0.04022
G1 X121.873 Y91.390 E0.05245
G1 X122.603 Y92.320 E0.04424
G1 X123.253 Y93.260 E0.04276
G1 X123.783 Y94.110 E0.03748
G1 X123.913 Y94.350 E0.01021
G1 X124.363 Y95.230 E0.03698
G1 X124.613 Y95.810 E0.02363
G1 X124.753 Y96.190 E0.01515
G1 X124.973 Y96.940 E0.02925
G1 X128.573 Y110.160 E0.51267
G1 X128.703 Y110.810 E0.02480
G1 X128.783 Y111.470 E0.02488
G1 X128.793 Y111.880 E0.01535
G1 X128.773 Y112.540 E0.02471
G1 X128.683 Y113.260 E0.02715
G1 X128.623 Y113.580 E0.01218
G1 X128.463 Y114.210 E0.02432
G1 X128.313 Y114.650 E0.01739
G1 X128.063 Y115.260 E0.02467
G1 X127.793 Y115.820 E0.02326
G1 X127.563 Y116.200 E0.01662
G1 X127.183 Y116.740 E0.02471
G1 X126.913 Y117.070 E0.01595
G1 X126.413 Y117.600 E0.02726
G1 X126.043 Y117.940 E0.01880
G1 X125.523 Y118.340 E0.02455
G1 X125.163 Y118.580 E0.01619
G1 X124.593 Y118.910 E0.02464
G1 X124.253 Y119.080 E0.01422
G1 X123.433 Y119.400 E0.03294
G1 X122.443 Y119.650 E0.03821
G1 X121.993 Y119.730 E0.01710
G1 X121.343 Y119.790 E0.02442
G1 X120.613 Y119.790 E0.02731
G1 X119.613 Y119.670 E0.03769
G1 X119.263 Y119.600 E0.01336
G1 X118.593 Y119.410 E0.02606
G1 X73.353 Y102.600 E1.80586
G1 X72.543 Y102.160 E0.03449
G1 X71.883 Y101.510 E0.03466
G1 X71.423 Y100.710 E0.03453
G1 X71.213 Y99.810 E0.03458
G1 X71.263 Y98.880 E0.03485
G1 X71.433 Y98.020 E0.03280
G1 X71.633 Y97.310 E0.02760
G1 X71.853 Y96.710 E0.02391
G1 X72.223 Y95.850 E0.03503
G1 X72.523 Y95.230 E0.02577
G1 X73.003 Y94.350 E0.03751
G1 X73.543 Y93.470 E0.03863
G1 X74.193 Y92.530 E0.04276
G1 X74.803 Y91.730 E0.03764
G1 X75.343 Y91.090 E0.03133
G1 X75.963 Y90.400 E0.03471
G1 X76.763 Y89.600 E0.04233
G1 X77.473 Y88.950 E0.03602
G1 X78.093 Y88.430 E0.03028
G1 X78.813 Y87.870 E0.03413
G1 X79.655 Y87.274 E0.03860
G1 F3600.000 E-2.40000
G1 X74.798 Y98.813 F15000.000
G1 E2.40000 F3600.000
G1 X74.941 Y98.334 E0.01872 F1200.000
G1 X75.097 Y97.915 E0.01672
G1 X75.504 Y97.004 E0.03735
G1 X76.032 Y96.019 E0.04181
G1 X76.691 Y94.977 E0.04613
G1 X77.313 Y94.126 E0.03945
G1 X77.977 Y93.320 E0.03905
G1 X78.529 Y92.717 E0.03062
G1 X79.399 Y91.865 E0.04556
G1 X80.002 Y91.333 E0.03006
G1 X80.941 Y90.593 E0.04475
G1 X81.911 Y89.918 E0.04424
G1 X82.903 Y89.311 E0.04350
G1 X83.587 Y88.941 E0.02910
G1 X84.621 Y88.442 E0.04296
G1 X85.671 Y88.006 E0.04253
G1 X86.732 Y87.631 E0.04214
G1 X87.446 Y87.414 E0.02789
G1 X88.215 Y87.210 E0.02979
G1 X89.241 Y86.983 E0.03929
G1 X89.962 Y86.855 E0.02742
G1 X90.684 Y86.750 E0.02731
G1 X91.770 Y86.639 E0.04085
G1 X92.857 Y86.579 E0.04072
G1 X93.633 Y86.565 E0.02903
G1 X103.273 Y86.567 E0.36071
G1 X104.343 Y86.601 E0.04008
G1 X105.688 Y86.708 E0.05049
G1 X107.032 Y86.893 E0.05075
G1 X108.373 Y87.158 E0.05116
G1 X109.377 Y87.413 E0.03872
G1 X110.375 Y87.717 E0.03906
G1 X111.037 Y87.948 E0.02624
G1 X112.023 Y88.338 E0.03968
G1 X112.675 Y88.628 E0.02668
G1 X113.320 Y88.943 E0.02685
G1 X114.273 Y89.466 E0.04067
G1 X115.207 Y90.046 E0.04115
G1 X115.818 Y90.464 E0.02770
G1 X116.415 Y90.910 E0.02786
G1 X117.284 Y91.628 E0.04222
G1 X117.845 Y92.139 E0.02838
G1 X118.387 Y92.678 E0.02861
G1 X118.909 Y93.243 E0.02878
G1 X119.418 Y93.844 E0.02945
G1 X119.910 Y94.483 E0.03020
G1 X120.546 Y95.423 E0.04245
G1 X120.853 Y95.939 E0.02246
G1 X121.127 Y96.450 E0.02171
G1 X121.302 Y96.817 E0.01520
G1 X121.491 Y97.304 E0.01955
G1 X125.195 Y110.854 E0.52561
G1 X125.268 Y111.166 E0.01199
G1 X125.344 Y111.796 E0.02376
G1 X125.327 Y112.431 E0.02376
G1 X125.218 Y113.057 E0.02376
G1 X125.130 Y113.362 E0.01189
G1 X124.888 Y113.949 E0.02376
G1 X124.563 Y114.494 E0.02376
G1 X124.161 Y114.987 E0.02376
G1 X123.935 Y115.210 E0.01189
G1 X123.436 Y115.603 E0.02376
G1 X122.886 Y115.919 E0.02376
G1 X122.295 Y116.152 E0.02376
G1 X121.677 Y116.297 E0.02376
G1 X121.044 Y116.350 E0.02376
G1 X120.410 Y116.310 E0.02376
G1 X120.097 Y116.256 E0.01189
G1 X119.487 Y116.079 E0.02376
G1 X118.909 Y115.815 E0.02376
G1 X118.376 Y115.471 E0.02376
G1 X117.899 Y115.052 E0.02376
G1 X117.488 Y114.568 E0.02376
G1 X117.151 Y114.029 E0.02376
G1 X116.897 Y113.447 E0.02376
G1 X116.801 Y113.141 E0.01199
G1 X113.244 Y100.091 E0.50615
G1 X111.997 Y100.076 E0.04666
G1 X111.694 Y99.256 E0.03272
G1 X111.262 Y98.366 E0.03702
G1 X110.835 Y97.658 E0.03093
G1 X110.450 Y97.107 E0.02514
G1 X109.873 Y96.405 E0.03401
G1 X109.453 Y95.958 E0.02295
G1 X109.083 Y95.603 E0.01920
G1 X108.298 Y94.946 E0.03830
G1 X107.435 Y94.344 E0.03937
G1 X106.984 Y94.072 E0.01972
G1 X106.434 Y93.776 E0.02336
G1 X105.563 Y93.371 E0.03594
G1 X105.064 Y93.175 E0.02005
G1 X104.040 Y92.843 E0.04029
G1 X102.975 Y92.593 E0.04093
G1 X101.899 Y92.431 E0.04073
G1 X100.811 Y92.356 E0.04078
G1 X99.721 Y92.368 E0.04081
G1 X98.636 Y92.467 E0.04076
G1 X97.566 Y92.653 E0.04065
G1 X96.524 Y92.922 E0.04026
G1 X96.018 Y93.086 E0.01991
G1 X95.021 Y93.479 E0.04008
G1 X94.060 Y93.955 E0.04013
G1 X93.159 Y94.501 E0.03942
G1 X92.318 Y95.118 E0.03902
G1 X91.545 Y95.798 E0.03853
G1 X90.843 Y96.540 E0.03823
G1 X90.220 Y97.334 E0.03776
G1 X89.681 Y98.175 E0.03737
G1 X89.444 Y98.611 E0.01856
G1 X89.101 Y99.360 E0.03083
G1 X74.682 Y99.360 E0.53955
G1 X74.787 Y98.857 E0.01924
G1 X75.088 Y98.736 F15000.000
G1 X75.227 Y98.426 F15000.000
G1 X75.536 Y97.644 E0.03145 F1200.000
G1 X75.916 Y96.850 E0.03293
G1 X76.501 Y95.818 E0.04442
G1 X77.102 Y94.914 E0.04059
G1 X77.682 Y94.141 E0.03618
G1 X78.472 Y93.216 E0.04552
G1 X79.171 Y92.496 E0.03754
G1 X79.897 Y91.820 E0.03713
G1 X80.499 Y91.313 E0.02944
G1 X81.435 Y90.605 E0.04391
G1 X82.400 Y89.962 E0.04341
G1 X83.389 Y89.385 E0.04283
G1 X84.299 Y88.923 E0.03819
G1 X85.087 Y88.566 E0.03237
G1 X86.126 Y88.156 E0.04179
G1 X87.176 Y87.806 E0.04142
G1 X87.881 Y87.605 E0.02742
G1 X88.629 Y87.420 E0.02884
G1 X89.654 Y87.211 E0.03913
G1 X90.366 Y87.096 E0.02700
G1 X91.079 Y87.006 E0.02689
G1 X92.151 Y86.913 E0.04028
G1 X93.637 Y86.866 E0.05563
G1 X103.272 Y86.867 E0.36049
G1 X104.328 Y86.901 E0.03953
G1 X105.657 Y87.006 E0.04988
G1 X106.982 Y87.189 E0.05008
G1 X108.306 Y87.451 E0.05049
G1 X109.625 Y87.796 E0.05101
G1 X110.608 Y88.113 E0.03864
G1 X111.259 Y88.352 E0.02596
G1 X112.228 Y88.754 E0.03925
G1 X112.867 Y89.052 E0.02640
G1 X113.497 Y89.375 E0.02648
G1 X114.431 Y89.909 E0.04024
G1 X115.344 Y90.499 E0.04070
G1 X115.940 Y90.924 E0.02739
G1 X116.805 Y91.612 E0.04132
G1 X117.365 Y92.103 E0.02788
G1 X117.906 Y92.618 E0.02797
G1 X118.432 Y93.162 E0.02828
G1 X119.178 Y94.024 E0.04267
G1 X119.646 Y94.631 E0.02869
G1 X120.084 Y95.260 E0.02866
G1 X120.492 Y95.913 E0.02880
G1 X120.802 Y96.473 E0.02395
G1 X121.024 Y96.930 E0.01901
G1 X121.165 Y97.276 E0.01402
G1 X121.293 Y97.688 E0.01613
G1 X124.904 Y110.927 E0.51348
G1 X125.019 Y111.516 E0.02243
G1 X125.047 Y112.106 E0.02212
G1 X124.989 Y112.694 E0.02212
G1 X124.845 Y113.268 E0.02212
G1 X124.619 Y113.815 E0.02212
G1 X124.477 Y114.074 E0.01107
G1 X124.138 Y114.558 E0.02212
G1 X123.732 Y114.988 E0.02212
G1 X123.268 Y115.354 E0.02212
G1 X122.756 Y115.649 E0.02212
G1 X122.206 Y115.866 E0.02212
G1 X121.920 Y115.944 E0.01107
G1 X121.630 Y116.000 E0.01107
G1 X121.041 Y116.050 E0.02212
G1 X120.451 Y116.013 E0.02212
G1 X119.872 Y115.890 E0.02212
G1 X119.318 Y115.685 E0.02212
G1 X118.799 Y115.401 E0.02212
G1 X118.557 Y115.231 E0.01107
G1 X118.113 Y114.841 E0.02212
G1 X117.730 Y114.391 E0.02212
G1 X117.417 Y113.889 E0.02212
G1 X117.180 Y113.347 E0.02212
G1 X117.089 Y113.057 E0.01138
G1 X113.474 Y99.793 E0.51442
G1 X112.213 Y99.779 E0.04718
G1 X111.970 Y99.139 E0.02561
G1 X111.760 Y98.677 E0.01899
G1 X111.524 Y98.219 E0.01927
G1 X111.268 Y97.776 E0.01916
G1 X110.689 Y96.924 E0.03854
G1 X110.097 Y96.206 E0.03480
G1 X109.664 Y95.744 E0.02372
G1 X108.916 Y95.058 E0.03798
G1 X108.469 Y94.699 E0.02143
G1 X107.593 Y94.089 E0.03996
G1 X107.131 Y93.810 E0.02020
G1 X106.570 Y93.508 E0.02384
G1 X105.682 Y93.095 E0.03665
G1 X105.171 Y92.894 E0.02051
G1 X104.123 Y92.555 E0.04122
G1 X103.032 Y92.298 E0.04196
G1 X101.929 Y92.132 E0.04174
G1 X100.817 Y92.056 E0.04168
G1 X99.703 Y92.069 E0.04171
G1 X98.594 Y92.170 E0.04167
G1 X97.500 Y92.360 E0.04155
G1 X96.437 Y92.635 E0.04107
G1 X95.922 Y92.802 E0.02024
G1 X94.903 Y93.204 E0.04101
G1 X93.913 Y93.693 E0.04131
G1 X92.990 Y94.254 E0.04039
G1 X92.128 Y94.886 E0.04001
G1 X91.337 Y95.582 E0.03942
G1 X90.613 Y96.346 E0.03939
G1 X89.973 Y97.163 E0.03882
G1 X89.419 Y98.028 E0.03845
G1 X89.176 Y98.477 E0.01911
G1 X88.903 Y99.060 E0.02408
G1 X75.046 Y99.060 E0.51848
G1 X75.213 Y98.469 E0.02300
G1 F3600.000 E-2.40000
G1 X121.141 Y113.744 F15000.000
G1 E2.40000 F3600.000
G1 X120.945 Y113.750 E0.00735 F960.000
G1 X120.730 Y113.730 E0.00806
G1 X120.520 Y113.684 E0.00806
G1 X120.317 Y113.612 E0.00806
G1 X120.124 Y113.516 E0.00806
G1 X119.944 Y113.397 E0.00806
G1 X119.780 Y113.257 E0.00806
G1 X119.635 Y113.098 E0.00806
G1 X119.511 Y112.922 E0.00806
G1 X119.409 Y112.732 E0.00806
G1 X119.331 Y112.531 E0.00806
G1 X119.278 Y112.322 E0.00806
G1 X119.252 Y112.110 E0.00798
G1 X119.252 Y111.890 E0.00824
G1 X119.278 Y111.679 E0.00798
G1 X119.331 Y111.470 E0.00806
G1 X119.409 Y111.269 E0.00806
G1 X119.511 Y111.079 E0.00806
G1 X119.635 Y110.903 E0.00806
G1 X119.795 Y110.731 E0.00877
G1 X119.944 Y110.603 E0.00735
G1 X120.124 Y110.484 E0.00806
G1 X120.317 Y110.388 E0.00806
G1 X120.520 Y110.317 E0.00806
G1 X120.730 Y110.271 E0.00806
G1 X120.945 Y110.251 E0.00806
G1 X121.160 Y110.257 E0.00806
G1 X121.373 Y110.290 E0.00806
G1 X121.581 Y110.349 E0.00806
G1 X121.779 Y110.433 E0.00806
G1 X121.981 Y110.553 E0.00877
G1 X122.138 Y110.671 E0.00735
G1 X122.292 Y110.821 E0.00806
G1 X122.427 Y110.989 E0.00806
G1 X122.541 Y111.172 E0.00806
G1 X122.631 Y111.368 E0.00806
G1 X122.696 Y111.573 E0.00806
G1 X122.736 Y111.785 E0.00806
G1 X122.749 Y112.000 E0.00806
G1 X122.736 Y112.215 E0.00806
G1 X122.696 Y112.427 E0.00806
G1 X122.631 Y112.633 E0.00806
G1 X122.541 Y112.828 E0.00806
G1 X122.427 Y113.012 E0.00806
G1 X122.292 Y113.179 E0.00806
G1 X122.138 Y113.329 E0.00806
G1 X121.966 Y113.459 E0.00806
G1 X121.779 Y113.567 E0.00806
G1 X121.581 Y113.651 E0.00806
G1 X121.186 Y113.739 E0.01513
G1 X121.059 Y113.922 F15000.000
G1 X121.150 Y114.044 F15000.000
G1 X120.936 Y114.050 E0.00804 F960.000
G1 X120.684 Y114.027 E0.00945
G1 X120.438 Y113.973 E0.00945
G1 X120.199 Y113.889 E0.00945
G1 X119.973 Y113.776 E0.00945
G1 X119.763 Y113.637 E0.00945
G1 X119.571 Y113.473 E0.00945
G1 X119.401 Y113.286 E0.00945
G1 X119.255 Y113.080 E0.00945
G1 X119.136 Y112.857 E0.00945
G1 X119.044 Y112.622 E0.00945
G1 X118.983 Y112.377 E0.00945
G1 X118.953 Y112.133 E0.00919
G1 X118.953 Y111.867 E0.00997
G1 X118.983 Y111.623 E0.00919
G1 X119.044 Y111.379 E0.00945
G1 X119.136 Y111.143 E0.00945
G1 X119.255 Y110.921 E0.00945
G1 X119.401 Y110.715 E0.00945
G1 X119.571 Y110.528 E0.00945
G1 X119.763 Y110.364 E0.00945
G1 X120.007 Y110.207 E0.01085
G1 X120.199 Y110.112 E0.00804
G1 X120.438 Y110.028 E0.00945
G1 X120.684 Y109.974 E0.00945
G1 X120.936 Y109.950 E0.00945
G1 X121.225 Y109.964 E0.01084
G1 X121.438 Y109.997 E0.00804
G1 X121.680 Y110.066 E0.00945
G1 X121.946 Y110.183 E0.01085
G1 X122.132 Y110.291 E0.00804
G1 X122.333 Y110.443 E0.00945
G1 X122.538 Y110.648 E0.01085
G1 X122.673 Y110.815 E0.00804
G1 X122.806 Y111.030 E0.00945
G1 X122.911 Y111.259 E0.00945
G1 X122.988 Y111.500 E0.00945
G1 X123.034 Y111.748 E0.00945
G1 X123.050 Y112.000 E0.00945
G1 X123.034 Y112.252 E0.00945
G1 X122.988 Y112.500 E0.00945
G1 X122.911 Y112.741 E0.00945
G1 X122.806 Y112.971 E0.00945
G1 X122.673 Y113.185 E0.00945
G1 X122.514 Y113.382 E0.00945
G1 X122.333 Y113.558 E0.00945
G1 X122.132 Y113.710 E0.00945
G1 X121.913 Y113.836 E0.00945
G1 X121.680 Y113.935 E0.00945
G1 X121.438 Y114.004 E0.00945
G1 X121.195 Y114.041 E0.00917
G1 F3600.000 E-2.40000
G1 X119.951 Y115.681 F15000.000
G1 E2.40000 F3600.000
G1 X117.304 Y113.034 E0.16662 F1200.000
G1 X117.113 Y112.338 E0.03211
G1 X120.583 Y115.809 E0.21844
G1 X121.110 Y115.832 E0.02349
G1 X116.924 Y111.645 E0.26352
G1 X116.735 Y110.951 E0.03200
G1 X121.576 Y115.793 E0.30473
G1 X121.988 Y115.700 E0.01878
G1 X120.489 Y114.201 E0.09433
G1 X121.051 Y114.258 E0.02515
G1 X122.375 Y115.582 E0.08330
G1 X122.722 Y115.424 E0.01696
G1 X121.503 Y114.205 E0.07674
G1 X121.881 Y114.079 E0.01776
G1 X123.042 Y115.240 E0.07306
G1 X123.337 Y115.030 E0.01611
G1 X122.214 Y113.907 E0.07071
G1 X122.501 Y113.690 E0.01603
G1 X123.605 Y114.794 E0.06950
G1 X123.858 Y114.542 E0.01588
G1 X122.747 Y113.431 E0.06992
G1 X122.954 Y113.133 E0.01613
G1 X124.085 Y114.265 E0.07122
G1 X124.293 Y113.968 E0.01613
G1 X123.117 Y112.792 E0.07402
G1 X123.223 Y112.393 E0.01836
G1 X124.465 Y113.635 E0.07814
G1 X124.612 Y113.278 E0.01720
G1 X123.257 Y111.922 E0.08529
G1 X123.150 Y111.310 E0.02766
G1 X124.723 Y112.884 E0.09903
G1 X124.807 Y112.463 E0.01910
G1 X114.277 Y101.933 E0.66275
G1 X114.088 Y101.239 E0.03200
G1 X124.828 Y111.980 E0.67600
G1 X124.788 Y111.435 E0.02430
G1 X113.899 Y100.546 E0.68538
G1 X112.325 Y99.476 F15000.000
G1 X112.418 Y99.569 E0.00587 F1200.000
G1 X112.928 Y99.575 E0.02272
G1 X111.961 Y98.608 E0.06089
G1 X111.292 Y97.435 F15000.000
G1 X124.647 Y110.789 E0.84055 F1200.000
G1 X124.458 Y110.096 E0.03201
G1 X101.441 Y87.079 E1.44869
G1 X100.936 Y87.079 E0.02246
G1 X107.910 Y94.053 E0.43894
G1 X106.684 Y93.331 F15000.000
G1 X100.432 Y87.079 E0.39350 F1200.000
G1 X99.927 Y87.078 E0.02246
G1 X105.738 Y92.890 E0.36575
G1 X104.939 Y92.595 F15000.000
G1 X99.422 Y87.078 E0.34722 F1200.000
G1 X98.917 Y87.078 E0.02246
G1 X104.210 Y92.371 E0.33313
G1 X103.523 Y92.189 E0.03165
G1 X98.413 Y87.078 E0.32164
G1 X97.908 Y87.078 E0.02246
G1 X102.898 Y92.069 E0.31410
G1 X102.296 Y91.971 E0.02715
G1 X97.403 Y87.078 E0.30797
G1 X96.899 Y87.078 E0.02246
G1 X101.730 Y91.909 E0.30407
G1 X101.182 Y91.866 E0.02446
G1 X96.394 Y87.078 E0.30135
G1 X95.889 Y87.078 E0.02246
G1 X100.662 Y91.851 E0.30042
G1 X100.151 Y91.845 E0.02273
G1 X95.384 Y87.078 E0.30004
G1 X94.880 Y87.078 E0.02246
G1 X99.671 Y91.869 E0.30160
G1 X99.192 Y91.894 E0.02139
G1 X94.375 Y87.077 E0.30316
G1 X93.870 Y87.077 E0.02246
G1 X98.734 Y91.942 E0.30615
G1 X98.295 Y92.007 E0.01976
G1 X93.375 Y87.087 E0.30969
G1 X92.886 Y87.102 E0.02178
G1 X97.865 Y92.081 E0.31339
G1 X97.440 Y92.161 E0.01926
G1 X92.397 Y87.118 E0.31740
G1 X91.919 Y87.145 E0.02127
G1 X97.038 Y92.263 E0.32213
G1 X96.636 Y92.366 E0.01846
G1 X91.455 Y87.186 E0.32605
G1 X90.995 Y87.230 E0.02058
G1 X96.243 Y92.478 E0.33034
G1 X95.869 Y92.609 E0.01764
G1 X90.547 Y87.287 E0.33496
G1 X90.112 Y87.357 E0.01960
G1 X95.495 Y92.739 E0.33875
G1 X95.130 Y92.879 E0.01738
G1 X89.684 Y87.433 E0.34277
