; generated by Slic3r 1.0.0RC2 on 2014-02-06 at 14:36:53

; layer_height = 0.2
; perimeters = 2
; top_solid_layers = 3
; bottom_solid_layers = 2
; fill_density = 0.2
; perimeter_speed = 40
; infill_speed = 40
; travel_speed = 250
; nozzle_diameter = 0.3
; filament_diameter = 1.75
; extrusion_multiplier = 1
; perimeters extrusion width = 0.30mm
; infill extrusion width = 0.37mm
; solid infill extrusion width = 0.37mm
; top infill extrusion width = 0.37mm

G21 ; set units to millimeters
M107
M104 S200 ; set temperature

M109 S200 ; wait for temperature to be reached
G90 ; use absolute coordinates
M83 ; use relative distances for extrusion
G1 F3600.000 E-2.40000
G1 Z0.300 F15000.000
G1 X83.153 Y86.990 F15000.000
G1 E2.40000 F3600.000
G1 X84.023 Y86.450 E0.03831 F1200.000
G1 X84.663 Y86.090 E0.02748
G1 X85.553 Y85.640 E0.03732
G1 X86.203 Y85.340 E0.02679
G1 X87.873 Y84.660 E0.06747
G1 X89.213 Y84.220 E0.05277
G1 X90.923 Y83.780 E0.06607
G1 X92.083 Y83.540 E0.04432
G1 X93.223 Y83.360 E0.04318
G1 X94.243 Y83.240 E0.03843
G1 X95.893 Y83.130 E0.06188
G1 X96.633 Y83.110 E0.02770
G1 X106.473 Y83.110 E0.36819
G1 X108.003 Y83.160 E0.05728
G1 X109.413 Y83.280 E0.05295
G1 X111.103 Y83.530 E0.06392
G1 X112.143 Y83.750 E0.03978
G1 X113.113 Y83.990 E0.03739
G1 X113.973 Y84.230 E0.03341
G1 X114.683 Y84.460 E0.02793
G1 X115.643 Y84.810 E0.03823
G1 X117.123 Y85.440 E0.06019
G1 X118.033 Y85.890 E0.03799
G1 X118.723 Y86.260 E0.02930
G1 X119.633 Y86.820 E0.03998
G1 X120.403 Y87.320 E0.03435
G1 X121.153 Y87.850 E0.03436
G1 X121.793 Y88.340 E0.03016
G1 X122.533 Y88.970 E0.03636
G1 X123.223 Y89.600 E0.03496
G1 X124.003 Y90.380 E0.04127
G1 X124.563 Y90.990 E0.03098
G1 X125.273 Y91.840 E0.04144
G1 X125.783 Y92.500 E0.03121
G1 X126.443 Y93.470 E0.04390
G1 X126.893 Y94.190 E0.03177
G1 X127.463 Y95.230 E0.04438
G1 X127.763 Y95.850 E0.02577
G1 X128.133 Y96.710 E0.03503
G1 X128.353 Y97.310 E0.02391
G1 X128.543 Y97.940 E0.02462
G1 X128.733 Y98.880 E0.03588
G1 X128.783 Y99.810 E0.03485
G1 X128.573 Y100.710 E0.03458
G1 X128.113 Y101.510 E0.03453
G1 X127.453 Y102.160 E0.03466
G1 X126.643 Y102.600 E0.03449
G1 X81.413 Y119.410 E1.80551
G1 X81.053 Y119.520 E0.01409
G1 X80.423 Y119.660 E0.02415
G1 X79.853 Y119.740 E0.02154
G1 X79.203 Y119.790 E0.02439
G1 X78.653 Y119.790 E0.02058
G1 X77.993 Y119.730 E0.02480
G1 X77.363 Y119.620 E0.02393
G1 X76.763 Y119.470 E0.02314
G1 X75.833 Y119.120 E0.03718
G1 X75.393 Y118.910 E0.01824
G1 X74.823 Y118.580 E0.02464
G1 X74.433 Y118.320 E0.01754
G1 X73.923 Y117.920 E0.02425
G1 X73.633 Y117.650 E0.01483
G1 X73.073 Y117.070 E0.03017
G1 X72.783 Y116.710 E0.01730
G1 X72.263 Y115.930 E0.03508
G1 X72.093 Y115.630 E0.01290
G1 X71.903 Y115.230 E0.01657
G1 X71.663 Y114.630 E0.02418
G1 X71.523 Y114.210 E0.01657
G1 X71.363 Y113.580 E0.02432
G1 X71.283 Y113.170 E0.01563
G1 X71.223 Y112.540 E0.02368
G1 X71.203 Y111.880 E0.02471
G1 X71.213 Y111.470 E0.01535
G1 X71.283 Y110.860 E0.02297
G1 X71.403 Y110.210 E0.02473
G1 X75.013 Y96.940 E0.51458
G1 X75.233 Y96.190 E0.02925
G1 X75.373 Y95.810 E0.01515
G1 X75.733 Y95.000 E0.03317
G1 X76.193 Y94.140 E0.03649
G1 X76.843 Y93.100 E0.04589
G1 X77.393 Y92.320 E0.03571
G1 X78.123 Y91.390 E0.04424
G1 X78.753 Y90.670 E0.03580
G1 X79.693 Y89.710 E0.05027
G1 X80.483 Y88.990 E0.03999
G1 X81.063 Y88.500 E0.02841
G1 X82.103 Y87.710 E0.04887
G1 X83.116 Y87.015 E0.04595
G1 F3600.000 E-2.40000
G1 X84.938 Y89.952 F15000.000
G1 E2.40000 F3600.000
G1 X86.043 Y89.285 E0.04830 F1200.000
G1 X87.001 Y88.783 E0.04050
G1 X87.977 Y88.338 E0.04010
G1 X89.293 Y87.830 E0.05282
G1 X90.290 Y87.509 E0.03918
G1 X91.627 Y87.158 E0.05170
G1 X92.968 Y86.893 E0.05116
G1 X94.312 Y86.708 E0.05075
G1 X95.657 Y86.601 E0.05049
G1 X96.727 Y86.567 E0.04008
G1 X106.811 Y86.571 E0.37732
G1 X108.230 Y86.639 E0.05313
G1 X109.316 Y86.750 E0.04085
G1 X110.399 Y86.916 E0.04101
G1 X111.479 Y87.137 E0.04125
G1 X112.823 Y87.493 E0.05201
G1 X113.977 Y87.874 E0.04548
G1 X115.031 Y88.290 E0.04240
G1 X116.153 Y88.809 E0.04626
G1 X116.754 Y89.121 E0.02534
G1 X117.409 Y89.493 E0.02819
G1 X118.415 Y90.136 E0.04467
G1 X119.376 Y90.833 E0.04441
G1 X120.302 Y91.595 E0.04487
G1 X121.186 Y92.426 E0.04539
G1 X122.023 Y93.320 E0.04586
G1 X122.806 Y94.280 E0.04636
G1 X123.526 Y95.304 E0.04682
G1 X123.790 Y95.720 E0.01843
G1 X124.176 Y96.387 E0.02882
G1 X124.375 Y96.759 E0.01578
G1 X124.739 Y97.524 E0.03172
G1 X124.951 Y98.039 E0.02084
G1 X125.115 Y98.505 E0.01847
G1 X125.213 Y98.857 E0.01367
G1 X125.318 Y99.360 E0.01925
G1 X110.899 Y99.360 E0.53955
G1 X110.556 Y98.611 E0.03083
G1 X110.319 Y98.175 E0.01856
G1 X109.780 Y97.334 E0.03737
G1 X109.157 Y96.540 E0.03776
G1 X108.455 Y95.798 E0.03823
G1 X107.673 Y95.111 E0.03896
G1 X107.260 Y94.795 E0.01945
G1 X106.523 Y94.299 E0.03323
G1 X105.940 Y93.955 E0.02534
G1 X105.470 Y93.709 E0.01985
G1 X104.486 Y93.273 E0.04028
G1 X103.476 Y92.922 E0.03998
G1 X102.434 Y92.653 E0.04026
G1 X101.902 Y92.550 E0.02031
G1 X100.823 Y92.407 E0.04072
G1 X99.734 Y92.351 E0.04079
G1 X98.644 Y92.383 E0.04081
G1 X98.101 Y92.431 E0.02039
G1 X97.291 Y92.547 E0.03062
G1 X96.496 Y92.706 E0.03035
G1 X95.971 Y92.840 E0.02026
G1 X94.946 Y93.171 E0.04032
G1 X93.949 Y93.587 E0.04040
G1 X93.079 Y94.037 E0.03668
G1 X92.565 Y94.344 E0.02238
G1 X91.702 Y94.946 E0.03937
G1 X90.917 Y95.603 E0.03830
G1 X90.547 Y95.958 E0.01920
G1 X90.195 Y96.327 E0.01909
G1 X89.784 Y96.809 E0.02369
G1 X89.258 Y97.516 E0.03297
G1 X88.987 Y97.935 E0.01870
G1 X88.510 Y98.808 E0.03720
G1 X88.306 Y99.256 E0.01844
G1 X88.003 Y100.076 E0.03272
G1 X86.756 Y100.091 E0.04666
G1 X83.199 Y113.141 E0.50615
G1 X82.987 Y113.743 E0.02386
G1 X82.691 Y114.305 E0.02376
G1 X82.512 Y114.568 E0.01189
G1 X82.101 Y115.052 E0.02376
G1 X81.624 Y115.471 E0.02376
G1 X81.091 Y115.815 E0.02376
G1 X80.513 Y116.079 E0.02376
G1 X79.903 Y116.256 E0.02376
G1 X79.274 Y116.342 E0.02376
G1 X78.639 Y116.335 E0.02376
G1 X78.011 Y116.236 E0.02376
G1 X77.705 Y116.152 E0.01189
G1 X77.114 Y115.919 E0.02376
G1 X76.564 Y115.603 E0.02376
G1 X76.065 Y115.210 E0.02376
G1 X75.839 Y114.987 E0.01189
G1 X75.629 Y114.748 E0.01189
G1 X75.265 Y114.228 E0.02376
G1 X75.108 Y113.939 E0.01230
G1 X74.870 Y113.362 E0.02335
G1 X74.716 Y112.746 E0.02376
G1 X74.673 Y112.431 E0.01189
G1 X74.656 Y111.796 E0.02376
G1 X74.683 Y111.480 E0.01189
G1 X74.805 Y110.854 E0.02386
G1 X78.332 Y97.913 E0.50188
G1 X78.552 Y97.177 E0.02873
G1 X78.793 Y96.613 E0.02295
G1 X79.250 Y95.760 E0.03622
G1 X79.888 Y94.769 E0.04409
G1 X80.589 Y93.835 E0.04373
G1 X81.349 Y92.958 E0.04340
G1 X82.155 Y92.139 E0.04299
G1 X83.002 Y91.382 E0.04250
G1 X83.881 Y90.683 E0.04202
G1 X84.900 Y89.977 E0.04640
G1 X85.203 Y90.092 F15000.000
G1 X85.101 Y90.204 F15000.000
G1 X86.190 Y89.547 E0.04760 F1200.000
G1 X87.133 Y89.052 E0.03984
G1 X88.094 Y88.614 E0.03952
G1 X89.392 Y88.113 E0.05208
G1 X90.375 Y87.796 E0.03864
G1 X91.694 Y87.451 E0.05101
G1 X93.018 Y87.189 E0.05049
G1 X94.343 Y87.006 E0.05008
G1 X95.672 Y86.901 E0.04988
G1 X96.728 Y86.867 E0.03953
G1 X106.776 Y86.870 E0.37594
G1 X108.206 Y86.938 E0.05359
G1 X109.278 Y87.048 E0.04032
G1 X110.346 Y87.211 E0.04043
G1 X111.371 Y87.420 E0.03913
G1 X112.472 Y87.702 E0.04253
G1 X113.746 Y88.111 E0.05005
G1 X114.913 Y88.566 E0.04688
G1 X115.938 Y89.037 E0.04219
G1 X116.945 Y89.570 E0.04263
G1 X117.925 Y90.169 E0.04298
G1 X118.881 Y90.834 E0.04357
G1 X119.883 Y91.630 E0.04789
G1 X120.688 Y92.358 E0.04062
G1 X121.528 Y93.216 E0.04493
G1 X122.318 Y94.141 E0.04552
G1 X123.048 Y95.127 E0.04590
G1 X123.708 Y96.169 E0.04617
G1 X124.084 Y96.850 E0.02911
G1 X124.292 Y97.269 E0.01749
G1 X124.696 Y98.213 E0.03842
G1 X124.867 Y98.721 E0.02004
G1 X124.954 Y99.060 E0.01312
G1 X111.097 Y99.060 E0.51849
G1 X110.824 Y98.477 E0.02408
G1 X110.581 Y98.028 E0.01911
G1 X110.027 Y97.163 E0.03846
G1 X109.387 Y96.346 E0.03882
G1 X108.663 Y95.582 E0.03939
G1 X107.858 Y94.875 E0.04010
G1 X107.434 Y94.551 E0.01995
G1 X106.681 Y94.044 E0.03396
G1 X106.087 Y93.693 E0.02583
G1 X105.605 Y93.442 E0.02033
G1 X104.593 Y92.993 E0.04146
G1 X103.563 Y92.635 E0.04078
G1 X102.500 Y92.360 E0.04107
G1 X101.956 Y92.254 E0.02076
G1 X100.853 Y92.108 E0.04162
G1 X99.740 Y92.051 E0.04169
G1 X98.626 Y92.083 E0.04171
G1 X98.071 Y92.132 E0.02084
G1 X97.243 Y92.251 E0.03130
G1 X96.430 Y92.413 E0.03104
G1 X95.894 Y92.550 E0.02071
G1 X94.844 Y92.888 E0.04125
G1 X93.819 Y93.316 E0.04157
G1 X92.932 Y93.776 E0.03739
G1 X92.407 Y94.089 E0.02286
G1 X91.517 Y94.710 E0.04060
G1 X90.716 Y95.379 E0.03906
G1 X90.336 Y95.744 E0.01971
G1 X89.903 Y96.206 E0.02372
G1 X89.311 Y96.924 E0.03480
G1 X88.732 Y97.776 E0.03854
G1 X88.476 Y98.219 E0.01916
G1 X88.240 Y98.677 E0.01927
G1 X88.030 Y99.139 E0.01899
G1 X87.787 Y99.779 E0.02561
G1 X86.526 Y99.793 E0.04718
G1 X82.911 Y113.057 E0.51442
G1 X82.712 Y113.623 E0.02243
G1 X82.436 Y114.146 E0.02212
G1 X82.270 Y114.391 E0.01107
G1 X81.887 Y114.841 E0.02212
G1 X81.443 Y115.231 E0.02212
G1 X80.946 Y115.552 E0.02212
G1 X80.682 Y115.685 E0.01107
G1 X80.128 Y115.890 E0.02212
G1 X79.549 Y116.013 E0.02212
G1 X78.959 Y116.050 E0.02212
G1 X78.370 Y116.000 E0.02212
G1 X77.794 Y115.866 E0.02212
G1 X77.244 Y115.649 E0.02212
G1 X76.732 Y115.354 E0.02212
G1 X76.268 Y114.988 E0.02212
G1 X75.862 Y114.558 E0.02212
G1 X75.683 Y114.322 E0.01107
G1 X75.381 Y113.814 E0.02212
G1 X75.155 Y113.268 E0.02212
G1 X75.011 Y112.694 E0.02212
G1 X74.971 Y112.401 E0.01107
G1 X74.956 Y111.810 E0.02212
G1 X75.027 Y111.223 E0.02212
G1 X75.096 Y110.927 E0.01138
G1 X78.707 Y97.688 E0.51348
G1 X78.835 Y97.276 E0.01613
G1 X78.976 Y96.930 E0.01402
G1 X79.198 Y96.473 E0.01901
G1 X79.508 Y95.913 E0.02395
G1 X79.916 Y95.260 E0.02880
G1 X80.334 Y94.659 E0.02739
G1 X81.066 Y93.730 E0.04427
G1 X81.829 Y92.887 E0.04252
G1 X82.363 Y92.356 E0.02817
G1 X82.913 Y91.854 E0.02787
G1 X83.481 Y91.376 E0.02778
G1 X84.034 Y90.944 E0.02626
G1 X85.063 Y90.228 E0.04688
G1 F3600.000 E-2.40000
G1 X77.413 Y111.247 F15000.000
G1 E2.40000 F3600.000
G1 X77.573 Y110.989 E0.01135 F960.000
G1 X77.708 Y110.821 E0.00806
G1 X77.862 Y110.671 E0.00806
G1 X78.034 Y110.541 E0.00806
G1 X78.204 Y110.443 E0.00735
G1 X78.419 Y110.349 E0.00877
G1 X78.627 Y110.290 E0.00806
G1 X78.821 Y110.260 E0.00735
G1 X79.055 Y110.251 E0.00877
G1 X79.270 Y110.271 E0.00806
G1 X79.480 Y110.317 E0.00806
G1 X79.683 Y110.388 E0.00806
G1 X79.876 Y110.484 E0.00806
G1 X80.056 Y110.603 E0.00806
G1 X80.220 Y110.744 E0.00806
G1 X80.365 Y110.903 E0.00806
G1 X80.489 Y111.079 E0.00806
G1 X80.591 Y111.269 E0.00806
G1 X80.669 Y111.470 E0.00806
G1 X80.722 Y111.679 E0.00806
G1 X80.748 Y111.890 E0.00798
G1 X80.748 Y112.110 E0.00823
G1 X80.722 Y112.322 E0.00798
G1 X80.669 Y112.531 E0.00806
G1 X80.591 Y112.732 E0.00806
G1 X80.489 Y112.922 E0.00806
G1 X80.365 Y113.098 E0.00806
G1 X80.220 Y113.257 E0.00806
G1 X80.056 Y113.397 E0.00806
G1 X79.876 Y113.516 E0.00806
G1 X79.683 Y113.612 E0.00806
G1 X79.480 Y113.684 E0.00806
G1 X79.270 Y113.730 E0.00806
G1 X79.055 Y113.750 E0.00806
G1 X78.840 Y113.743 E0.00806
G1 X78.627 Y113.710 E0.00806
G1 X78.419 Y113.651 E0.00806
G1 X78.221 Y113.567 E0.00806
G1 X78.034 Y113.459 E0.00806
G1 X77.862 Y113.329 E0.00806
G1 X77.708 Y113.179 E0.00806
G1 X77.573 Y113.012 E0.00806
G1 X77.459 Y112.828 E0.00806
G1 X77.369 Y112.633 E0.00806
G1 X77.304 Y112.427 E0.00806
G1 X77.268 Y112.234 E0.00735
G1 X77.251 Y112.000 E0.00877
G1 X77.264 Y111.785 E0.00806
G1 X77.304 Y111.573 E0.00806
G1 X77.396 Y111.285 E0.01133
G1 X77.251 Y110.994 F15000.000
G1 X77.246 Y110.947 F15000.000
G1 X77.486 Y110.619 E0.01521 F960.000
G1 X77.667 Y110.443 E0.00945
G1 X77.868 Y110.291 E0.00945
G1 X78.087 Y110.164 E0.00945
G1 X78.285 Y110.081 E0.00804
G1 X78.562 Y109.997 E0.01085
G1 X78.812 Y109.958 E0.00945
G1 X79.027 Y109.952 E0.00804
G1 X79.316 Y109.974 E0.01084
G1 X79.562 Y110.028 E0.00945
G1 X79.801 Y110.112 E0.00945
G1 X80.027 Y110.224 E0.00945
G1 X80.237 Y110.364 E0.00945
G1 X80.429 Y110.528 E0.00945
G1 X80.599 Y110.715 E0.00945
G1 X80.723 Y110.890 E0.00804
G1 X80.864 Y111.143 E0.01085
G1 X80.956 Y111.379 E0.00945
G1 X81.017 Y111.623 E0.00945
G1 X81.051 Y112.000 E0.01416
G1 X81.017 Y112.377 E0.01416
G1 X80.956 Y112.622 E0.00945
G1 X80.864 Y112.857 E0.00945
G1 X80.745 Y113.080 E0.00945
G1 X80.599 Y113.286 E0.00945
G1 X80.429 Y113.473 E0.00945
G1 X80.237 Y113.637 E0.00945
G1 X80.027 Y113.776 E0.00945
G1 X79.801 Y113.889 E0.00945
G1 X79.562 Y113.973 E0.00945
G1 X79.316 Y114.027 E0.00945
G1 X79.064 Y114.050 E0.00945
G1 X78.812 Y114.042 E0.00945
G1 X78.562 Y114.004 E0.00945
G1 X78.320 Y113.935 E0.00945
G1 X78.087 Y113.836 E0.00945
G1 X77.868 Y113.710 E0.00945
G1 X77.667 Y113.558 E0.00945
G1 X77.486 Y113.382 E0.00945
G1 X77.327 Y113.185 E0.00945
G1 X77.194 Y112.971 E0.00945
G1 X77.089 Y112.741 E0.00945
G1 X77.012 Y112.500 E0.00945
G1 X76.966 Y112.252 E0.00945
G1 X76.953 Y112.038 E0.00804
G1 X76.966 Y111.748 E0.01084
G1 X77.012 Y111.500 E0.00945
G1 X77.201 Y110.947 E0.02187
G1 F3600.000 E-2.40000
G1 X75.393 Y113.289 F15000.000
G1 E2.40000 F3600.000
G1 X77.719 Y115.615 E0.14596 F1200.000
G1 X78.396 Y115.789 E0.03104
G1 X75.213 Y112.606 E0.19974
G1 X75.174 Y112.064 E0.02410
G1 X78.946 Y115.836 E0.23669
G1 X79.419 Y115.806 E0.02102
G1 X75.188 Y111.575 E0.26550
G1 X75.268 Y111.151 E0.01912
G1 X76.871 Y112.755 E0.10060
G1 X76.746 Y112.127 E0.02841
G1 X75.365 Y110.745 E0.08666
G1 X75.473 Y110.350 E0.01818
G1 X76.769 Y111.647 E0.08137
G1 X76.871 Y111.245 E0.01838
G1 X75.581 Y109.955 E0.08098
G1 X75.688 Y109.560 E0.01818
G1 X76.992 Y110.864 E0.08184
G1 X77.235 Y110.603 E0.01580
G1 X75.796 Y109.164 E0.09028
G1 X75.904 Y108.769 E0.01818
G1 X77.472 Y110.337 E0.09839
G1 X77.752 Y110.114 E0.01588
G1 X76.012 Y108.374 E0.10918
G1 X76.120 Y107.978 E0.01818
G1 X78.081 Y109.940 E0.12308
G1 X78.452 Y109.808 E0.01748
G1 X76.227 Y107.583 E0.13962
G1 X76.335 Y107.188 E0.01818
G1 X78.894 Y109.746 E0.16055
G1 X79.437 Y109.786 E0.02416
G1 X76.443 Y106.793 E0.18786
G1 X76.551 Y106.397 E0.01818
G1 X80.315 Y110.161 E0.23619
G1 X80.835 Y110.681 F15000.000
G1 X82.803 Y112.649 E0.12350 F1200.000
G1 X82.693 Y113.043 E0.01814
G1 X81.222 Y111.572 E0.09231
G1 X81.259 Y112.112 E0.02400
G1 X82.560 Y113.413 E0.08167
G1 X82.407 Y113.763 E0.01695
G1 X81.192 Y112.548 E0.07624
G1 X81.065 Y112.924 E0.01762
G1 X82.217 Y114.076 E0.07227
G1 X82.013 Y114.375 E0.01606
G1 X80.886 Y113.247 E0.07074
G1 X80.664 Y113.529 E0.01590
G1 X81.780 Y114.645 E0.07002
G1 X81.517 Y114.885 E0.01580
G1 X80.404 Y113.772 E0.06980
G1 X80.103 Y113.975 E0.01609
G1 X81.239 Y115.111 E0.07128
G1 X80.934 Y115.308 E0.01614
G1 X79.755 Y114.129 E0.07397
G1 X79.357 Y114.235 E0.01827
G1 X80.608 Y115.485 E0.07848
G1 X80.242 Y115.622 E0.01734
G1 X78.876 Y114.256 E0.08572
G1 X78.252 Y114.135 E0.02820
G1 X79.856 Y115.740 E0.10069
G1 F3600.000 E-2.40000
G1 X76.512 Y114.912 F15000.000
G1 E2.40000 F3600.000
G1 X76.031 Y114.430 E0.03023 F1200.000
G1 F3600.000 E-2.40000
G1 X82.910 Y112.254 F15000.000
G1 E2.40000 F3600.000
G1 X76.659 Y106.002 E0.39230 F1200.000
G1 X76.767 Y105.607 E0.01818
G1 X83.018 Y111.858 E0.39229
G1 X83.126 Y111.463 E0.01818
G1 X76.874 Y105.211 E0.39229
G1 X76.982 Y104.816 E0.01818
G1 X83.234 Y111.068 E0.39229
G1 X83.341 Y110.672 E0.01818
G1 X77.090 Y104.421 E0.39228
G1 X77.198 Y104.025 E0.01818
G1 X83.449 Y110.277 E0.39228
G1 X83.557 Y109.881 E0.01818
G1 X77.306 Y103.630 E0.39227
G1 X77.413 Y103.235 E0.01818
G1 X83.665 Y109.486 E0.39227
G1 X83.772 Y109.091 E0.01818
G1 X77.521 Y102.840 E0.39227
G1 X77.629 Y102.444 E0.01818
G1 X83.880 Y108.695 E0.39226
G1 X83.988 Y108.300 E0.01818
G1 X77.737 Y102.049 E0.39226
G1 X77.845 Y101.654 E0.01818
G1 X84.096 Y107.905 E0.39225
G1 X84.203 Y107.509 E0.01818
G1 X77.952 Y101.258 E0.39225
G1 X78.060 Y100.863 E0.01818
G1 X84.311 Y107.114 E0.39225
G1 X84.419 Y106.719 E0.01818
G1 X78.168 Y100.468 E0.39224
G1 X78.276 Y100.073 E0.01818
G1 X84.527 Y106.323 E0.39224
G1 X84.634 Y105.928 E0.01818
G1 X78.384 Y99.677 E0.39223
G1 X78.492 Y99.282 E0.01818
G1 X84.742 Y105.533 E0.39223
G1 X84.850 Y105.137 E0.01818
G1 X78.599 Y98.887 E0.39222
G1 X78.707 Y98.491 E0.01818
G1 X84.958 Y104.742 E0.39222
G1 X85.065 Y104.346 E0.01818
G1 X78.815 Y98.096 E0.39222
G1 X78.925 Y97.703 E0.01813
