; generated by Slic3r 0.9.9-dev on 2014-02-05 at 09:04:13

; M-PLA-05-03-1

; layer_height = 0.3
; perimeters = 2
; top_solid_layers = 3
; bottom_solid_layers = 2
; fill_density = 0.2
; perimeter_speed = 40
; infill_speed = 40
; travel_speed = 250
; scale = 1
; nozzle_diameter = 0.5
; filament_diameter = 1.75
; extrusion_multiplier = 1.0
; perimeters extrusion width = 0.50mm
; infill extrusion width = 0.50mm
; first layer extrusion width = 0.50mm

M190 S57 ; wait for bed temperature to be reached
M104 S200 ; set temperature
G28 X0 Y0
G1 X75 Y75 F12000
G28 Z0
G1 Z0.3 F200
G1 X15 Y20 F12000
M109 S200 ; wait for temperature to be reached
G90 ; use absolute coordinates
G21 ; set units to millimeters
G92 E0
M82 ; use absolute distances for extrusion
M106 S76
G1 F3600.000 E-2.40000
G92 E0
G1 Z0.300 F15000.000
G1 X35.720 Y57.122
G1 X35.894 Y57.024 F3600.000 E2.40000
G1 X37.090 Y56.352 F1200.000 E2.48553
G1 X38.050 Y55.902 E2.55165
G1 X39.180 Y55.452 E2.62751
G1 X40.150 Y55.132 E2.69120
G1 X41.180 Y54.862 E2.75761
G1 X42.730 Y54.582 E2.85583
G1 X44.050 Y54.442 E2.93862
G1 X45.110 Y54.402 E3.00477
G1 X105.910 Y55.902 E6.79758
G1 X106.200 Y55.922 E6.81570
G1 X107.260 Y56.042 E6.88223
G1 X108.270 Y56.212 E6.94610
G1 X109.460 Y56.492 E7.02234
G1 X110.480 Y56.802 E7.08882
G1 X111.950 Y57.362 E7.18692
G1 X112.910 Y57.812 E7.25304
G1 X113.720 Y58.252 E7.31053
G1 X114.830 Y58.942 E7.39204
G1 X115.700 Y59.562 E7.45866
G1 X116.630 Y60.322 E7.53356
G1 X117.220 Y60.852 E7.58302
G1 X117.400 Y61.022 E7.59846
G1 X118.300 Y61.972 E7.68007
G1 X118.820 Y62.592 E7.73053
G1 X119.540 Y63.542 E7.80487
G1 X120.130 Y64.432 E7.87146
G1 X120.500 Y65.052 E7.91649
G1 X121.140 Y66.312 E8.00462
G1 X121.360 Y66.792 E8.03755
G1 X121.900 Y68.212 E8.13229
G1 X122.190 Y69.142 E8.19304
G1 X122.390 Y69.912 E8.24266
G1 X122.540 Y70.652 E8.28974
G1 X122.720 Y71.852 E8.36541
G1 X122.830 Y73.172 E8.44802
G1 X122.840 Y84.062 E9.12715
G1 X122.670 Y85.142 E9.19533
G1 X122.170 Y86.122 E9.26394
G1 X121.390 Y86.892 E9.33229
G1 X120.420 Y87.392 E9.40035
G1 X97.980 Y94.652 E10.87119
G1 X96.730 Y95.022 E10.95248
G1 X96.070 Y95.172 E10.99469
G1 X95.020 Y95.372 E11.06135
G1 X94.730 Y95.412 E11.07961
G1 X93.670 Y95.522 E11.14607
G1 X92.840 Y95.572 E11.19792
G1 X92.300 Y95.582 E11.23160
G1 X56.950 Y95.582 E13.43613
G1 X55.890 Y95.542 E13.50228
G1 X54.350 Y95.382 E13.59883
G1 X53.560 Y95.242 E13.64887
G1 X52.600 Y95.022 E13.71029
G1 X51.350 Y94.652 E13.79158
G1 X50.570 Y94.372 E13.84327
G1 X29.350 Y85.852 E15.26929
G1 X28.450 Y85.322 E15.33442
G1 X27.750 Y84.562 E15.39886
G1 X27.300 Y83.632 E15.46329
G1 X27.150 Y82.602 E15.52820
G1 X27.160 Y71.902 E16.19548
G1 X27.250 Y70.652 E16.27364
G1 X27.440 Y69.332 E16.35680
G1 X27.480 Y69.092 E16.37198
G1 X27.710 Y68.052 E16.43840
G1 X27.890 Y67.372 E16.48227
G1 X28.120 Y66.682 E16.52763
G1 X28.550 Y65.552 E16.60303
G1 X28.920 Y64.732 E16.65913
G1 X29.540 Y63.532 E16.74336
G1 X30.210 Y62.452 E16.82262
G1 X30.780 Y61.642 E16.88439
G1 X31.430 Y60.822 E16.94964
G1 X32.310 Y59.852 E17.03132
G1 X32.890 Y59.292 E17.08160
G1 X33.780 Y58.512 E17.15540
G1 X34.620 Y57.862 E17.22164
G1 X35.657 Y57.163 E17.29964
G1 X35.720 Y57.122 E17.30431
G1 F3600.000 E14.90431
G92 E0
G1 X77.725 Y67.391 F15000.000
G1 X77.925 Y67.391 F3600.000 E2.40000
G1 X82.850 Y67.391 F1200.000 E2.70714
G1 X82.850 Y71.778 E2.98073
G1 X82.576 Y72.255 E3.01509
G1 X82.359 Y72.677 E3.04462
G1 X82.161 Y73.107 E3.07416
G1 X81.982 Y73.545 E3.10369
G1 X81.821 Y73.991 E3.13323
G1 X81.681 Y74.443 E3.16276
G1 X81.559 Y74.901 E3.19230
G1 X81.458 Y75.363 E3.22183
G1 X81.352 Y76.012 E3.26280
G1 X81.273 Y76.771 E3.31042
G1 X81.253 Y77.245 E3.33996
G1 X81.252 Y77.718 E3.36949
G1 X81.272 Y78.191 E3.39903
G1 X81.313 Y78.663 E3.42857
G1 X81.450 Y79.574 E3.48602
G1 X81.555 Y80.062 E3.51716
G1 X81.675 Y80.520 E3.54669
G1 X81.816 Y80.973 E3.57623
G1 X81.975 Y81.419 E3.60576
G1 X82.154 Y81.857 E3.63530
G1 X82.351 Y82.288 E3.66484
G1 X82.567 Y82.710 E3.69437
G1 X82.935 Y83.337 E3.73973
G1 X83.320 Y83.913 E3.78296
G1 X83.605 Y84.292 E3.81250
G1 X83.905 Y84.658 E3.84203
G1 X84.222 Y85.010 E3.87157
G1 X84.553 Y85.349 E3.90110
G1 X84.898 Y85.673 E3.93064
G1 X85.257 Y85.982 E3.96017
G1 X85.629 Y86.275 E3.98971
G1 X86.013 Y86.552 E4.01925
G1 X86.409 Y86.812 E4.04878
G1 X86.816 Y87.055 E4.07832
G1 X87.233 Y87.280 E4.10785
G1 X87.659 Y87.487 E4.13739
G1 X88.093 Y87.675 E4.16692
G1 X88.535 Y87.845 E4.19646
G1 X88.984 Y87.995 E4.22599
G1 X89.440 Y88.126 E4.25553
G1 X89.900 Y88.237 E4.28507
G1 X90.365 Y88.328 E4.31460
G1 X90.941 Y88.411 E4.35092
G1 X91.777 Y88.481 E4.40319
G1 X92.250 Y88.491 E4.43273
G1 X92.723 Y88.481 E4.46226
G1 X93.559 Y88.411 E4.51454
G1 X94.135 Y88.328 E4.55085
G1 X94.600 Y88.237 E4.58039
G1 X95.060 Y88.126 E4.60992
G1 X95.516 Y87.995 E4.63946
G1 X95.965 Y87.845 E4.66899
G1 X96.407 Y87.675 E4.69853
G1 X96.841 Y87.487 E4.72806
G1 X97.267 Y87.280 E4.75760
G1 X97.684 Y87.055 E4.78714
G1 X98.091 Y86.812 E4.81667
G1 X98.487 Y86.552 E4.84621
G1 X98.871 Y86.275 E4.87574
G1 X99.243 Y85.982 E4.90528
G1 X99.602 Y85.673 E4.93481
G1 X99.947 Y85.349 E4.96435
G1 X100.278 Y85.010 E4.99389
G1 X100.595 Y84.658 E5.02342
G1 X100.895 Y84.292 E5.05296
G1 X101.180 Y83.913 E5.08249
G1 X101.565 Y83.337 E5.12572
G1 X101.933 Y82.710 E5.17108
G1 X102.149 Y82.288 E5.20062
G1 X102.346 Y81.857 E5.23015
G1 X102.525 Y81.419 E5.25969
G1 X102.684 Y80.973 E5.28922
G1 X102.825 Y80.520 E5.31876
G1 X102.945 Y80.062 E5.34829
G1 X103.046 Y79.600 E5.37783
G1 X103.127 Y79.133 E5.40737
G1 X103.187 Y78.663 E5.43690
G1 X103.228 Y78.191 E5.46644
G1 X103.248 Y77.718 E5.49597
G1 X103.247 Y77.245 E5.52551
G1 X103.227 Y76.771 E5.55504
G1 X103.185 Y76.300 E5.58458
G1 X103.124 Y75.830 E5.61411
G1 X103.042 Y75.363 E5.64365
G1 X102.941 Y74.901 E5.67318
G1 X102.819 Y74.443 E5.70272
G1 X102.678 Y73.991 E5.73226
G1 X102.518 Y73.545 E5.76179
G1 X102.339 Y73.107 E5.79133
G1 X102.141 Y72.677 E5.82086
G1 X101.924 Y72.255 E5.85040
G1 X101.650 Y71.778 E5.88473
G1 X101.650 Y67.391 E6.15835
G1 X106.850 Y67.391 E6.48264
G1 X106.850 Y77.488 E7.11236
G1 X106.811 Y78.556 E7.17901
G1 X106.694 Y79.616 E7.24552
G1 X106.607 Y80.143 E7.27877
G1 X106.375 Y81.183 E7.34528
G1 X106.068 Y82.205 E7.41179
G1 X105.887 Y82.706 E7.44505
G1 X105.470 Y83.688 E7.51155
G1 X105.234 Y84.166 E7.54481
G1 X104.846 Y84.869 E7.59486
G1 X104.426 Y85.546 E7.64457
G1 X103.963 Y86.202 E7.69462
G1 X103.472 Y86.830 E7.74433
G1 X103.124 Y87.233 E7.77759
G1 X102.383 Y88.001 E7.84410
G1 X101.589 Y88.713 E7.91060
G1 X100.957 Y89.207 E7.96065
G1 X100.306 Y89.667 E8.01036
G1 X99.623 Y90.089 E8.06042
G1 X98.926 Y90.475 E8.11013
G1 X97.960 Y90.928 E8.17663
G1 X97.212 Y91.219 E8.22668
G1 X96.456 Y91.472 E8.27639
G1 X95.681 Y91.679 E8.32644
G1 X94.902 Y91.848 E8.37615
G1 X94.376 Y91.935 E8.40941
G1 X93.316 Y92.052 E8.47592
G1 X92.250 Y92.091 E8.54242
G1 X91.184 Y92.052 E8.60893
G1 X90.653 Y92.003 E8.64219
G1 X90.124 Y91.935 E8.67545
G1 X89.334 Y91.794 E8.72550
G1 X88.557 Y91.616 E8.77521
G1 X88.044 Y91.472 E8.80847
G1 X87.536 Y91.309 E8.84173
G1 X86.540 Y90.928 E8.90823
G1 X86.053 Y90.710 E8.94149
G1 X85.337 Y90.347 E8.99154
G1 X84.644 Y89.953 E9.04125
G1 X84.194 Y89.667 E9.07451
G1 X83.327 Y89.046 E9.14102
G1 X82.507 Y88.364 E9.20752
G1 X81.739 Y87.624 E9.27403
G1 X81.028 Y86.830 E9.34054
G1 X80.694 Y86.414 E9.37379
G1 X80.376 Y85.986 E9.40705
G1 X79.929 Y85.319 E9.45710
G1 X79.518 Y84.636 E9.50681
G1 X79.266 Y84.166 E9.54007
G1 X78.813 Y83.201 E9.60658
G1 X78.432 Y82.205 E9.67308
G1 X78.269 Y81.697 E9.70634
G1 X78.061 Y80.922 E9.75639
G1 X77.893 Y80.143 E9.80610
G1 X77.738 Y79.087 E9.87261
G1 X77.660 Y78.024 E9.93912
G1 X77.650 Y67.716 E10.58197
G1 X77.725 Y67.391
G1 X78.225 Y67.891 F15000.000
G1 X82.350 Y67.891 F1200.000 E10.83921
G1 X82.350 Y71.641 E11.07310
G1 X81.910 Y72.458 E11.13097
G1 X81.702 Y72.908 E11.16185
G1 X81.515 Y73.366 E11.19273
G1 X81.347 Y73.832 E11.22361
G1 X81.200 Y74.305 E11.25449
G1 X81.073 Y74.783 E11.28537
G1 X80.967 Y75.267 E11.31624
G1 X80.882 Y75.755 E11.34712
G1 X80.817 Y76.245 E11.37800
G1 X80.766 Y76.941 E11.42151
G1 X80.752 Y77.729 E11.47062
G1 X80.773 Y78.223 E11.50150
G1 X80.815 Y78.717 E11.53237
G1 X80.879 Y79.208 E11.56325
G1 X80.963 Y79.696 E11.59413
G1 X81.062 Y80.148 E11.62300
G1 X81.195 Y80.658 E11.65589
G1 X81.341 Y81.131 E11.68677
G1 X81.508 Y81.597 E11.71764
G1 X81.695 Y82.056 E11.74852
G1 X81.901 Y82.506 E11.77940
G1 X82.127 Y82.947 E11.81028
G1 X82.371 Y83.378 E11.84116
G1 X82.633 Y83.797 E11.87203
G1 X82.914 Y84.205 E11.90291
G1 X83.211 Y84.601 E11.93379
G1 X83.526 Y84.984 E11.96467
G1 X83.857 Y85.352 E11.99555
G1 X84.203 Y85.706 E12.02643
G1 X84.564 Y86.045 E12.05731
G1 X84.939 Y86.368 E12.08818
G1 X85.328 Y86.674 E12.11906
G1 X85.730 Y86.964 E12.14994
G1 X86.144 Y87.236 E12.18082
G1 X86.569 Y87.489 E12.21170
G1 X87.004 Y87.725 E12.24258
G1 X87.450 Y87.941 E12.27345
G1 X87.904 Y88.138 E12.30433
G1 X88.366 Y88.315 E12.33521
G1 X88.836 Y88.472 E12.36609
G1 X89.312 Y88.609 E12.39697
G1 X89.793 Y88.725 E12.42785
G1 X90.279 Y88.821 E12.45872
G1 X90.887 Y88.908 E12.49705
G1 X91.755 Y88.980 E12.55134
G1 X92.250 Y88.991 E12.58222
G1 X92.745 Y88.980 E12.61310
G1 X93.613 Y88.908 E12.66739
G1 X94.221 Y88.821 E12.70572
G1 X94.707 Y88.725 E12.73659
G1 X95.188 Y88.609 E12.76747
G1 X95.664 Y88.472 E12.79835
G1 X96.134 Y88.315 E12.82923
G1 X96.596 Y88.138 E12.86011
G1 X97.050 Y87.941 E12.89099
G1 X97.496 Y87.725 E12.92187
G1 X97.931 Y87.490 E12.95274
G1 X98.356 Y87.236 E12.98362
G1 X98.770 Y86.964 E13.01450
G1 X99.172 Y86.674 E13.04538
G1 X99.561 Y86.368 E13.07626
G1 X99.936 Y86.045 E13.10713
G1 X100.297 Y85.706 E13.13801
G1 X100.643 Y85.352 E13.16889
G1 X100.974 Y84.984 E13.19977
G1 X101.289 Y84.601 E13.23065
G1 X101.586 Y84.205 E13.26153
G1 X101.867 Y83.797 E13.29241
G1 X102.129 Y83.378 E13.32328
G1 X102.373 Y82.947 E13.35416
G1 X102.599 Y82.506 E13.38505
G1 X102.805 Y82.056 E13.41592
G1 X102.992 Y81.597 E13.44680
G1 X103.159 Y81.131 E13.47768
G1 X103.305 Y80.658 E13.50856
G1 X103.431 Y80.179 E13.53943
G1 X103.537 Y79.696 E13.57031
G1 X103.621 Y79.208 E13.60119
G1 X103.708 Y78.438 E13.64950
G1 X103.748 Y77.729 E13.69381
G1 X103.747 Y77.233 E13.72469
G1 X103.726 Y76.739 E13.75556
G1 X103.683 Y76.245 E13.78644
G1 X103.618 Y75.755 E13.81732
G1 X103.533 Y75.267 E13.84820
G1 X103.427 Y74.783 E13.87908
G1 X103.300 Y74.305 E13.90996
G1 X103.153 Y73.832 E13.94083
G1 X102.985 Y73.366 E13.97171
G1 X102.798 Y72.908 E14.00259
G1 X102.590 Y72.458 E14.03347
G1 X102.150 Y71.641 E14.09134
G1 X102.150 Y67.891 E14.32523
G1 X106.350 Y67.891 E14.58716
G1 X106.350 Y77.484 E15.18541
G1 X106.312 Y78.520 E15.25007
G1 X106.200 Y79.544 E15.31429
G1 X106.115 Y80.052 E15.34641
G1 X105.891 Y81.057 E15.41064
G1 X105.595 Y82.043 E15.47487
G1 X105.420 Y82.528 E15.50699
G1 X105.017 Y83.475 E15.57122
G1 X104.790 Y83.938 E15.60334
G1 X104.414 Y84.616 E15.65168
G1 X104.009 Y85.270 E15.69968
G1 X103.562 Y85.904 E15.74802
G1 X103.088 Y86.510 E15.79602
G1 X102.574 Y87.090 E15.84437
G1 X102.036 Y87.641 E15.89237
G1 X101.269 Y88.328 E15.95660
G1 X100.659 Y88.806 E16.00494
G1 X100.030 Y89.250 E16.05294
G1 X99.371 Y89.658 E16.10128
G1 X98.697 Y90.030 E16.14929
G1 X97.765 Y90.467 E16.21351
G1 X97.042 Y90.749 E16.26186
G1 X96.312 Y90.993 E16.30986
G1 X95.563 Y91.193 E16.35820
G1 X94.811 Y91.356 E16.40620
G1 X94.303 Y91.440 E16.43832
G1 X93.279 Y91.553 E16.50255
G1 X92.250 Y91.591 E16.56678
G1 X91.221 Y91.553 E16.63101
G1 X90.708 Y91.506 E16.66312
G1 X90.197 Y91.440 E16.69524
G1 X89.434 Y91.304 E16.74359
G1 X88.684 Y91.132 E16.79159
G1 X88.188 Y90.993 E16.82371
G1 X87.697 Y90.835 E16.85583
G1 X86.735 Y90.467 E16.92006
G1 X86.265 Y90.257 E16.95217
G1 X85.574 Y89.907 E17.00052
G1 X84.905 Y89.526 E17.04852
G1 X84.470 Y89.250 E17.08064
G1 X83.633 Y88.651 E17.14487
G1 X82.841 Y87.992 E17.20909
G1 X82.099 Y87.277 E17.27332
G1 X81.749 Y86.900 E17.30544
G1 X81.090 Y86.108 E17.36967
G1 X80.783 Y85.695 E17.40179
G1 X80.351 Y85.051 E17.45013
G1 X79.954 Y84.391 E17.49813
G1 X79.710 Y83.938 E17.53025
G1 X79.273 Y83.005 E17.59448
G1 X78.905 Y82.043 E17.65871
G1 X78.748 Y81.553 E17.69083
G1 X78.547 Y80.804 E17.73917
G1 X78.385 Y80.052 E17.78717
G1 X78.235 Y79.033 E17.85140
G1 X78.160 Y78.006 E17.91563
G1 X78.150 Y68.341 E18.51836
G1 X78.225 Y67.891
G1 F3600.000 E16.11836
G92 E0
G1 X82.009 Y68.713 F15000.000
G1 X81.868 Y68.571 F3600.000 E2.40000
G1 X81.528 Y68.231 F1200.000 E2.43013
G1 X80.817 Y68.231 E2.47467
G1 X82.009 Y69.423 E2.58034
G1 X82.009 Y70.134 E2.62488
G1 X80.107 Y68.231 E2.79353
G1 X79.396 Y68.231 E2.83808
G1 X82.009 Y70.845 E3.06972
G1 X82.009 Y71.555 E3.11427
G1 X78.685 Y68.231 E3.40891
G1 X78.491 Y68.748 E3.44351
G1 X81.801 Y72.058 E3.73687
G1 X81.560 Y72.527 E3.76995
G1 X78.492 Y69.460 E4.04186
G1 X78.493 Y70.171 E4.08645
G1 X81.341 Y73.019 E4.33891
G1 X81.141 Y73.530 E4.37329
G1 X78.493 Y70.882 E4.60798
G1 X78.494 Y71.594 E4.65257
G1 X80.961 Y74.061 E4.87125
G1 X80.802 Y74.613 E4.90724
G1 X78.495 Y72.305 E5.11179
G1 X78.495 Y73.016 E5.15638
G1 X80.667 Y75.188 E5.34883
G1 X80.555 Y75.787 E5.38704
G1 X78.496 Y73.728 E5.56958
G1 X78.497 Y74.439 E5.61416
G1 X80.474 Y76.416 E5.78940
G1 X80.427 Y77.080 E5.83110
G1 X78.497 Y75.151 E6.00211
G1 X78.498 Y75.862 E6.04670
G1 X80.412 Y77.775 E6.21630
G1 X80.442 Y78.516 E6.26279
G1 X78.499 Y76.573 E6.43503
G1 X78.500 Y77.285 E6.47962
G1 X80.527 Y79.312 E6.65931
G1 X80.681 Y80.176 E6.71436
G1 X78.510 Y78.006 E6.90679
G1 X78.578 Y78.784 E6.95579
G1 X80.929 Y81.135 E7.16419
G1 X81.325 Y82.242 E7.23788
G1 X78.684 Y79.601 E7.47201
G1 X78.873 Y80.501 E7.52963
G1 X82.016 Y83.644 E7.80823
G1 F3600.000 E5.40823
G92 E0
G1 X85.745 Y89.505 F15000.000
G1 X85.603 Y89.363 F3600.000 E2.40000
G1 X80.236 Y83.996 F1200.000 E2.87573
G1 X79.557 Y82.607 E2.97266
G1 X87.134 Y90.183 E3.64424
G1 F3600.000 E1.24424
G92 E0
G1 X79.148 Y81.487 F15000.000
G1 X79.290 Y81.628 F3600.000 E2.40000
G1 X88.261 Y90.599 F1200.000 E3.19516
G1 X89.242 Y90.870 E3.25899
G1 X86.100 Y87.728 E3.53752
G1 X87.501 Y88.418 E3.63540
G1 X90.135 Y91.052 E3.86891
G1 X90.966 Y91.172 E3.92150
G1 X88.607 Y88.813 E4.13058
G1 X89.567 Y89.062 E4.19274
G1 X91.731 Y91.227 E4.38459
G1 X92.458 Y91.243 E4.43017
G1 X90.429 Y89.214 E4.61003
G1 X91.218 Y89.292 E4.65971
G1 X93.153 Y91.227 E4.83121
G1 X93.812 Y91.176 E4.87267
G1 X91.964 Y89.328 E5.03647
G1 X92.663 Y89.316 E5.08028
G1 X94.439 Y91.092 E5.23768
G1 X95.044 Y90.986 E5.27617
G1 X93.319 Y89.261 E5.42902
G1 X93.951 Y89.182 E5.46892
G1 X95.629 Y90.861 E5.61769
G1 X96.185 Y90.706 E5.65387
G1 X94.554 Y89.075 E5.79850
G1 X95.130 Y88.940 E5.83559
G1 X96.732 Y90.542 E5.97758
G1 X97.257 Y90.356 E6.01248
G1 X95.682 Y88.781 E6.15208
G1 X96.212 Y88.601 E6.18718
G1 X97.762 Y90.151 E6.32458
G1 X98.248 Y89.926 E6.35815
G1 X96.722 Y88.400 E6.49344
G1 X97.214 Y88.181 E6.52717
G1 X98.721 Y89.689 E6.66082
G1 X99.183 Y89.440 E6.69371
G1 X97.687 Y87.944 E6.82631
G1 X98.144 Y87.690 E6.85907
G1 X99.626 Y89.172 E6.99041
G1 X100.056 Y88.892 E7.02260
G1 X98.585 Y87.420 E7.15302
G1 X99.009 Y87.134 E7.18511
G1 X100.471 Y88.595 E7.31465
G1 X100.876 Y88.290 E7.34645
G1 X99.418 Y86.832 E7.47565
G1 X99.812 Y86.515 E7.50733
G1 X101.263 Y87.967 E7.63597
G1 X101.640 Y87.633 E7.66752
G1 X100.191 Y86.183 E7.79601
G1 X100.554 Y85.837 E7.82751
G1 X102.001 Y87.283 E7.95573
G1 X102.353 Y86.924 E7.98723
G1 X100.903 Y85.475 E8.11572
G1 X101.237 Y85.098 E8.14728
G1 X102.686 Y86.547 E8.27571
G1 X103.009 Y86.159 E8.30734
G1 X101.556 Y84.706 E8.43612
G1 X101.860 Y84.299 E8.46795
G1 X103.319 Y85.758 E8.59727
G1 X103.615 Y85.344 E8.62920
G1 X102.148 Y83.877 E8.75926
G1 X102.420 Y83.438 E8.79161
G1 X103.897 Y84.915 E8.92252
G1 X104.166 Y84.474 E8.95492
G1 X102.676 Y82.983 E9.08704
G1 X102.914 Y82.511 E9.12020
G1 X104.418 Y84.015 E9.25350
G1 X104.660 Y83.546 E9.28658
G1 X103.135 Y82.021 E9.42171
G1 X103.337 Y81.513 E9.45601
G1 X104.879 Y83.055 E9.59271
G1 X105.091 Y82.556 E9.62667
G1 X103.519 Y80.984 E9.76601
G1 X103.680 Y80.434 E9.80191
G1 X105.275 Y82.029 E9.94327
G1 X105.453 Y81.496 E9.97849
G1 X103.818 Y79.862 E10.12334
G1 X103.932 Y79.265 E10.16143
G1 X105.601 Y80.934 E10.30940
