; generated by Slic3r 0.9.9-dev on 2014-01-09 at 13:59:07

; M-PLA-05-03-1

; layer_height = 0.3
; perimeters = 2
; top_solid_layers = 3
; bottom_solid_layers = 2
; fill_density = 0.2
; perimeter_speed = 40
; infill_speed = 40
; travel_speed = 250
; scale = 1
; nozzle_diameter = 0.5
; filament_diameter = 1.75
; extrusion_multiplier = 1.0
; perimeters extrusion width = 0.50mm
; infill extrusion width = 0.50mm
; first layer extrusion width = 0.50mm

M190 S57 ; wait for bed temperature to be reached
M104 S200 ; set temperature
G28 X0 Y0
G1 X75 Y75 F12000
G28 Z0
G1 Z0.3 F200
G1 X15 Y20 F12000
M109 S200 ; wait for temperature to be reached
G90 ; use absolute coordinates
G21 ; set units to millimeters
G92 E0
M82 ; use absolute distances for extrusion
M106 S76
G1 F3600.000 E-2.40000
G92 E0
G1 Z0.300 F15000.000
G1 X38.610 Y14.910
G1 X38.701 Y14.732 F3600.000 E2.40000
G1 X39.110 Y13.930 F1200.000 E2.45614
G1 X39.880 Y13.160 E2.52405
G1 X40.860 Y12.660 E2.59266
G1 X41.940 Y12.490 E2.66084
G1 X46.710 Y12.490 E2.95831
G1 X47.050 Y12.510 E2.97955
G1 X47.390 Y12.560 E3.00098
G1 X87.790 Y20.560 E5.56936
G1 X88.860 Y20.960 E5.64060
G1 X89.750 Y21.690 E5.71238
G1 X90.350 Y22.660 E5.78351
G1 X111.280 Y73.800 E9.22950
G1 X111.470 Y74.450 E9.27174
G1 X111.540 Y75.130 E9.31437
G1 X111.540 Y84.100 E9.87376
G1 X111.520 Y84.750 E9.91432
G1 X111.430 Y85.660 E9.97134
G1 X111.380 Y85.990 E9.99216
G1 X111.250 Y86.630 E10.03288
G1 X111.030 Y87.470 E10.08704
G1 X110.750 Y88.310 E10.14225
G1 X110.630 Y88.610 E10.16240
G1 X110.270 Y89.400 E10.21655
G1 X109.970 Y89.970 E10.25671
G1 X109.400 Y90.880 E10.32368
G1 X102.010 Y101.550 E11.13310
G1 X101.550 Y102.090 E11.17734
G1 X101.000 Y102.520 E11.22088
G1 X46.340 Y136.950 E15.24950
G1 X45.440 Y137.350 E15.31092
G1 X44.470 Y137.490 E15.37204
G1 X41.940 Y137.490 E15.52982
G1 X40.860 Y137.320 E15.59800
G1 X39.880 Y136.820 E15.66661
G1 X39.110 Y136.050 E15.73452
G1 X38.610 Y135.070 E15.80313
G1 X38.440 Y133.990 E15.87131
G1 X38.440 Y15.990 E23.23011
G1 X38.598 Y14.984 E23.29362
G1 X38.610 Y14.910 E23.29830
G1 F3600.000 E20.89830
G92 E0
G1 X42.025 Y16.000 F15000.000
G1 X42.225 Y16.000 F3600.000 E2.40000
G1 X46.718 Y16.000 F1200.000 E2.68017
G1 X61.322 Y24.000 E3.71864
G1 X87.114 Y24.000 E5.32712
G1 X108.050 Y75.131 E8.77274
G1 X108.050 Y83.995 E9.32553
G1 X108.025 Y84.650 E9.36638
G1 X107.952 Y85.296 E9.40693
G1 X107.829 Y85.935 E9.44749
G1 X107.659 Y86.562 E9.48804
G1 X107.442 Y87.175 E9.52859
G1 X107.179 Y87.770 E9.56915
G1 X106.872 Y88.343 E9.60970
G1 X106.520 Y88.896 E9.65055
G1 X99.138 Y99.570 E10.45990
G1 X44.479 Y134.000 E14.48850
G1 X41.950 Y134.000 E14.64620
G1 X41.950 Y95.000 E17.07835
G1 X80.461 Y95.000 E19.47999
G1 X80.711 Y94.978 E19.49563
G1 X80.963 Y94.910 E19.51194
G1 X81.200 Y94.800 E19.52826
G1 X81.415 Y94.650 E19.54458
G1 X81.600 Y94.465 E19.56089
G1 X81.750 Y94.250 E19.57721
G1 X81.860 Y94.013 E19.59352
G1 X81.928 Y93.761 E19.60984
G1 X81.950 Y93.511 E19.62547
G1 X81.950 Y75.000 E20.77986
G1 X83.961 Y75.000 E20.90525
G1 X83.850 Y69.731 E21.23393
G1 X83.864 Y69.487 E21.24916
G1 X83.914 Y69.258 E21.26378
G1 X83.999 Y69.039 E21.27840
G1 X84.117 Y68.837 E21.29302
G1 X84.265 Y68.655 E21.30764
G1 X84.439 Y68.498 E21.32226
G1 X84.636 Y68.371 E21.33688
G1 X84.850 Y68.276 E21.35149
G1 X85.077 Y68.215 E21.36611
G1 X85.310 Y68.191 E21.38073
G1 X85.544 Y68.203 E21.39535
G1 X85.773 Y68.251 E21.40997
G1 X85.992 Y68.335 E21.42459
G1 X86.195 Y68.452 E21.43921
G1 X86.378 Y68.599 E21.45383
G1 X86.542 Y68.780 E21.46906
G1 X94.736 Y79.375 E22.30434
G1 X94.301 Y79.871 E22.34547
G1 X93.958 Y80.339 E22.38161
G1 X93.658 Y80.834 E22.41776
G1 X93.496 Y81.166 E22.44077
G1 X93.403 Y81.355 E22.45392
G1 X93.194 Y81.896 E22.49006
G1 X93.034 Y82.453 E22.52621
G1 X92.907 Y83.100 E22.56734
G1 X87.923 Y83.100 E22.87818
G1 X87.852 Y83.024 E22.88468
G1 X87.673 Y82.878 E22.89905
G1 X87.468 Y82.764 E22.91367
G1 X87.247 Y82.687 E22.92829
G1 X87.016 Y82.649 E22.94291
G1 X86.781 Y82.652 E22.95752
G1 X86.551 Y82.695 E22.97214
G1 X86.331 Y82.777 E22.98676
G1 X86.129 Y82.896 E23.00138
G1 X85.951 Y83.048 E23.01599
G1 X85.801 Y83.228 E23.03061
G1 X85.685 Y83.431 E23.04523
G1 X85.605 Y83.652 E23.05985
G1 X85.565 Y83.883 E23.07446
G1 X85.565 Y84.117 E23.08908
G1 X85.605 Y84.348 E23.10370
G1 X85.685 Y84.569 E23.11832
G1 X85.801 Y84.772 E23.13294
G1 X85.951 Y84.952 E23.14755
G1 X86.129 Y85.104 E23.16217
G1 X86.331 Y85.223 E23.17678
G1 X86.551 Y85.305 E23.19140
G1 X86.781 Y85.348 E23.20602
G1 X87.016 Y85.351 E23.22064
G1 X87.247 Y85.313 E23.23525
G1 X87.468 Y85.236 E23.24987
G1 X87.673 Y85.122 E23.26449
G1 X87.855 Y84.974 E23.27911
G1 X87.920 Y84.900 E23.28522
G1 X92.914 Y84.900 E23.59671
G1 X93.005 Y85.421 E23.62970
G1 X93.161 Y86.004 E23.66731
G1 X93.370 Y86.569 E23.70493
G1 X93.630 Y87.114 E23.74255
G1 X93.939 Y87.632 E23.78016
G1 X94.293 Y88.120 E23.81778
G1 X94.691 Y88.573 E23.85539
G1 X95.129 Y88.989 E23.89301
G1 X95.602 Y89.362 E23.93062
G1 X96.108 Y89.691 E23.96824
G1 X96.641 Y89.973 E24.00586
G1 X97.198 Y90.204 E24.04347
G1 X97.774 Y90.384 E24.08109
G1 X98.364 Y90.510 E24.11870
G1 X98.963 Y90.582 E24.15632
G1 X99.566 Y90.599 E24.19394
G1 X100.167 Y90.561 E24.23155
G1 X100.763 Y90.468 E24.26916
G1 X101.349 Y90.321 E24.30678
G1 X101.918 Y90.122 E24.34440
G1 X102.466 Y89.871 E24.38201
G1 X102.990 Y89.571 E24.41963
G1 X103.483 Y89.225 E24.45724
G1 X103.943 Y88.835 E24.49486
G1 X104.348 Y88.423 E24.53085
G1 X104.748 Y87.937 E24.57009
G1 X105.085 Y87.437 E24.60772
G1 X105.375 Y86.908 E24.64532
G1 X105.616 Y86.355 E24.68293
G1 X105.805 Y85.782 E24.72055
G1 X105.941 Y85.195 E24.75816
G1 X106.023 Y84.597 E24.79578
G1 X106.050 Y83.995 E24.83340
G1 X106.022 Y83.392 E24.87101
G1 X105.966 Y82.984 E24.89671
G1 X105.939 Y82.795 E24.90863
G1 X105.802 Y82.207 E24.94624
G1 X105.612 Y81.635 E24.98386
G1 X105.370 Y81.082 E25.02147
G1 X105.079 Y80.554 E25.05909
G1 X104.741 Y80.054 E25.09671
G1 X104.359 Y79.588 E25.13432
G1 X104.046 Y79.270 E25.16216
G1 X103.935 Y79.158 E25.17194
G1 X103.475 Y78.769 E25.20955
G1 X102.980 Y78.423 E25.24717
G1 X102.457 Y78.124 E25.28478
G1 X102.032 Y77.931 E25.31384
G1 X101.908 Y77.874 E25.32240
G1 X101.338 Y77.676 E25.36002
G1 X100.645 Y77.513 E25.40443
G1 X100.157 Y77.438 E25.43522
G1 X99.555 Y77.401 E25.47284
G1 X98.829 Y77.434 E25.51817
G1 X98.353 Y77.492 E25.54804
G1 X97.763 Y77.619 E25.58566
G1 X97.188 Y77.799 E25.62328
G1 X96.631 Y78.032 E25.66089
G1 X96.164 Y78.279 E25.69388
G1 X84.079 Y62.652 E26.92587
G1 X83.967 Y36.474 E28.55839
G1 X83.941 Y36.012 E28.58728
G1 X83.866 Y35.548 E28.61657
G1 X83.742 Y35.095 E28.64587
G1 X83.573 Y34.657 E28.67517
G1 X83.358 Y34.239 E28.70446
G1 X83.163 Y33.941 E28.72667
G1 X82.805 Y33.481 E28.76303
G1 X82.472 Y33.150 E28.79232
G1 X82.106 Y32.855 E28.82162
G1 X81.712 Y32.599 E28.85092
G1 X81.293 Y32.387 E28.88021
G1 X80.854 Y32.219 E28.90951
G1 X80.400 Y32.097 E28.93881
G1 X79.936 Y32.024 E28.96810
G1 X79.474 Y32.000 E28.99699
G1 X41.950 Y32.000 E31.33707
G1 X41.950 Y16.325 E32.31460
G1 X42.025 Y16.000
G1 X42.525 Y16.500 F15000.000
G1 X46.590 Y16.500 F1200.000 E32.56808
G1 X61.194 Y24.500 E33.60655
G1 X86.779 Y24.500 E35.20209
G1 X107.550 Y75.230 E38.62064
G1 X107.550 Y83.986 E39.16670
G1 X107.526 Y84.612 E39.20578
G1 X107.457 Y85.221 E39.24398
G1 X107.342 Y85.822 E39.28217
G1 X107.182 Y86.413 E39.32037
G1 X106.977 Y86.991 E39.35856
G1 X106.730 Y87.551 E39.39676
G1 X106.441 Y88.091 E39.43495
G1 X106.104 Y88.619 E39.47403
G1 X98.785 Y99.201 E40.27641
G1 X44.334 Y133.500 E44.28963
G1 X42.450 Y133.500 E44.40715
G1 X42.450 Y95.500 E46.77693
G1 X80.483 Y95.500 E49.14876
G1 X80.798 Y95.472 E49.16848
G1 X81.135 Y95.382 E49.19025
G1 X81.451 Y95.235 E49.21203
G1 X81.737 Y95.034 E49.23380
G1 X81.984 Y94.787 E49.25557
G1 X82.185 Y94.501 E49.27734
G1 X82.332 Y94.185 E49.29911
G1 X82.422 Y93.848 E49.32089
G1 X82.450 Y93.533 E49.34061
G1 X82.450 Y75.500 E50.46518
G1 X84.471 Y75.500 E50.59123
G1 X84.350 Y69.740 E50.95053
G1 X84.361 Y69.555 E50.96209
G1 X84.394 Y69.402 E50.97182
G1 X84.451 Y69.257 E50.98155
G1 X84.529 Y69.122 E50.99128
G1 X84.627 Y69.001 E51.00101
G1 X84.744 Y68.897 E51.01074
G1 X84.875 Y68.812 E51.02047
G1 X85.017 Y68.749 E51.03019
G1 X85.168 Y68.708 E51.03992
G1 X85.323 Y68.692 E51.04965
G1 X85.479 Y68.700 E51.05938
G1 X85.631 Y68.732 E51.06911
G1 X85.777 Y68.788 E51.07884
G1 X85.912 Y68.866 E51.08856
G1 X86.034 Y68.964 E51.09829
G1 X86.159 Y69.101 E51.10986
G1 X94.088 Y79.355 E51.91823
G1 X93.910 Y79.558 E51.93506
G1 X93.542 Y80.061 E51.97393
G1 X93.219 Y80.594 E52.01282
G1 X93.047 Y80.945 E52.03721
G1 X92.944 Y81.154 E52.05172
G1 X92.720 Y81.736 E52.09059
G1 X92.547 Y82.335 E52.12950
G1 X92.496 Y82.600 E52.14631
G1 X88.124 Y82.600 E52.41895
G1 X87.955 Y82.463 E52.43253
G1 X87.674 Y82.306 E52.45257
G1 X87.371 Y82.201 E52.47260
G1 X87.053 Y82.149 E52.49265
G1 X86.732 Y82.153 E52.51268
G1 X86.417 Y82.212 E52.53270
G1 X86.116 Y82.324 E52.55274
G1 X85.839 Y82.487 E52.57277
G1 X85.594 Y82.695 E52.59281
G1 X85.389 Y82.942 E52.61284
G1 X85.229 Y83.221 E52.63287
G1 X85.120 Y83.523 E52.65291
G1 X85.065 Y83.839 E52.67294
G1 X85.065 Y84.161 E52.69298
G1 X85.120 Y84.477 E52.71301
G1 X85.229 Y84.779 E52.73305
G1 X85.389 Y85.058 E52.75308
G1 X85.594 Y85.305 E52.77311
G1 X85.839 Y85.513 E52.79314
G1 X86.116 Y85.676 E52.81317
G1 X86.416 Y85.788 E52.83320
G1 X86.732 Y85.847 E52.85325
G1 X87.053 Y85.851 E52.87327
G1 X87.370 Y85.799 E52.89329
G1 X87.674 Y85.694 E52.91335
G1 X87.955 Y85.537 E52.93339
G1 X88.124 Y85.400 E52.94697
G1 X92.481 Y85.400 E53.21871
G1 X92.684 Y86.156 E53.26750
G1 X92.909 Y86.764 E53.30797
G1 X93.189 Y87.350 E53.34844
G1 X93.521 Y87.907 E53.38891
G1 X93.902 Y88.432 E53.42938
G1 X94.330 Y88.920 E53.46984
G1 X94.801 Y89.367 E53.51031
G1 X95.310 Y89.769 E53.55078
G1 X95.854 Y90.123 E53.59125
G1 X96.428 Y90.426 E53.63172
G1 X97.027 Y90.675 E53.67219
G1 X97.647 Y90.868 E53.71266
G1 X98.281 Y91.004 E53.75312
G1 X98.926 Y91.081 E53.79359
G1 X99.574 Y91.100 E53.83406
G1 X100.222 Y91.059 E53.87453
G1 X100.863 Y90.959 E53.91499
G1 X101.493 Y90.801 E53.95547
G1 X102.105 Y90.586 E53.99593
G1 X102.695 Y90.316 E54.03640
G1 X103.258 Y89.993 E54.07688
G1 X103.789 Y89.621 E54.11733
G1 X104.284 Y89.201 E54.15781
G1 X104.739 Y88.738 E54.19828
G1 X105.149 Y88.235 E54.23874
G1 X105.512 Y87.697 E54.27925
G1 X105.824 Y87.129 E54.31968
G1 X106.083 Y86.534 E54.36015
G1 X106.287 Y85.917 E54.40062
G1 X106.433 Y85.285 E54.44108
G1 X106.522 Y84.642 E54.48155
G1 X106.551 Y83.994 E54.52202
G1 X106.521 Y83.346 E54.56249
G1 X106.461 Y82.915 E54.58961
G1 X106.431 Y82.703 E54.60296
G1 X106.284 Y82.071 E54.64342
G1 X106.079 Y81.455 E54.68389
G1 X105.819 Y80.861 E54.72436
G1 X105.600 Y80.463 E54.75271
G1 X105.506 Y80.293 E54.76483
G1 X105.142 Y79.755 E54.80530
G1 X104.731 Y79.253 E54.84577
G1 X104.197 Y78.725 E54.89263
G1 X103.780 Y78.372 E54.92668
G1 X103.248 Y78.000 E54.96715
G1 X102.685 Y77.679 E55.00762
G1 X102.240 Y77.476 E55.03810
G1 X102.094 Y77.410 E55.04809
G1 X101.481 Y77.196 E55.08855
G1 X100.852 Y77.039 E55.12902
G1 X100.721 Y77.019 E55.13727
G1 X100.210 Y76.940 E55.16949
G1 X99.563 Y76.900 E55.20996
G1 X98.914 Y76.919 E55.25043
G1 X98.768 Y76.937 E55.25959
G1 X98.270 Y76.998 E55.29089
G1 X97.636 Y77.135 E55.33136
G1 X97.016 Y77.329 E55.37183
G1 X96.294 Y77.631 E55.42063
G1 X84.578 Y62.480 E56.61502
G1 X84.467 Y36.459 E58.23778
G1 X84.439 Y35.957 E58.26911
G1 X84.355 Y35.442 E58.30167
G1 X84.218 Y34.938 E58.33422
G1 X84.029 Y34.452 E58.36678
G1 X83.791 Y33.987 E58.39933
G1 X83.582 Y33.667 E58.42317
G1 X83.505 Y33.550 E58.43189
G1 X83.176 Y33.145 E58.46445
G1 X82.806 Y32.777 E58.49700
G1 X82.400 Y32.449 E58.52956
G1 X81.961 Y32.165 E58.56212
G1 X81.496 Y31.929 E58.59467
G1 X81.008 Y31.742 E58.62723
G1 X80.504 Y31.608 E58.65979
G1 X79.988 Y31.526 E58.69234
G1 X79.487 Y31.500 E58.72367
G1 X42.450 Y31.500 E61.03338
G1 X42.450 Y16.950 E61.94076
G1 X42.525 Y16.500
G1 F3600.000 E59.54076
G92 E0
G1 X88.325 Y72.673 F15000.000
G1 X88.184 Y72.531 F3600.000 E2.40000
G1 X84.840 Y69.188 F1200.000 E2.69586
G1 X84.695 Y69.752 E2.73232
G1 X90.745 Y75.802 E3.26765
G1 F3600.000 E0.86765
G92 E0
G1 X93.165 Y78.932 F15000.000
G1 X93.024 Y78.790 F3600.000 E2.40000
G1 X84.710 Y70.477 F1200.000 E3.13560
G1 X84.725 Y71.201 E3.18094
G1 X93.362 Y79.838 E3.94509
G1 X93.086 Y80.271 E3.97724
G1 X84.740 Y71.926 E4.71565
G1 X84.756 Y72.651 E4.76099
G1 X92.834 Y80.729 E5.47575
G1 X92.607 Y81.211 E5.50912
G1 X84.771 Y73.375 E6.20247
G1 X84.786 Y74.100 E6.24782
G1 X92.409 Y81.723 E6.92234
G1 X92.236 Y82.259 E6.95759
G1 X84.801 Y74.824 E7.61542
G1 X84.816 Y75.549 E7.66077
G1 X91.527 Y82.259 E8.25449
G1 X90.817 Y82.259 E8.29887
G1 X84.399 Y75.841 E8.86678
G1 X83.689 Y75.841 E8.91117
G1 X90.108 Y82.259 E9.47908
G1 X89.398 Y82.259 E9.52347
G1 X82.980 Y75.841 E10.09138
G1 X82.791 Y76.361 E10.12601
G1 X88.689 Y82.259 E10.64789
G1 X87.582 Y81.862 E10.72146
G1 X82.791 Y77.070 E11.14541
G1 X82.791 Y77.780 E11.18979
G1 X86.826 Y81.815 E11.54685
G1 X86.257 Y81.956 E11.58351
G1 X82.791 Y78.489 E11.89024
G1 X82.791 Y79.199 E11.93463
G1 X85.784 Y82.192 E12.19946
G1 X85.391 Y82.508 E12.23103
G1 X82.791 Y79.908 E12.46106
G1 X82.791 Y80.618 E12.50544
G1 X85.082 Y82.909 E12.70816
G1 X84.853 Y83.389 E12.74147
G1 X82.791 Y81.327 E12.92396
G1 X82.791 Y82.036 E12.96834
G1 X84.724 Y83.969 E13.13937
G1 X84.791 Y84.746 E13.18813
G1 X82.791 Y82.746 E13.36508
G1 X82.791 Y83.455 E13.40947
G1 X98.429 Y99.094 E14.79319
G1 X97.994 Y99.368 E14.82538
G1 X82.791 Y84.165 E16.17059
G1 X82.791 Y84.874 E16.21498
G1 X97.559 Y99.642 E17.52168
G1 X97.124 Y99.916 E17.55386
G1 X82.791 Y85.583 E18.82206
G1 X82.791 Y86.293 E18.86644
G1 X96.688 Y100.190 E20.09612
G1 X96.253 Y100.465 E20.12830
G1 X82.791 Y87.002 E21.31947
G1 X82.791 Y87.712 E21.36386
G1 X95.818 Y100.739 E22.51652
G1 X95.383 Y101.013 E22.54870
G1 X82.791 Y88.421 E23.66285
G1 X82.791 Y89.130 E23.70723
G1 X94.947 Y101.287 E24.78287
G1 X94.512 Y101.561 E24.81505
G1 X82.791 Y89.840 E25.85218
G1 X82.791 Y90.549 E25.89656
G1 X94.077 Y101.835 E26.89517
G1 X93.642 Y102.110 E26.92736
G1 X82.791 Y91.259 E27.88746
G1 X82.791 Y91.968 E27.93184
G1 X93.206 Y102.384 E28.85344
G1 X92.771 Y102.658 E28.88562
G1 X82.791 Y92.678 E29.76870
G1 X82.791 Y93.387 E29.81308
G1 X92.336 Y102.932 E30.65765
G1 X91.901 Y103.206 E30.68984
G1 X82.697 Y94.002 E31.50421
G1 X82.498 Y94.513 E31.53848
G1 X91.465 Y103.480 E32.33196
G1 X91.030 Y103.755 E32.36415
G1 X82.217 Y94.941 E33.14399
G1 X81.857 Y95.290 E33.17538
G1 X90.595 Y104.029 E33.94855
G1 X90.160 Y104.303 E33.98073
G1 X81.423 Y95.566 E34.75378
G1 X80.907 Y95.759 E34.78827
G1 X89.724 Y104.577 E35.56849
G1 X89.289 Y104.851 E35.60068
G1 X80.279 Y95.841 E36.39793
G1 X79.569 Y95.841 E36.44232
G1 X88.854 Y105.125 E37.26383
G1 X88.419 Y105.400 E37.29601
G1 X78.860 Y95.841 E38.14178
G1 X78.151 Y95.841 E38.18617
G1 X87.983 Y105.674 E39.05620
G1 X87.548 Y105.948 E39.08838
G1 X77.441 Y95.841 E39.98267
G1 X76.732 Y95.841 E40.02706
G1 X87.113 Y106.222 E40.94560
G1 X86.678 Y106.496 E40.97779
G1 X76.022 Y95.841 E41.92059
G1 X75.313 Y95.841 E41.96498
G1 X86.242 Y106.770 E42.93204
G1 X85.807 Y107.045 E42.96422
G1 X74.604 Y95.841 E43.95555
G1 X73.894 Y95.841 E43.99993
G1 X85.372 Y107.319 E45.01551
G1 X84.937 Y107.593 E45.04770
G1 X73.185 Y95.841 E46.08753
G1 X72.475 Y95.841 E46.13192
G1 X84.502 Y107.867 E47.19602
G1 X84.066 Y108.141 E47.22820
G1 X71.766 Y95.841 E48.31656
G1 X71.056 Y95.841 E48.36094
G1 X83.631 Y108.415 E49.47356
G1 X83.196 Y108.689 E49.50574
G1 X70.347 Y95.841 E50.64261
G1 X69.638 Y95.841 E50.68700
G1 X82.761 Y108.964 E51.84813
G1 X82.325 Y109.238 E51.88031
G1 X68.928 Y95.841 E53.06570
G1 X68.219 Y95.841 E53.11009
G1 X81.890 Y109.512 E54.31974
G1 X81.455 Y109.786 E54.35192
G1 X67.509 Y95.841 E55.58583
G1 X66.800 Y95.841 E55.63021
G1 X81.020 Y110.060 E56.88838
G1 X80.584 Y110.334 E56.92056
G1 X66.091 Y95.841 E58.20298
G1 X65.381 Y95.841 E58.24737
G1 X80.149 Y110.609 E59.55405
G1 X79.714 Y110.883 E59.58623
G1 X64.672 Y95.841 E60.91718
G1 X63.962 Y95.841 E60.96156
G1 X79.279 Y111.157 E62.31676
G1 X78.843 Y111.431 E62.34894
G1 X63.253 Y95.841 E63.72840
