; generated by Slic3r 0.9.9-dev on 2014-01-30 at 12:42:52

; M-PLA-05-03-1

; layer_height = 0.3
; perimeters = 2
; top_solid_layers = 3
; bottom_solid_layers = 2
; fill_density = 0.2
; perimeter_speed = 40
; infill_speed = 40
; travel_speed = 250
; scale = 1
; nozzle_diameter = 0.5
; filament_diameter = 1.75
; extrusion_multiplier = 1.0
; perimeters extrusion width = 0.50mm
; infill extrusion width = 0.50mm
; first layer extrusion width = 0.50mm

M190 S57 ; wait for bed temperature to be reached
M104 S200 ; set temperature
G28 X0 Y0
G1 X75 Y75 F12000
G28 Z0
G1 Z0.3 F200
G1 X15 Y20 F12000
M109 S200 ; wait for temperature to be reached
G90 ; use absolute coordinates
G21 ; set units to millimeters
G92 E0
M82 ; use absolute distances for extrusion
M106 S76
G1 F3600.000 E-2.40000
G92 E0
G1 Z0.300 F15000.000
G1 X26.507 Y36.828
G1 X26.674 Y36.718 F3600.000 E2.40000
G1 X27.617 Y36.098 F1200.000 E2.47038
G1 X28.917 Y35.838 E2.55306
G1 X92.517 Y35.338 E6.51945
G1 X125.767 Y35.338 E8.59301
G1 X126.727 Y35.468 E8.65343
G1 X127.607 Y35.858 E8.71345
G1 X128.347 Y36.478 E8.77366
G1 X128.897 Y37.268 E8.83369
G1 X129.207 Y38.188 E8.89423
G1 X131.457 Y50.078 E9.64888
G1 X131.517 Y50.718 E9.68897
G1 X131.607 Y89.258 E12.09244
G1 X131.607 Y104.268 E13.02850
G1 X131.487 Y105.188 E13.08636
G1 X131.117 Y106.048 E13.14475
G1 X130.547 Y106.778 E13.20251
G1 X123.477 Y113.628 E13.81642
G1 X122.347 Y114.358 E13.90031
G1 X121.037 Y114.618 E13.98360
G1 X56.947 Y114.658 E17.98043
G1 X23.717 Y114.658 E20.05274
G1 X22.707 Y114.508 E20.11642
G1 X21.777 Y114.068 E20.18058
G1 X21.017 Y113.378 E20.24460
G1 X20.487 Y112.508 E20.30813
G1 X20.237 Y111.508 E20.37241
G1 X18.987 Y99.158 E21.14652
G1 X18.967 Y98.858 E21.16528
G1 X18.377 Y61.238 E23.51165
G1 X18.377 Y46.188 E24.45021
G1 X18.497 Y45.268 E24.50807
G1 X18.867 Y44.408 E24.56645
G1 X19.437 Y43.678 E24.62421
G1 X26.453 Y36.880 E25.23344
G1 X26.507 Y36.828 E25.23812
G1 F3600.000 E22.83812
G92 E0
G1 X31.881 Y62.887 F15000.000
G1 X32.062 Y62.801 F3600.000 E2.40000
G1 X58.459 Y50.271 F1200.000 E4.22225
G1 X65.024 Y50.271 E4.63166
G1 X65.024 Y65.271 E5.56710
G1 X57.953 Y65.271 E6.00807
G1 X57.953 Y72.121 E6.43525
G1 X29.588 Y72.121 E8.20418
G1 X29.588 Y67.921 E8.46610
G1 X31.813 Y67.921 E8.60491
G1 X31.813 Y63.244 E8.89655
G1 X31.881 Y62.887
G1 X32.381 Y63.203 F15000.000
G1 X58.571 Y50.771 F1200.000 E10.70453
G1 X64.524 Y50.771 E11.07573
G1 X64.524 Y64.771 E11.94881
G1 X57.453 Y64.771 E12.38978
G1 X57.453 Y71.621 E12.81697
G1 X30.088 Y71.621 E14.52353
G1 X30.088 Y68.421 E14.72309
G1 X32.313 Y68.421 E14.86189
G1 X32.313 Y63.685 E15.15721
G1 X32.381 Y63.203
G1 F3600.000 E12.75721
G92 E0
G1 X26.915 Y67.996 F15000.000
G1 X26.915 Y68.196 F3600.000 E2.40000
G1 X26.916 Y72.121 F780.000 E2.64477
G1 X24.726 Y72.121 E2.78133
G1 X24.726 Y67.921 E3.04326
G1 X26.590 Y67.921 E3.15949
G1 X26.915 Y67.996
G1 X26.415 Y68.496 F15000.000
G1 X26.416 Y71.621 F780.000 E3.35438
G1 X25.226 Y71.621 E3.42855
G1 X25.226 Y68.421 E3.62811
G1 X25.965 Y68.421 E3.67419
G1 X26.415 Y68.496
G1 F3600.000 E1.27419
G92 E0
G1 X30.747 Y71.280 F15000.000
G1 X30.428 Y70.962 F3600.000 E2.40000
G1 X30.428 Y70.962 F2400.000
G1 X30.428 Y70.251 E2.44452
G1 X31.457 Y71.280 E2.53569
G1 X32.168 Y71.280 E2.58021
G1 X30.428 Y69.541 E2.73435
G1 X30.428 Y68.830 E2.77887
G1 X32.878 Y71.280 E2.99596
G1 X33.589 Y71.280 E3.04048
G1 X31.070 Y68.762 E3.26365
G1 X31.781 Y68.762 E3.30817
G1 X34.299 Y71.280 E3.53134
G1 X35.010 Y71.280 E3.57586
G1 X32.491 Y68.762 E3.79903
G1 X32.654 Y68.214 F15000.000
G1 X35.720 Y71.280 F1200.000 E4.07073
G1 X36.431 Y71.280 E4.11525
G1 X32.654 Y67.503 E4.44990
G1 X32.654 Y66.793 E4.49442
G1 X37.141 Y71.280 E4.89204
G1 X37.852 Y71.280 E4.93656
G1 X32.654 Y66.082 E5.39713
G1 X32.654 Y65.372 E5.44165
G1 X38.562 Y71.280 E5.96518
G1 X39.273 Y71.280 E6.00970
G1 X32.654 Y64.662 E6.59620
G1 X32.654 Y63.951 E6.64072
G1 X39.983 Y71.280 E7.29017
G1 X40.694 Y71.280 E7.33469
G1 X32.757 Y63.343 E8.03799
G1 X33.239 Y63.115 E8.07140
G1 X41.404 Y71.280 E8.79497
G1 X42.115 Y71.280 E8.83948
G1 X33.721 Y62.886 E9.58331
G1 X34.202 Y62.657 E9.61673
G1 X42.825 Y71.280 E10.38082
G1 X43.536 Y71.280 E10.42534
G1 X34.684 Y62.429 E11.20970
G1 X35.166 Y62.200 E11.24312
G1 X44.246 Y71.280 E12.04775
G1 X44.956 Y71.280 E12.09227
G1 X35.648 Y61.971 E12.91716
G1 X36.130 Y61.743 E12.95058
G1 X45.667 Y71.280 E13.79574
G1 X46.377 Y71.280 E13.84026
G1 X36.611 Y61.514 E14.70568
G1 X37.093 Y61.285 E14.73910
G1 X47.088 Y71.280 E15.62479
G1 X47.798 Y71.280 E15.66931
G1 X37.575 Y61.056 E16.57527
G1 X38.057 Y60.828 E16.60869
G1 X48.509 Y71.280 E17.53491
G1 X49.219 Y71.280 E17.57943
G1 X38.538 Y60.599 E18.52592
G1 X39.020 Y60.370 E18.55934
G1 X49.930 Y71.280 E19.52610
G1 X50.640 Y71.280 E19.57062
G1 X39.502 Y60.142 E20.55764
G1 X39.984 Y59.913 E20.59106
G1 X51.351 Y71.280 E21.59835
G1 X52.061 Y71.280 E21.64287
G1 X40.466 Y59.684 E22.67043
G1 X40.947 Y59.456 E22.70384
G1 X52.772 Y71.280 E23.75167
G1 X53.482 Y71.280 E23.79619
G1 X41.429 Y59.227 E24.86428
G1 X41.911 Y58.998 E24.89769
G1 X54.193 Y71.280 E25.98605
G1 X54.903 Y71.280 E26.03057
G1 X42.393 Y58.769 E27.13919
G1 X42.875 Y58.541 E27.17261
G1 X55.614 Y71.280 E28.30150
G1 X56.324 Y71.280 E28.34601
G1 X43.356 Y58.312 E29.49517
G1 X43.838 Y58.083 E29.52859
G1 X57.035 Y71.280 E30.69801
G1 X57.112 Y70.647 E30.73798
G1 X44.320 Y57.855 E31.87155
G1 X44.802 Y57.626 E31.90497
G1 X57.112 Y69.936 E32.99585
G1 X57.112 Y69.226 E33.04037
G1 X45.283 Y57.397 E34.08856
G1 X45.765 Y57.169 E34.12198
G1 X57.112 Y68.515 E35.12747
G1 X57.112 Y67.805 E35.17199
G1 X46.247 Y56.940 E36.13479
G1 X46.729 Y56.711 E36.16821
G1 X57.112 Y67.094 E37.08831
G1 X57.112 Y66.384 E37.13283
G1 X47.211 Y56.482 E38.01025
G1 X47.692 Y56.254 E38.04366
G1 X57.112 Y65.673 E38.87838
G1 X57.112 Y64.963 E38.92290
G1 X48.174 Y56.025 E39.71493
G1 X48.656 Y55.796 E39.74835
G1 X57.290 Y64.430 E40.51342
G1 X58.000 Y64.430 E40.55794
G1 X49.138 Y55.568 E41.34327
G1 X49.619 Y55.339 E41.37669
G1 X58.710 Y64.430 E42.18229
G1 X59.421 Y64.430 E42.22681
G1 X50.101 Y55.110 E43.05268
G1 X50.583 Y54.882 E43.08609
G1 X60.131 Y64.430 E43.93223
G1 X60.842 Y64.430 E43.97675
G1 X51.065 Y54.653 E44.84315
G1 X51.547 Y54.424 E44.87656
G1 X61.552 Y64.430 E45.76323
G1 X62.263 Y64.430 E45.80775
G1 X52.028 Y54.195 E46.71468
G1 X52.510 Y53.967 E46.74810
G1 X62.973 Y64.430 E47.67530
G1 X63.684 Y64.430 E47.71982
G1 X52.992 Y53.738 E48.66728
G1 X53.474 Y53.509 E48.70070
G1 X64.183 Y64.219 E49.64971
G1 X64.183 Y63.508 E49.69422
G1 X53.956 Y53.281 E50.60054
G1 X54.437 Y53.052 E50.63395
G1 X64.183 Y62.798 E51.49757
G1 X64.183 Y62.087 E51.54209
G1 X54.919 Y52.823 E52.36302
G1 X55.401 Y52.595 E52.39643
G1 X64.183 Y61.377 E53.17467
G1 X64.183 Y60.666 E53.21918
G1 X55.883 Y52.366 E53.95472
G1 X56.364 Y52.137 E53.98814
G1 X64.183 Y59.956 E54.68099
G1 X64.183 Y59.245 E54.72550
G1 X56.846 Y51.908 E55.37566
G1 X57.328 Y51.680 E55.40907
G1 X64.183 Y58.535 E56.01653
G1 X64.183 Y57.824 E56.06105
G1 X57.810 Y51.451 E56.62582
G1 X58.292 Y51.222 E56.65923
G1 X64.183 Y57.114 E57.18131
G1 X64.183 Y56.403 E57.22583
G1 X58.891 Y51.112 E57.69476
G1 X59.602 Y51.112 E57.73928
G1 X64.183 Y55.693 E58.14525
G1 X64.183 Y54.982 E58.18977
G1 X60.312 Y51.112 E58.53278
G1 X61.023 Y51.112 E58.57730
G1 X64.183 Y54.272 E58.85735
G1 X64.183 Y53.561 E58.90187
G1 X61.733 Y51.112 E59.11897
G1 X62.444 Y51.112 E59.16349
G1 X64.183 Y52.851 E59.31762
G1 X64.183 Y52.140 E59.36214
G1 X63.154 Y51.112 E59.45331
G1 X63.865 Y51.112 E59.49783
G1 X64.183 Y51.430 E59.52605
G1 F3600.000 E57.12605
G92 E0
G1 X25.817 Y71.003 F15000.000
G1 X25.817 Y70.803 F3600.000 E2.40000
G1 X25.818 Y69.775 F1200.000 E2.46406
G1 F3600.000 E0.06406
G92 E0
G1 X94.974 Y101.887 F15000.000
G1 X95.155 Y101.801 F3600.000 E2.40000
G1 X121.552 Y89.271 F1200.000 E4.22225
G1 X128.117 Y89.271 E4.63166
G1 X128.117 Y104.271 E5.56710
G1 X121.046 Y104.271 E6.00807
G1 X121.046 Y111.121 E6.43525
G1 X92.681 Y111.121 E8.20418
G1 X92.681 Y106.921 E8.46610
G1 X94.906 Y106.921 E8.60491
G1 X94.906 Y102.244 E8.89655
G1 X94.974 Y101.887
G1 X95.474 Y102.203 F15000.000
G1 X121.665 Y89.771 F1200.000 E10.70453
G1 X127.617 Y89.771 E11.07573
G1 X127.617 Y103.771 E11.94881
G1 X120.546 Y103.771 E12.38978
G1 X120.546 Y110.621 E12.81697
G1 X93.181 Y110.621 E14.52353
G1 X93.181 Y107.421 E14.72309
G1 X95.406 Y107.421 E14.86189
G1 X95.406 Y102.685 E15.15721
G1 X95.474 Y102.203
G1 F3600.000 E12.75721
G92 E0
G1 X90.008 Y106.996 F15000.000
G1 X90.008 Y107.196 F3600.000 E2.40000
G1 X90.009 Y111.121 F780.000 E2.64477
G1 X87.819 Y111.121 E2.78133
G1 X87.819 Y106.921 E3.04326
G1 X89.683 Y106.921 E3.15949
G1 X90.008 Y106.996
G1 X89.508 Y107.496 F15000.000
G1 X89.509 Y110.621 F780.000 E3.35438
G1 X88.319 Y110.621 E3.42855
G1 X88.319 Y107.421 E3.62811
G1 X89.058 Y107.421 E3.67419
G1 X89.508 Y107.496
G1 F3600.000 E1.27419
G92 E0
G1 X93.840 Y110.280 F15000.000
G1 X93.521 Y109.962 F3600.000 E2.40000
G1 X93.521 Y109.962 F2400.000
G1 X93.521 Y109.251 E2.44452
G1 X94.550 Y110.280 E2.53569
G1 X95.261 Y110.280 E2.58021
G1 X93.521 Y108.541 E2.73435
G1 X93.521 Y107.830 E2.77887
G1 X95.971 Y110.280 E2.99596
G1 X96.682 Y110.280 E3.04048
G1 X94.163 Y107.762 E3.26365
G1 X94.874 Y107.762 E3.30817
G1 X97.392 Y110.280 E3.53134
G1 X98.103 Y110.280 E3.57586
G1 X95.584 Y107.762 E3.79903
G1 X95.747 Y107.214 F15000.000
G1 X98.813 Y110.280 F1200.000 E4.07073
G1 X99.524 Y110.280 E4.11525
G1 X95.747 Y106.503 E4.44990
G1 X95.747 Y105.793 E4.49442
G1 X100.234 Y110.280 E4.89204
G1 X100.945 Y110.280 E4.93656
G1 X95.747 Y105.082 E5.39713
G1 X95.747 Y104.372 E5.44165
G1 X101.655 Y110.280 E5.96518
G1 X102.366 Y110.280 E6.00970
G1 X95.747 Y103.662 E6.59620
G1 X95.747 Y102.951 E6.64072
G1 X103.076 Y110.280 E7.29017
G1 X103.787 Y110.280 E7.33469
G1 X95.850 Y102.343 E8.03799
G1 X96.332 Y102.115 E8.07140
G1 X104.497 Y110.280 E8.79497
G1 X105.208 Y110.280 E8.83948
G1 X96.814 Y101.886 E9.58331
G1 X97.295 Y101.657 E9.61673
G1 X105.918 Y110.280 E10.38082
G1 X106.629 Y110.280 E10.42534
G1 X97.777 Y101.429 E11.20970
G1 X98.259 Y101.200 E11.24312
G1 X107.339 Y110.280 E12.04775
G1 X108.049 Y110.280 E12.09227
G1 X98.741 Y100.971 E12.91716
G1 X99.223 Y100.743 E12.95058
G1 X108.760 Y110.280 E13.79574
G1 X109.470 Y110.280 E13.84026
G1 X99.704 Y100.514 E14.70568
G1 X100.186 Y100.285 E14.73910
G1 X110.181 Y110.280 E15.62479
G1 X110.891 Y110.280 E15.66931
G1 X100.668 Y100.056 E16.57527
G1 X101.150 Y99.828 E16.60869
G1 X111.602 Y110.280 E17.53491
G1 X112.312 Y110.280 E17.57943
G1 X101.631 Y99.599 E18.52592
G1 X102.113 Y99.370 E18.55934
G1 X113.023 Y110.280 E19.52610
G1 X113.733 Y110.280 E19.57062
G1 X102.595 Y99.142 E20.55764
G1 X103.077 Y98.913 E20.59106
G1 X114.444 Y110.280 E21.59835
G1 X115.154 Y110.280 E21.64287
G1 X103.559 Y98.684 E22.67043
G1 X104.040 Y98.456 E22.70384
G1 X115.865 Y110.280 E23.75167
G1 X116.575 Y110.280 E23.79619
G1 X104.522 Y98.227 E24.86428
G1 X105.004 Y97.998 E24.89769
G1 X117.286 Y110.280 E25.98605
G1 X117.996 Y110.280 E26.03057
G1 X105.486 Y97.769 E27.13919
G1 X105.968 Y97.541 E27.17261
G1 X118.707 Y110.280 E28.30150
G1 X119.417 Y110.280 E28.34601
G1 X106.449 Y97.312 E29.49517
G1 X106.931 Y97.083 E29.52859
G1 X120.128 Y110.280 E30.69801
G1 X120.205 Y109.647 E30.73798
G1 X107.413 Y96.855 E31.87155
G1 X107.895 Y96.626 E31.90497
G1 X120.205 Y108.936 E32.99585
G1 X120.205 Y108.226 E33.04037
G1 X108.376 Y96.397 E34.08856
G1 X108.858 Y96.169 E34.12198
G1 X120.205 Y107.515 E35.12747
G1 X120.205 Y106.805 E35.17199
G1 X109.340 Y95.940 E36.13479
G1 X109.822 Y95.711 E36.16821
G1 X120.205 Y106.094 E37.08831
G1 X120.205 Y105.384 E37.13283
G1 X110.304 Y95.482 E38.01025
G1 X110.785 Y95.254 E38.04366
G1 X120.205 Y104.673 E38.87838
G1 X120.205 Y103.963 E38.92290
G1 X111.267 Y95.025 E39.71493
G1 X111.749 Y94.796 E39.74835
G1 X120.383 Y103.430 E40.51342
G1 X121.093 Y103.430 E40.55794
G1 X112.231 Y94.568 E41.34327
G1 X112.712 Y94.339 E41.37669
G1 X121.803 Y103.430 E42.18229
G1 X122.514 Y103.430 E42.22681
G1 X113.194 Y94.110 E43.05268
G1 X113.676 Y93.882 E43.08609
G1 X123.224 Y103.430 E43.93223
G1 X123.935 Y103.430 E43.97675
G1 X114.158 Y93.653 E44.84315
G1 X114.640 Y93.424 E44.87656
G1 X124.645 Y103.430 E45.76323
G1 X125.356 Y103.430 E45.80775
G1 X115.121 Y93.195 E46.71468
G1 X115.603 Y92.967 E46.74810
G1 X126.066 Y103.430 E47.67530
G1 X126.777 Y103.430 E47.71982
G1 X116.085 Y92.738 E48.66728
G1 X116.567 Y92.509 E48.70070
G1 X127.276 Y103.219 E49.64971
G1 X127.276 Y102.508 E49.69422
G1 X117.049 Y92.281 E50.60054
G1 X117.530 Y92.052 E50.63395
G1 X127.276 Y101.798 E51.49757
G1 X127.276 Y101.087 E51.54209
G1 X118.012 Y91.823 E52.36302
G1 X118.494 Y91.595 E52.39643
G1 X127.276 Y100.377 E53.17467
G1 X127.276 Y99.666 E53.21918
G1 X118.976 Y91.366 E53.95472
G1 X119.457 Y91.137 E53.98814
G1 X127.276 Y98.956 E54.68099
G1 X127.276 Y98.245 E54.72550
G1 X119.939 Y90.908 E55.37566
G1 X120.421 Y90.680 E55.40907
G1 X127.276 Y97.535 E56.01653
G1 X127.276 Y96.824 E56.06105
G1 X120.903 Y90.451 E56.62582
G1 X121.385 Y90.222 E56.65923
G1 X127.276 Y96.114 E57.18131
G1 X127.276 Y95.403 E57.22583
G1 X121.984 Y90.112 E57.69476
G1 X122.695 Y90.112 E57.73928
G1 X127.276 Y94.693 E58.14525
G1 X127.276 Y93.982 E58.18977
G1 X123.405 Y90.112 E58.53278
G1 X124.116 Y90.112 E58.57730
G1 X127.276 Y93.272 E58.85735
G1 X127.276 Y92.561 E58.90187
G1 X124.826 Y90.112 E59.11897
G1 X125.537 Y90.112 E59.16349
G1 X127.276 Y91.851 E59.31762
G1 X127.276 Y91.140 E59.36214
G1 X126.247 Y90.112 E59.45331
G1 X126.958 Y90.112 E59.49783
G1 X127.276 Y90.430 E59.52605
G1 F3600.000 E57.12605
G92 E0
G1 X88.910 Y110.003 F15000.000
G1 X88.910 Y109.803 F3600.000 E2.40000
G1 X88.911 Y108.775 F1200.000 E2.46406
G1 F3600.000 E0.06406
G92 E0
G1 X92.588 Y72.504 F15000.000
G1 X92.588 Y72.304 F3600.000 E2.40000
G1 X92.588 Y68.379 F1200.000 E2.64477
G1 X94.813 Y68.379 E2.78358
G1 X94.813 Y63.378 E3.09549
G1 X121.459 Y50.729 E4.93488
G1 X128.024 Y50.729 E5.34429
G1 X128.024 Y65.729 E6.27973
G1 X120.953 Y65.729 E6.72071
G1 X120.953 Y72.579 E7.14789
G1 X92.913 Y72.579 E8.89655
G1 X92.588 Y72.504
G1 X93.088 Y72.004 F15000.000
G1 X93.088 Y68.879 F1200.000 E9.09143
G1 X95.313 Y68.879 E9.23024
G1 X95.313 Y63.694 E9.55361
G1 X121.571 Y51.229 E11.36627
G1 X127.524 Y51.229 E11.73747
G1 X127.524 Y65.229 E12.61055
G1 X120.453 Y65.229 E13.05152
G1 X120.453 Y72.079 E13.47871
G1 X93.538 Y72.079 E15.15721
G1 X93.088 Y72.004
G1 F3600.000 E12.75721
G92 E0
G1 X89.841 Y72.579 F15000.000
G1 X89.641 Y72.579 F3600.000 E2.40000
G1 X87.726 Y72.579 F780.000 E2.51941
G1 X87.726 Y68.379 E2.78133
G1 X89.915 Y68.379 E2.91784
G1 X89.916 Y72.254 E3.15949
G1 X89.841 Y72.579
G1 X89.341 Y72.079 F15000.000
G1 X88.226 Y72.079 F780.000 E3.22899
G1 X88.226 Y68.879 E3.42855
G1 X89.415 Y68.879 E3.50270
G1 X89.416 Y71.629 E3.67419
G1 X89.341 Y72.079
G1 F3600.000 E1.27419
G92 E0
G1 X93.747 Y71.738 F15000.000
G1 X93.428 Y71.420 F3600.000 E2.40000
G1 X93.428 Y71.420 F2400.000
G1 X93.428 Y70.710 E2.44452
G1 X94.457 Y71.738 E2.53569
G1 X95.168 Y71.738 E2.58021
G1 X93.428 Y69.999 E2.73435
G1 X93.428 Y69.289 E2.77887
G1 X95.878 Y71.738 E2.99596
G1 X96.589 Y71.738 E3.04048
G1 X94.070 Y69.220 E3.26365
G1 X94.781 Y69.220 E3.30817
G1 X97.299 Y71.738 E3.53134
G1 X98.010 Y71.738 E3.57586
G1 X95.491 Y69.220 E3.79903
G1 X95.654 Y68.672 F15000.000
G1 X98.720 Y71.738 F1200.000 E4.07073
G1 X99.431 Y71.738 E4.11525
G1 X95.654 Y67.962 E4.44990
G1 X95.654 Y67.251 E4.49442
G1 X100.141 Y71.738 E4.89204
G1 X100.852 Y71.738 E4.93656
G1 X95.654 Y66.541 E5.39713
G1 X95.654 Y65.830 E5.44165
G1 X101.562 Y71.738 E5.96518
G1 X102.273 Y71.738 E6.00970
G1 X95.654 Y65.120 E6.59620
G1 X95.654 Y64.410 E6.64072
G1 X102.983 Y71.738 E7.29017
G1 X103.694 Y71.738 E7.33469
G1 X95.757 Y63.802 E8.03799
G1 X96.239 Y63.573 E8.07140
G1 X104.404 Y71.738 E8.79497
G1 X105.115 Y71.738 E8.83948
G1 X96.721 Y63.345 E9.58331
G1 X97.202 Y63.116 E9.61673
G1 X105.825 Y71.738 E10.38082
G1 X106.536 Y71.738 E10.42534
G1 X97.684 Y62.887 E11.20970
G1 X98.166 Y62.658 E11.24312
G1 X107.246 Y71.738 E12.04775
G1 X107.956 Y71.738 E12.09227
G1 X98.648 Y62.430 E12.91716
G1 X99.130 Y62.201 E12.95058
